cube滤镜(3D LUT)/Labradorite.cube
# Created by: Lutify.me
# Copyright: (c) Copyright Lutify.me 2015
# Website: https://lutify.me
#LUT size
LUT_3D_SIZE 33
#LUT data points
0.000000 0.000000 0.000000
0.014618 0.000000 0.000000
0.031372 0.000000 0.000000
0.048370 0.000000 0.000000
0.071320 0.000000 0.001923
0.098389 0.001862 0.002228
0.137177 0.006226 0.004425
0.178101 0.008850 0.006165
0.219025 0.012756 0.008301
0.252686 0.014893 0.008850
0.291382 0.017731 0.011078
0.328583 0.021362 0.012543
0.366486 0.023529 0.014679
0.402924 0.027893 0.015503
0.440643 0.033508 0.017731
0.473602 0.038818 0.018890
0.507812 0.043182 0.019928
0.538788 0.047546 0.020966
0.569885 0.051910 0.022125
0.600769 0.054962 0.022125
0.629791 0.058411 0.024384
0.659698 0.062775 0.024384
0.687439 0.067139 0.024384
0.717407 0.071503 0.024994
0.747864 0.075836 0.026581
0.779480 0.078003 0.027069
0.812439 0.082336 0.028809
0.846344 0.086700 0.029144
0.880646 0.091064 0.031006
0.912720 0.095459 0.031219
0.939697 0.099640 0.033234
0.952179 0.099670 0.033234
0.964691 0.099670 0.033234
0.000000 0.012512 0.000000
0.012512 0.014618 0.002136
0.029297 0.014618 0.002197
0.050385 0.016724 0.000000
0.075867 0.018982 0.001923
0.110565 0.020935 0.002228
0.151337 0.027100 0.004425
0.188629 0.031403 0.006226
0.233643 0.036072 0.008301
0.266449 0.038879 0.008850
0.302338 0.042603 0.011078
0.337280 0.046967 0.012543
0.371613 0.049927 0.013306
0.406097 0.053436 0.015503
0.440338 0.057800 0.016754
0.473755 0.062195 0.017731
0.504578 0.064392 0.018890
0.536774 0.068756 0.019928
0.567932 0.073120 0.020966
0.596466 0.075348 0.022125
0.627625 0.079620 0.022125
0.656738 0.083221 0.024384
0.685272 0.086212 0.024384
0.715240 0.089844 0.026520
0.746307 0.092682 0.026581
0.777344 0.097076 0.027069
0.810364 0.101440 0.028809
0.846344 0.105774 0.030945
0.880585 0.110077 0.031006
0.910797 0.114502 0.033142
0.939697 0.116486 0.033234
0.952179 0.116516 0.033234
0.964691 0.116516 0.033234
0.004272 0.033447 0.004272
0.014709 0.031494 0.004364
0.029297 0.029449 0.004425
0.044067 0.031311 0.004364
0.068939 0.035645 0.002228
0.102539 0.039825 0.001984
0.151154 0.044403 0.004028
0.194702 0.050812 0.006134
0.236176 0.056976 0.008301
0.269470 0.059662 0.008850
0.302612 0.063904 0.010529
0.339661 0.066803 0.012543
0.373932 0.070526 0.013306
0.408234 0.074768 0.014740
0.441589 0.079132 0.015503
0.472443 0.081421 0.017731
0.504486 0.085632 0.018829
0.535645 0.087921 0.019928
0.564514 0.092255 0.019928
0.595398 0.094421 0.022125
0.623291 0.097839 0.022125
0.653198 0.100922 0.024353
0.683716 0.105133 0.024384
0.712952 0.107422 0.025146
0.745667 0.111786 0.026581
0.775299 0.115662 0.027191
0.809814 0.120361 0.028809
0.843994 0.124725 0.031006
0.876221 0.127014 0.031006
0.912384 0.133270 0.033203
0.939697 0.135620 0.033234
0.952179 0.135620 0.033234
0.964691 0.135620 0.033234
0.012695 0.060822 0.012695
0.023163 0.058960 0.010651
0.033447 0.056549 0.008728
0.041962 0.052582 0.010864
0.056091 0.050598 0.008728
0.087585 0.056702 0.004364
0.134766 0.063232 0.002441
0.185791 0.069550 0.004150
0.231628 0.074402 0.006287
0.268646 0.078552 0.008453
0.304688 0.082886 0.008850
0.339661 0.087280 0.011078
0.374573 0.091644 0.012665
0.408234 0.093964 0.013306
0.441864 0.098114 0.015503
0.473602 0.100494 0.016907
0.503387 0.104614 0.017731
0.533325 0.106964 0.018982
0.564423 0.111145 0.019928
0.593628 0.114594 0.021027
0.623169 0.116821 0.022125
0.651062 0.119995 0.023102
0.680786 0.122162 0.024384
0.710754 0.126495 0.024994
0.742889 0.130096 0.026581
0.774811 0.134521 0.027069
0.806427 0.137360 0.028809
0.843445 0.141724 0.031006
0.877930 0.146118 0.031006
0.912537 0.150452 0.033203
0.939697 0.154449 0.033234
0.952179 0.154449 0.033234
0.964691 0.154449 0.033234
0.019379 0.088776 0.019379
0.032074 0.088989 0.019592
0.042297 0.086670 0.017181
0.050171 0.084167 0.015015
0.058044 0.076874 0.015503
0.074738 0.075684 0.013367
0.113647 0.082520 0.006500
0.167023 0.088837 0.006073
0.216522 0.093201 0.004425
0.262085 0.097534 0.006287
0.300385 0.101776 0.008453
0.340332 0.106262 0.010315
0.375336 0.110626 0.011078
0.408234 0.113037 0.013306
0.441589 0.117126 0.014832
0.474518 0.120300 0.015503
0.503387 0.123657 0.016907
0.534637 0.127106 0.017731
0.564209 0.130127 0.019928
0.594513 0.133606 0.019928
0.622040 0.136658 0.021027
0.650848 0.140259 0.022125
0.681488 0.143158 0.023102
0.710754 0.145294 0.024384
0.740936 0.149384 0.025208
0.773804 0.152557 0.026581
0.805389 0.156158 0.028778
0.839996 0.160797 0.029144
0.878418 0.164886 0.031006
0.912720 0.169250 0.033203
0.939697 0.171661 0.033234
0.952179 0.171539 0.033234
0.964691 0.171539 0.033234
0.029968 0.118683 0.029968
0.042450 0.118683 0.029968
0.054962 0.120392 0.027893
0.063385 0.116608 0.021637
0.067505 0.112183 0.017517
0.074738 0.102509 0.016205
0.099457 0.101257 0.016968
0.148285 0.108032 0.013092
0.197174 0.114197 0.008148
0.245941 0.118744 0.004364
0.291748 0.120911 0.004761
0.335846 0.125275 0.006989
0.371582 0.128235 0.009186
0.407684 0.132660 0.011078
0.442261 0.136475 0.013306
0.473602 0.140503 0.014832
0.504150 0.143402 0.015503
0.533691 0.145966 0.016907
0.565125 0.149139 0.017731
0.594513 0.152588 0.018982
0.622101 0.155640 0.019928
0.650848 0.159241 0.021027
0.680786 0.162140 0.022125
0.710754 0.164642 0.023102
0.742004 0.169983 0.024384
0.773163 0.172882 0.026581
0.805756 0.176971 0.026581
0.842255 0.181732 0.028809
0.875275 0.184235 0.029419
0.912384 0.188446 0.031006
0.939697 0.192444 0.033203
0.952179 0.192444 0.033234
0.964691 0.192444 0.033234
0.039032 0.149078 0.039032
0.051514 0.148743 0.039032
0.063782 0.148651 0.038757
0.074310 0.148865 0.032593
0.082397 0.148376 0.021912
0.085999 0.140015 0.014771
0.095917 0.125122 0.023132
0.138184 0.124695 0.023956
0.178894 0.133270 0.021851
0.227905 0.141785 0.013123
0.279358 0.144379 0.004974
0.324921 0.146881 0.004425
0.367310 0.149506 0.006622
0.405518 0.154816 0.008362
0.440338 0.157349 0.010529
0.473267 0.160553 0.012665
0.504486 0.163879 0.013733
0.535522 0.167175 0.015503
0.565460 0.169403 0.016907
0.593628 0.172516 0.017731
0.623169 0.176880 0.018158
0.650848 0.179443 0.019928
0.681488 0.183380 0.021027
0.710754 0.185516 0.022125
0.741089 0.189331 0.023102
0.772827 0.192017 0.024384
0.805389 0.196381 0.026581
0.840057 0.200745 0.026917
0.874573 0.205109 0.028809
0.912537 0.209473 0.031006
0.939697 0.212036 0.031006
0.952179 0.213226 0.031006
0.964691 0.213715 0.031006
0.049957 0.182983 0.049957
0.064209 0.184265 0.051697
0.076691 0.184753 0.051697
0.085480 0.181274 0.045959
0.097076 0.184204 0.040436
0.103333 0.180176 0.035248
0.107269 0.167297 0.026093
0.137756 0.152496 0.024384
0.172546 0.150299 0.031708
0.212708 0.158356 0.027985
0.264191 0.169098 0.019379
0.313690 0.174377 0.007965
0.362732 0.177734 0.004761
0.403320 0.177246 0.006226
0.438629 0.180786 0.007141
0.473419 0.183472 0.009338
0.503998 0.184601 0.011536
0.535187 0.188416 0.013306
0.564697 0.190826 0.014740
0.593689 0.193756 0.015503
0.623169 0.197266 0.016815
0.650848 0.199493 0.017731
0.680786 0.202393 0.018890
0.710754 0.206726 0.019928
0.741852 0.210083 0.022125
0.775024 0.213257 0.023102
0.807587 0.217590 0.024353
0.840057 0.221497 0.025208
0.875549 0.224884 0.027069
0.910522 0.228485 0.028778
0.939697 0.233185 0.029297
0.952179 0.233185 0.029297
0.964691 0.233185 0.029297
0.063141 0.219025 0.063141
0.075134 0.218567 0.062653
0.087708 0.218628 0.062714
0.100067 0.218842 0.062195
0.110626 0.219025 0.058136
0.113159 0.218842 0.053497
0.111023 0.212250 0.041351
0.153748 0.197174 0.023834
0.176392 0.176422 0.037659
0.210510 0.175690 0.038757
0.250549 0.182922 0.034454
0.302307 0.196838 0.025879
0.355957 0.205200 0.014130
0.398132 0.208160 0.006653
0.437714 0.207275 0.004425
0.472443 0.210754 0.006165
0.505585 0.210175 0.008301
0.536072 0.211304 0.010437
0.565186 0.213501 0.011627
0.593964 0.216614 0.013306
0.623169 0.219299 0.014679
0.650848 0.221466 0.015503
0.680786 0.224579 0.016754
0.710754 0.227966 0.017731
0.741791 0.232300 0.019928
0.773315 0.234467 0.020966
0.805817 0.237030 0.022125
0.841919 0.243195 0.024384
0.875671 0.246155 0.025208
0.909241 0.251343 0.026581
0.939697 0.253906 0.028778
0.952179 0.253906 0.028809
0.964691 0.253906 0.028809
0.075623 0.257141 0.075623
0.088135 0.257141 0.075623
0.100647 0.257141 0.075623
0.113129 0.257141 0.075623
0.125305 0.256439 0.073059
0.131348 0.255249 0.069000
0.132446 0.254059 0.064148
0.160248 0.248199 0.050079
0.195984 0.226471 0.039307
0.208069 0.200470 0.043030
0.249298 0.202057 0.043732
0.294495 0.212219 0.040955
0.343292 0.224548 0.032990
0.393494 0.235046 0.019775
0.436859 0.241882 0.011139
0.474792 0.241211 0.004425
0.509552 0.241760 0.003937
0.540924 0.242249 0.006073
0.568909 0.242859 0.007263
0.596710 0.241974 0.009491
0.623901 0.244324 0.011078
0.651672 0.245087 0.012482
0.680786 0.247925 0.013916
0.710754 0.250763 0.015503
0.740662 0.253540 0.016693
0.773315 0.257904 0.018341
0.806427 0.261627 0.019928
0.841583 0.265656 0.022125
0.875214 0.269043 0.023041
0.911469 0.274689 0.024994
0.939697 0.275269 0.026459
0.952179 0.277283 0.025085
0.964691 0.276733 0.024994
0.090912 0.295837 0.090912
0.101929 0.294281 0.089417
0.115936 0.295837 0.090912
0.128418 0.295837 0.090424
0.140228 0.295837 0.088318
0.149017 0.295807 0.086151
0.142548 0.293610 0.084015
0.131714 0.293182 0.075287
0.210327 0.287354 0.047760
0.239929 0.256958 0.051208
0.254425 0.232147 0.051788
0.291626 0.231476 0.050262
0.338928 0.241425 0.047333
0.387665 0.255188 0.040222
0.433960 0.268402 0.028931
0.475830 0.276215 0.017029
0.509613 0.277252 0.008575
0.542999 0.277069 0.002228
0.573639 0.276581 0.002930
0.600067 0.275665 0.004517
0.627563 0.273682 0.006622
0.655365 0.274353 0.008087
0.683014 0.275055 0.009552
0.710754 0.277283 0.011749
0.740692 0.278534 0.014008
0.772827 0.282379 0.014465
0.806488 0.285004 0.016632
0.841583 0.289032 0.018768
0.875824 0.293732 0.020630
0.912720 0.296539 0.022125
0.939697 0.300079 0.022827
0.952179 0.300079 0.022827
0.964691 0.300079 0.022827
0.105469 0.336700 0.105469
0.117981 0.336700 0.105469
0.130493 0.336700 0.105469
0.143005 0.336700 0.105469
0.155487 0.336700 0.104004
0.166077 0.336273 0.103241
0.167023 0.335907 0.101471
0.156586 0.334198 0.096558
0.201782 0.329834 0.077179
0.267426 0.320007 0.048401
0.283569 0.289032 0.059113
0.297607 0.263672 0.058289
0.334717 0.261475 0.056061
0.383484 0.272095 0.053833
0.428650 0.286438 0.046661
0.472290 0.300140 0.037720
0.510376 0.309387 0.025726
0.544037 0.314117 0.014801
0.577026 0.315033 0.005402
0.604980 0.314514 0.001312
0.632629 0.312347 0.000763
0.658966 0.310883 0.002960
0.686737 0.310181 0.004425
0.713806 0.308655 0.006561
0.742889 0.308655 0.008698
0.773590 0.309906 0.010864
0.806549 0.312042 0.012238
0.840820 0.314941 0.014404
0.874756 0.319031 0.016541
0.912720 0.321442 0.018707
0.939697 0.325684 0.019928
0.952179 0.325684 0.019928
0.964691 0.325684 0.019928
0.120697 0.377563 0.120697
0.133179 0.377563 0.120697
0.145691 0.377563 0.120697
0.158203 0.377563 0.120697
0.170685 0.377563 0.120697
0.181824 0.377563 0.119293
0.188080 0.376709 0.118469
0.177399 0.375336 0.114532
0.175293 0.372833 0.104095
0.261383 0.368286 0.071869
0.313538 0.352600 0.060791
0.327942 0.321136 0.066986
0.342957 0.295898 0.065613
0.378571 0.292816 0.062592
0.425690 0.302643 0.059113
0.470764 0.318573 0.054108
0.507812 0.331055 0.047607
0.547272 0.344116 0.034821
0.580139 0.350555 0.021729
0.608368 0.353180 0.012512
0.636993 0.353180 0.004150
0.663300 0.350983 0.000641
0.690369 0.348755 0.000824
0.718170 0.346558 0.000824
0.747314 0.345154 0.003052
0.776428 0.344330 0.005249
0.808990 0.342957 0.007477
0.840057 0.345154 0.010040
0.873993 0.346283 0.012207
0.912720 0.349243 0.014343
0.939697 0.351379 0.016327
0.952179 0.351257 0.016327
0.964691 0.352081 0.016327
0.135895 0.418427 0.135895
0.148407 0.418427 0.135895
0.160919 0.421051 0.135895
0.173401 0.418427 0.135895
0.185913 0.418427 0.135895
0.197449 0.418762 0.134949
0.206879 0.418915 0.134613
0.198822 0.416199 0.131958
0.182007 0.414001 0.127258
0.241119 0.411774 0.103058
0.320251 0.406097 0.044739
0.359985 0.386536 0.069977
0.372559 0.355469 0.075623
0.385193 0.329407 0.071289
0.420837 0.324982 0.070038
0.462555 0.333588 0.066986
0.507385 0.350525 0.063538
0.547058 0.363739 0.054382
0.581573 0.376221 0.044495
0.613129 0.386597 0.033966
0.640869 0.390045 0.019592
0.667664 0.391846 0.009613
0.694702 0.389618 0.004150
0.720917 0.388092 0.000702
0.749512 0.385956 0.000000
0.778595 0.383820 0.000885
0.810242 0.380768 0.001312
0.842834 0.380432 0.003479
0.875061 0.379456 0.006500
0.912720 0.380554 0.008667
0.939697 0.380341 0.011963
0.952179 0.380493 0.011902
0.964691 0.380341 0.011993
0.152130 0.461517 0.152130
0.162415 0.457092 0.149902
0.175720 0.458740 0.150726
0.187408 0.457092 0.149902
0.199890 0.457092 0.149902
0.213654 0.459595 0.151154
0.221313 0.457092 0.149902
0.221405 0.458344 0.148926
0.208221 0.455994 0.145630
0.207825 0.452332 0.133453
0.297241 0.448517 0.099335
0.373108 0.442474 0.069122
0.403595 0.419464 0.082764
0.415100 0.390533 0.083374
0.427338 0.361572 0.077789
0.462738 0.358337 0.076599
0.502411 0.366974 0.074615
0.540771 0.378662 0.070312
0.580658 0.395905 0.063110
0.612183 0.408295 0.053223
0.643066 0.418335 0.041382
0.671295 0.425323 0.029297
0.699036 0.430237 0.018982
0.725281 0.428925 0.009125
0.752991 0.426086 0.001953
0.782654 0.426575 0.000000
0.812988 0.422638 0.000000
0.845398 0.421600 0.000000
0.877472 0.419159 0.000977
0.910736 0.415009 0.001190
0.939697 0.415161 0.005249
0.952179 0.415009 0.005402
0.964691 0.418213 0.004150
0.162994 0.495758 0.162994
0.176453 0.497681 0.163940
0.187988 0.495758 0.162994
0.201324 0.497406 0.163818
0.212982 0.495758 0.162994
0.226990 0.497650 0.164490
0.236176 0.495758 0.162994
0.241486 0.497437 0.164642
0.226654 0.496887 0.161957
0.188782 0.493958 0.155945
0.276978 0.489105 0.129730
0.366669 0.482971 0.076965
0.425659 0.477905 0.081360
0.444305 0.451965 0.093170
0.452271 0.418884 0.089691
0.469330 0.396118 0.086517
0.501312 0.391602 0.084351
0.540680 0.397888 0.083252
0.577301 0.410828 0.079102
0.611969 0.425201 0.072601
0.644592 0.438843 0.063202
0.673004 0.451233 0.050873
0.701202 0.458649 0.038025
0.729584 0.463593 0.026154
0.757355 0.465302 0.014679
0.787292 0.466980 0.004791
0.815430 0.462128 0.000763
0.844971 0.459991 0.000000
0.880371 0.459778 0.000000
0.911713 0.453705 0.000000
0.939697 0.453674 0.000000
0.952179 0.453705 0.000000
0.964691 0.454865 0.000000
0.177185 0.534393 0.177185
0.188568 0.533264 0.176056
0.201080 0.533264 0.176056
0.215576 0.535278 0.178070
0.227997 0.535217 0.177979
0.238922 0.533630 0.176392
0.250793 0.534790 0.177582
0.256775 0.535004 0.177795
0.252258 0.534393 0.175507
0.222534 0.531067 0.172882
0.252930 0.527313 0.155853
0.347839 0.523743 0.116913
0.420990 0.518585 0.066986
0.467621 0.509003 0.093140
0.485718 0.484283 0.101715
0.493164 0.453217 0.098480
0.507843 0.427002 0.093018
0.536621 0.421509 0.091949
0.573883 0.428802 0.090790
0.607605 0.440765 0.086578
0.642792 0.456055 0.081390
0.674103 0.469116 0.073761
0.702942 0.482208 0.062439
0.731171 0.491333 0.048431
0.760040 0.498413 0.033783
0.789429 0.502777 0.021179
0.818665 0.501984 0.008026
0.848572 0.501526 0.001862
0.879822 0.498138 0.000000
0.912537 0.496338 0.000000
0.939697 0.493408 0.000000
0.952179 0.493408 0.000000
0.964691 0.493408 0.000000
0.190308 0.570953 0.190308
0.202728 0.569763 0.189209
0.215179 0.569641 0.189117
0.227814 0.570953 0.190308
0.239410 0.569122 0.189392
0.251617 0.568573 0.189117
0.263092 0.569092 0.189880
0.270966 0.569275 0.189819
0.268585 0.569794 0.189117
0.247955 0.566986 0.186371
0.224609 0.563660 0.176208
0.327942 0.559448 0.145020
0.409882 0.552887 0.092377
0.470032 0.550873 0.074615
0.506317 0.538086 0.107819
0.521301 0.511200 0.109406
0.528503 0.481964 0.105042
0.543060 0.458923 0.100555
0.573151 0.454651 0.100677
0.605591 0.460114 0.098602
0.638641 0.471741 0.095276
0.671967 0.485687 0.088989
0.702911 0.499084 0.080261
0.734070 0.513306 0.069977
0.761078 0.523499 0.055481
0.792755 0.532745 0.041382
0.820679 0.536682 0.027283
0.850311 0.536896 0.014191
0.882568 0.535370 0.003601
0.912720 0.535187 0.000000
0.939697 0.532867 0.000000
0.952179 0.531830 0.000000
0.964691 0.533142 0.000000
0.201233 0.604065 0.201233
0.212708 0.602051 0.200195
0.226227 0.604065 0.201233
0.237579 0.601929 0.200073
0.250000 0.601868 0.199982
0.263733 0.602142 0.200256
0.274445 0.602142 0.201233
0.284027 0.604065 0.201233
0.283813 0.601715 0.200531
0.270447 0.600891 0.199036
0.214233 0.600342 0.194733
0.296509 0.595032 0.172302
0.395813 0.589417 0.122650
0.466675 0.585449 0.055054
0.514374 0.580383 0.097168
0.543610 0.568573 0.118256
0.554718 0.540283 0.117096
0.563751 0.510742 0.112610
0.577209 0.489929 0.108215
0.606506 0.484528 0.108215
0.637665 0.489899 0.106018
0.668579 0.500854 0.103058
0.701111 0.514404 0.097168
0.730682 0.528656 0.088989
0.762268 0.542480 0.079865
0.790558 0.552948 0.063690
0.820892 0.562561 0.048462
0.852661 0.569244 0.032257
0.881348 0.568909 0.018555
0.911987 0.569885 0.005707
0.939697 0.567413 0.001923
0.952179 0.567413 0.001923
0.964691 0.568634 0.001923
0.209961 0.634399 0.209961
0.223358 0.635284 0.210876
0.235870 0.635284 0.210876
0.248383 0.634186 0.210876
0.260864 0.635010 0.210876
0.273376 0.634308 0.210876
0.285400 0.635284 0.212189
0.294922 0.635284 0.212189
0.297028 0.634735 0.211639
0.287201 0.633972 0.209961
0.253113 0.633087 0.207825
0.273743 0.628845 0.193420
0.373383 0.621918 0.158081
0.455475 0.617157 0.098999
0.514435 0.616333 0.079468
0.554962 0.612305 0.119873
0.577850 0.595490 0.130035
0.588013 0.569519 0.125824
0.597107 0.541962 0.121338
0.610504 0.519714 0.116943
0.636505 0.516449 0.116058
0.666382 0.520752 0.114746
0.698273 0.530792 0.109833
0.728760 0.543945 0.106171
0.760254 0.556732 0.097748
0.791870 0.572937 0.087219
0.820953 0.584656 0.071930
0.851349 0.594330 0.055389
0.881958 0.599243 0.038818
0.913208 0.600769 0.023132
0.937469 0.602966 0.013397
0.949982 0.602966 0.013336
0.962494 0.602966 0.013336
0.220917 0.665222 0.220917
0.233398 0.665222 0.220917
0.245911 0.665222 0.220917
0.258423 0.665222 0.220917
0.270935 0.665222 0.220917
0.283081 0.664856 0.220551
0.295929 0.665222 0.220917
0.304474 0.665222 0.220917
0.309570 0.664398 0.220917
0.303375 0.665222 0.220917
0.274567 0.662292 0.219360
0.232819 0.660156 0.208496
0.347382 0.654968 0.182709
0.438812 0.650604 0.135345
0.504669 0.647491 0.070648
0.556427 0.644440 0.106323
0.591431 0.641968 0.134003
0.608948 0.621307 0.138763
0.618073 0.598633 0.135803
0.628296 0.574463 0.130035
0.641693 0.550903 0.125671
0.666443 0.546448 0.123444
0.696289 0.549927 0.123444
0.726257 0.560516 0.119232
0.758118 0.572754 0.114319
0.789703 0.588043 0.105042
0.821838 0.601105 0.095062
0.851288 0.613312 0.079437
0.882568 0.623413 0.060608
0.912537 0.629150 0.043396
0.937469 0.632019 0.032959
0.949982 0.632019 0.032959
0.962494 0.632019 0.031555
0.229614 0.695129 0.229614
0.242096 0.695129 0.229614
0.254639 0.695129 0.229614
0.267120 0.695129 0.229614
0.279358 0.694855 0.229340
0.292114 0.695129 0.229614
0.304626 0.695129 0.229614
0.313934 0.695129 0.230377
0.319641 0.695129 0.230377
0.317200 0.695129 0.230377
0.292053 0.693634 0.229614
0.215729 0.691467 0.222351
0.321442 0.687103 0.200745
0.423492 0.681305 0.163391
0.495544 0.676666 0.107880
0.548279 0.675201 0.081848
0.591553 0.674103 0.123199
0.624451 0.668427 0.146912
0.636444 0.647614 0.147461
0.647858 0.624878 0.145203
0.657471 0.600922 0.138763
0.670807 0.580750 0.134399
0.697723 0.575562 0.132202
0.724640 0.579834 0.132172
0.757629 0.590088 0.127960
0.786133 0.601318 0.121674
0.820038 0.616180 0.112946
0.851898 0.629364 0.101990
0.880646 0.640564 0.087341
0.911072 0.651764 0.068665
0.937469 0.655975 0.054749
0.949982 0.655975 0.054749
0.962494 0.655975 0.054749
0.238342 0.725067 0.238342
0.252289 0.726501 0.239807
0.263336 0.725067 0.238342
0.275818 0.725067 0.238342
0.288330 0.725067 0.238342
0.300812 0.725067 0.238342
0.314453 0.726166 0.240143
0.324097 0.725067 0.240540
0.331573 0.725067 0.240540
0.329681 0.725067 0.240540
0.313324 0.722870 0.239716
0.267365 0.721405 0.234650
0.301971 0.717041 0.219513
0.410767 0.712677 0.184296
0.485321 0.707367 0.138947
0.540924 0.704651 0.084686
0.588623 0.702911 0.100647
0.627350 0.701538 0.140625
0.653198 0.693787 0.157379
0.666748 0.673920 0.158417
0.675720 0.650635 0.153900
0.686005 0.628815 0.147491
0.700012 0.609924 0.143097
0.724731 0.605499 0.140900
0.754547 0.609650 0.140900
0.783905 0.618134 0.136658
0.816040 0.629028 0.130371
0.850098 0.644348 0.121613
0.878174 0.656708 0.110474
0.911835 0.669800 0.091919
0.935272 0.676514 0.079437
0.947754 0.676514 0.079437
0.960266 0.676514 0.079437
0.248657 0.756653 0.248657
0.259552 0.755035 0.247070
0.272064 0.755035 0.247070
0.285187 0.755646 0.247681
0.297058 0.755035 0.247070
0.310181 0.755035 0.247070
0.322479 0.755035 0.249268
0.334564 0.756775 0.249268
0.339935 0.755035 0.249268
0.341522 0.753448 0.249268
0.329407 0.752838 0.249268
0.290833 0.751373 0.246246
0.270081 0.749237 0.234741
0.377197 0.742645 0.208771
0.467651 0.738281 0.170380
0.531433 0.735107 0.117218
0.584198 0.733521 0.078613
0.626709 0.731293 0.126312
0.660950 0.731232 0.157898
0.684204 0.719818 0.169281
0.695190 0.698853 0.167145
0.705536 0.678467 0.162781
0.715881 0.656647 0.156860
0.728485 0.639282 0.151825
0.754547 0.633789 0.150238
0.785645 0.639099 0.149750
0.814056 0.646118 0.145416
0.846008 0.658630 0.138824
0.879395 0.671722 0.128784
0.909271 0.684540 0.117462
0.933044 0.692749 0.105621
0.945526 0.692749 0.108795
0.958038 0.692749 0.105591
0.256348 0.784943 0.255798
0.268829 0.784943 0.255798
0.282867 0.787048 0.257843
0.293854 0.785522 0.256348
0.306335 0.784943 0.255798
0.320160 0.786835 0.257629
0.332977 0.786774 0.258545
0.343781 0.785431 0.257996
0.351898 0.786621 0.259674
0.352966 0.784546 0.258606
0.344910 0.782745 0.257996
0.314911 0.782745 0.257996
0.254364 0.779144 0.248291
0.351807 0.775360 0.228180
0.449738 0.770447 0.197083
0.518921 0.766693 0.152924
0.573700 0.763367 0.095795
0.620697 0.761169 0.086761
0.657227 0.761169 0.139374
0.693085 0.761414 0.171021
0.716431 0.750946 0.182404
0.725098 0.725800 0.178619
0.736420 0.707611 0.175781
0.743683 0.684418 0.167694
0.757263 0.666504 0.162201
0.785645 0.662689 0.162262
0.815338 0.666931 0.158478
0.846008 0.675842 0.154480
0.875671 0.684753 0.147827
0.907532 0.699219 0.139252
0.932495 0.707458 0.128998
0.944977 0.707458 0.130646
0.957489 0.707458 0.128998
0.266724 0.816650 0.266724
0.279694 0.817078 0.266724
0.291718 0.814911 0.266724
0.304199 0.814911 0.266724
0.317200 0.815674 0.266724
0.329193 0.814911 0.266724
0.341705 0.816223 0.268005
0.352478 0.815399 0.267212
0.360626 0.816650 0.268921
0.363861 0.814911 0.268921
0.358002 0.813873 0.268921
0.334290 0.812714 0.267944
0.282593 0.810455 0.262238
0.324402 0.807831 0.246490
0.425323 0.803070 0.219574
0.502075 0.798218 0.184235
0.562988 0.794342 0.134735
0.612946 0.793884 0.084412
0.653015 0.791046 0.112335
0.691559 0.792267 0.159912
0.724335 0.788116 0.185455
0.744202 0.776855 0.193359
0.753265 0.754486 0.189697
0.764923 0.733978 0.186707
0.773712 0.712250 0.178528
0.788330 0.695312 0.172455
0.813507 0.690399 0.173218
0.842072 0.693451 0.169891
0.875183 0.703278 0.165253
0.905396 0.713959 0.158478
0.930328 0.720428 0.150787
0.942871 0.720428 0.151276
0.955353 0.720428 0.150787
0.275452 0.844849 0.275452
0.289642 0.846558 0.277161
0.300842 0.845245 0.275848
0.315155 0.847046 0.277649
0.326965 0.846344 0.276947
0.338348 0.844849 0.275452
0.351257 0.845245 0.277649
0.362915 0.846130 0.277649
0.370300 0.845398 0.277679
0.375885 0.847046 0.279846
0.373016 0.845245 0.278076
0.355591 0.844849 0.279114
0.310822 0.842072 0.274475
0.289429 0.839508 0.262146
0.402710 0.835144 0.239990
0.488220 0.831116 0.210083
0.549469 0.826019 0.171875
0.603058 0.824890 0.115204
0.648102 0.822266 0.054077
0.687103 0.821777 0.132294
0.723633 0.821289 0.174683
0.754242 0.816803 0.198608
0.772675 0.803162 0.204285
0.784576 0.783356 0.202148
0.795319 0.762207 0.198059
