cube滤镜(3D LUT)/Labradorite.cube
# Created by: Lutify.me
# Copyright: (c) Copyright Lutify.me 2015
# Website: https://lutify.me
#LUT size
LUT_3D_SIZE 5
#LUT data points
0.000000 0.000000 0.000000
0.219025 0.012756 0.008301
0.507812 0.043182 0.019928
0.747864 0.075836 0.026581
0.964691 0.099670 0.033234
0.063141 0.219025 0.063141
0.176392 0.176422 0.037659
0.505585 0.210175 0.008301
0.741791 0.232300 0.019928
0.964691 0.253906 0.028809
0.177185 0.534393 0.177185
0.252258 0.534393 0.175507
0.507843 0.427002 0.093018
0.760040 0.498413 0.033783
0.964691 0.493408 0.000000
0.256348 0.784943 0.255798
0.351898 0.786621 0.259674
0.573700 0.763367 0.095795
0.757263 0.666504 0.162201
0.957489 0.707458 0.128998
0.314453 0.964691 0.314453
0.410583 0.964691 0.314453
0.473480 0.964691 0.269073
0.845306 0.962494 0.233643
0.951416 0.851746 0.225891
0.032135 0.064789 0.207977
0.175293 0.001099 0.227325
0.514465 0.017731 0.173645
0.767822 0.028809 0.128815
0.964691 0.037659 0.133240
0.011078 0.216248 0.227325
0.180267 0.221802 0.232880
0.508911 0.238403 0.190247
0.748962 0.268860 0.190796
0.964691 0.292664 0.188599
0.138428 0.527191 0.163666
0.243958 0.531067 0.179169
0.511139 0.472382 0.263855
0.748444 0.494537 0.193573
0.964691 0.485107 0.178619
0.225891 0.778320 0.271637
0.335297 0.781647 0.299316
0.502289 0.770020 0.253906
0.760590 0.697510 0.319244
0.960266 0.740692 0.257233
0.288422 0.964691 0.348053
0.397308 0.964691 0.369049
0.368866 0.964691 0.384583
0.818756 0.962494 0.322540
0.953613 0.877777 0.372925
0.084167 0.182709 0.477905
0.150391 0.070312 0.490662
0.516663 0.000000 0.522217
0.767242 0.011627 0.505035
0.962494 0.024384 0.453552
0.067017 0.335876 0.505615
0.220703 0.337494 0.494507
0.515015 0.214600 0.519440
0.767822 0.213501 0.486206
0.962494 0.216827 0.430847
0.001099 0.518860 0.519989
0.176971 0.517792 0.517792
0.511108 0.523315 0.526642
0.747864 0.517792 0.482910
0.964691 0.542114 0.485657
0.113495 0.766144 0.515015
0.212952 0.767822 0.512817
0.456909 0.773895 0.471283
0.765045 0.731262 0.545990
0.964691 0.753418 0.495636
0.190460 0.964691 0.495636
0.303192 0.964691 0.486206
0.371613 0.964691 0.403748
0.769470 0.964691 0.478455
0.955841 0.908234 0.575348
0.124573 0.285126 0.711884
0.206848 0.202637 0.708557
0.512787 0.000000 0.761169
0.767242 0.000000 0.760620
0.962494 0.000000 0.760620
0.105743 0.444336 0.735138
0.262207 0.439362 0.725189
0.491760 0.217377 0.756195
0.768372 0.212402 0.761719
0.962494 0.214600 0.760040
0.060913 0.585297 0.753967
0.240082 0.595306 0.750092
0.536041 0.606903 0.741241
0.767242 0.518341 0.760620
0.962494 0.518341 0.739594
0.000000 0.762268 0.760620
0.178619 0.762817 0.761169
0.515564 0.763367 0.761169
0.760590 0.766144 0.765594
0.964691 0.772797 0.752869
0.075867 0.964691 0.760620
0.155365 0.964691 0.759491
0.480682 0.964691 0.755646
0.733490 0.964691 0.726837
0.960266 0.938141 0.777771
0.159454 0.367615 0.909332
0.235657 0.266846 0.896027
0.469086 0.028778 0.956940
0.765045 0.000000 0.964691
0.962494 0.000000 0.964691
0.148376 0.524628 0.929260
0.299866 0.517456 0.920410
0.359985 0.297638 0.912109
0.765594 0.214600 0.964691
0.962494 0.214050 0.964691
0.117371 0.657288 0.948090
0.298187 0.666138 0.942566
0.560944 0.673889 0.931458
0.763947 0.519440 0.961945
0.962494 0.517792 0.964691
0.054260 0.794922 0.960266
0.234528 0.801025 0.958618
0.549347 0.814301 0.954163
0.778900 0.821503 0.945312
0.962494 0.762268 0.964691
0.000000 0.964691 0.964691
0.178619 0.964691 0.964691
0.516663 0.964691 0.964691
0.768921 0.964691 0.964691
0.964691 0.964691 0.964691
