cube滤镜(3D LUT)/Labradorite.cube
# Created by: Lutify.me
# Copyright: (c) Copyright Lutify.me 2015
# Website: https://lutify.me
#LUT size
LUT_3D_SIZE 9
#LUT data points
0.000000 0.000000 0.000000
0.071320 0.000000 0.001923
0.219025 0.012756 0.008301
0.366486 0.023529 0.014679
0.507812 0.043182 0.019928
0.629791 0.058411 0.024384
0.747864 0.075836 0.026581
0.880646 0.091064 0.031006
0.964691 0.099670 0.033234
0.019379 0.088776 0.019379
0.058044 0.076874 0.015503
0.216522 0.093201 0.004425
0.375336 0.110626 0.011078
0.503387 0.123657 0.016907
0.622040 0.136658 0.021027
0.740936 0.149384 0.025208
0.878418 0.164886 0.031006
0.964691 0.171539 0.033234
0.063141 0.219025 0.063141
0.110626 0.219025 0.058136
0.176392 0.176422 0.037659
0.355957 0.205200 0.014130
0.505585 0.210175 0.008301
0.623169 0.219299 0.014679
0.741791 0.232300 0.019928
0.875671 0.246155 0.025208
0.964691 0.253906 0.028809
0.120697 0.377563 0.120697
0.170685 0.377563 0.120697
0.175293 0.372833 0.104095
0.342957 0.295898 0.065613
0.507812 0.331055 0.047607
0.636993 0.353180 0.004150
0.747314 0.345154 0.003052
0.873993 0.346283 0.012207
0.964691 0.352081 0.016327
0.177185 0.534393 0.177185
0.227997 0.535217 0.177979
0.252258 0.534393 0.175507
0.420990 0.518585 0.066986
0.507843 0.427002 0.093018
0.642792 0.456055 0.081390
0.760040 0.498413 0.033783
0.879822 0.498138 0.000000
0.964691 0.493408 0.000000
0.220917 0.665222 0.220917
0.270935 0.665222 0.220917
0.309570 0.664398 0.220917
0.347382 0.654968 0.182709
0.591431 0.641968 0.134003
0.641693 0.550903 0.125671
0.758118 0.572754 0.114319
0.882568 0.623413 0.060608
0.962494 0.632019 0.031555
0.256348 0.784943 0.255798
0.306335 0.784943 0.255798
0.351898 0.786621 0.259674
0.254364 0.779144 0.248291
0.573700 0.763367 0.095795
0.716431 0.750946 0.182404
0.757263 0.666504 0.162201
0.875671 0.684753 0.147827
0.957489 0.707458 0.128998
0.295380 0.906921 0.295380
0.346741 0.908325 0.296753
0.391479 0.908905 0.297577
0.359833 0.905548 0.298431
0.513885 0.890869 0.228638
0.713104 0.884247 0.104340
0.833710 0.866516 0.230591
0.875671 0.778229 0.206512
0.949188 0.773804 0.204834
0.314453 0.964691 0.314453
0.364441 0.964691 0.314453
0.410583 0.964691 0.314453
0.395813 0.964691 0.316681
0.473480 0.964691 0.269073
0.698700 0.964691 0.106598
0.845306 0.962494 0.233643
0.905548 0.889679 0.240845
0.951416 0.851746 0.225891
0.010803 0.021576 0.097626
0.063019 0.021851 0.100128
0.178619 0.002228 0.095673
0.348206 0.012482 0.065521
0.513885 0.014954 0.069946
0.641693 0.024902 0.076569
0.760071 0.047333 0.079346
0.882568 0.066711 0.083221
0.964691 0.073364 0.085419
0.009125 0.093201 0.104279
0.065247 0.095398 0.106476
0.213501 0.098450 0.087097
0.366486 0.117004 0.082397
0.508087 0.134979 0.081848
0.628662 0.147980 0.079620
0.747314 0.162933 0.077698
0.878967 0.178711 0.073822
0.964691 0.188965 0.073547
0.042908 0.214325 0.091522
0.093201 0.215179 0.091797
0.172241 0.197998 0.106201
0.366211 0.208252 0.086823
0.503937 0.216003 0.078247
0.622864 0.229004 0.077698
0.742615 0.242310 0.073273
0.875946 0.257812 0.066620
0.964691 0.264709 0.067169
0.107941 0.375336 0.137482
0.157959 0.375336 0.138031
0.182770 0.375336 0.152954
0.344330 0.319702 0.136932
0.510040 0.350708 0.105927
0.629486 0.345154 0.086273
0.741241 0.343506 0.080170
0.875946 0.353455 0.077423
0.964691 0.359833 0.075470
0.167480 0.531067 0.203644
0.217468 0.532166 0.204742
0.261383 0.532715 0.219696
0.380035 0.521637 0.146057
0.510040 0.449951 0.162689
0.645020 0.480957 0.138855
0.755371 0.501740 0.096222
0.877594 0.491760 0.085968
0.964691 0.487061 0.082672
0.212036 0.663269 0.250153
0.260925 0.662170 0.250153
0.310394 0.665222 0.265106
0.279572 0.659424 0.252075
0.578125 0.644165 0.180389
0.641693 0.570526 0.192841
0.760345 0.595184 0.172089
0.882019 0.631989 0.110901
0.964691 0.634216 0.095398
0.249115 0.783295 0.289185
0.299408 0.783020 0.289185
0.349701 0.784943 0.303284
0.296173 0.783295 0.304138
0.546570 0.765045 0.182861
0.710876 0.756744 0.236847
0.760864 0.683105 0.230774
0.879272 0.703857 0.205017
0.958038 0.723236 0.180389
0.288727 0.908325 0.330414
0.338715 0.905273 0.330109
0.389557 0.906921 0.342590
0.374207 0.905823 0.346191
0.474030 0.896423 0.299133
0.693176 0.884796 0.139679
0.832581 0.875397 0.287506
0.875946 0.791260 0.271729
0.951416 0.789001 0.269806
0.305878 0.964691 0.349243
0.355865 0.964691 0.349243
0.410004 0.964691 0.360291
0.400818 0.964691 0.364441
0.431152 0.964691 0.331268
0.673523 0.964691 0.208618
0.834259 0.962494 0.272003
0.905548 0.902405 0.303589
0.951416 0.864746 0.290833
0.032135 0.064789 0.207977
0.078247 0.052063 0.213501
0.175293 0.001099 0.227325
0.349030 0.006378 0.216827
0.514465 0.017731 0.173645
0.649719 0.024384 0.135986
0.767822 0.028809 0.128815
0.886169 0.021881 0.133240
0.964691 0.037659 0.133240
0.030457 0.138855 0.219604
0.080444 0.134735 0.216827
0.170319 0.087646 0.225677
0.347107 0.086823 0.211029
0.513062 0.084595 0.166168
0.646942 0.093201 0.137939
0.760345 0.117004 0.132416
0.884521 0.145233 0.134064
0.964691 0.154358 0.134338
0.011078 0.216248 0.227325
0.061066 0.217102 0.227875
0.180267 0.221802 0.232880
0.365662 0.219879 0.192169
0.508911 0.238403 0.190247
0.629791 0.253082 0.189667
0.748962 0.268860 0.190796
0.878693 0.283813 0.189667
0.964691 0.292664 0.188599
0.070587 0.370636 0.218201
0.119202 0.370636 0.220978
0.166168 0.368164 0.235077
0.347382 0.349579 0.243683
0.506714 0.347382 0.193298
0.621765 0.343781 0.179169
0.740662 0.353180 0.179443
0.875397 0.367859 0.178894
0.964691 0.375061 0.178070
0.138428 0.527191 0.163666
0.189240 0.528290 0.162292
0.243958 0.531067 0.179169
0.309723 0.529144 0.201324
0.511139 0.472382 0.263855
0.643066 0.500336 0.225677
0.748444 0.494537 0.193573
0.875671 0.485657 0.180573
0.964691 0.485107 0.178619
0.186584 0.658600 0.212402
0.236572 0.659149 0.213226
0.295441 0.662994 0.249207
0.227783 0.662994 0.279663
0.550995 0.646393 0.233978
0.643890 0.590210 0.290466
0.762543 0.617340 0.262482
0.881744 0.633118 0.204926
0.964691 0.628113 0.196625
0.225891 0.778320 0.271637
0.275909 0.778595 0.271912
0.335297 0.781647 0.299316
0.308044 0.782745 0.325897
0.502289 0.770020 0.253906
0.697601 0.760620 0.308167
0.760590 0.697510 0.319244
0.880096 0.721832 0.291290
0.960266 0.740692 0.257233
0.268768 0.903625 0.325317
0.319061 0.903900 0.325043
0.378784 0.906647 0.348328
0.373657 0.905823 0.371552
0.417847 0.900574 0.356323
0.667145 0.887573 0.201874
0.823456 0.878723 0.353546
0.879822 0.806183 0.357727
0.952789 0.803986 0.352448
0.288422 0.964691 0.348053
0.336792 0.964691 0.346649
0.397308 0.964691 0.369049
0.398590 0.964691 0.390930
0.368866 0.964691 0.384583
0.645294 0.964691 0.276886
0.818756 0.962494 0.322540
0.907776 0.915710 0.382080
0.953613 0.877777 0.372925
0.058136 0.122894 0.342957
0.097900 0.088867 0.345428
0.145691 0.024658 0.367310
0.347107 0.000000 0.375336
0.515564 0.006378 0.371185
0.649719 0.017181 0.339355
0.767242 0.024384 0.300873
0.885071 0.031006 0.258789
0.964691 0.031830 0.241882
0.055908 0.199188 0.354004
0.106750 0.192841 0.349579
0.157562 0.126678 0.356232
0.347656 0.088196 0.375610
0.515839 0.087921 0.367035
0.649170 0.085144 0.328278
0.768372 0.085144 0.288971
0.885895 0.084595 0.249390
0.964691 0.085693 0.233307
0.046234 0.269135 0.366760
0.093750 0.272461 0.365112
0.194092 0.271088 0.352631
0.332153 0.219849 0.369537
0.515839 0.213776 0.352081
0.649170 0.214050 0.313599
0.765594 0.216003 0.280121
0.884521 0.232574 0.264038
0.964691 0.240906 0.261017
0.005249 0.368713 0.373932
0.055267 0.368713 0.373932
0.194946 0.368988 0.379486
0.343231 0.373932 0.381409
0.507812 0.360931 0.331329
0.629791 0.374756 0.328857
0.747864 0.390564 0.330780
0.878723 0.407440 0.330231
0.964691 0.413818 0.330231
0.075867 0.521667 0.371185
0.123932 0.521362 0.373657
0.163116 0.521088 0.368988
0.377533 0.511688 0.433716
0.509491 0.508636 0.407715
0.631165 0.493683 0.335480
0.740662 0.484558 0.316101
0.875946 0.494812 0.315552
0.964691 0.501434 0.315552
0.134247 0.652771 0.357330
0.183990 0.652466 0.357880
0.240906 0.654419 0.348206
0.226685 0.659424 0.305847
0.506165 0.651917 0.324127
0.646118 0.610413 0.409363
0.761169 0.633636 0.370361
0.877045 0.625092 0.330200
0.964691 0.621765 0.321075
0.179382 0.772522 0.330231
0.229095 0.772797 0.331329
0.291016 0.774719 0.311127
0.278717 0.778320 0.246338
0.450500 0.776123 0.240509
0.675446 0.761719 0.392761
0.762268 0.713806 0.430695
0.881470 0.742065 0.396088
0.962494 0.753418 0.365936
0.225891 0.897003 0.276794
0.275604 0.895874 0.277618
0.340271 0.900024 0.248535
0.353455 0.903351 0.287018
0.388489 0.900848 0.331299
0.628387 0.892273 0.239960
0.809326 0.882568 0.436218
0.880371 0.820557 0.458374
0.954742 0.821411 0.452301
0.246094 0.964691 0.251862
0.296082 0.964691 0.253265
0.361603 0.964691 0.245789
0.376740 0.964691 0.317200
0.349487 0.964691 0.363708
0.602936 0.964691 0.306671
0.801025 0.964691 0.397186
0.908051 0.927063 0.478577
0.953613 0.893005 0.470825
0.084167 0.182709 0.477905
0.121155 0.135651 0.476562
0.150391 0.070312 0.490662
0.346283 0.001648 0.520538
0.516663 0.000000 0.522217
0.649719 0.001923 0.520813
0.767242 0.011627 0.505035
0.886993 0.021027 0.472656
0.962494 0.024384 0.453552
0.078888 0.262604 0.490112
0.134979 0.255402 0.486237
0.181671 0.205566 0.484558
0.347382 0.088501 0.520813
0.515564 0.087372 0.521118
0.649170 0.088226 0.520569
0.767242 0.087372 0.498108
0.886444 0.087372 0.461304
0.962494 0.086548 0.440552
0.067017 0.335876 0.505615
0.122253 0.337250 0.500336
0.220703 0.337494 0.494507
0.315002 0.224304 0.507812
0.515015 0.214600 0.519440
0.648895 0.213776 0.515564
0.767822 0.213501 0.486206
0.886169 0.216003 0.444153
0.962494 0.216827 0.430847
0.048462 0.410767 0.514740
0.097900 0.414917 0.515564
0.207428 0.421844 0.513336
0.347382 0.412994 0.483734
0.454407 0.380615 0.499512
0.648895 0.367859 0.501465
0.767242 0.368713 0.469879
0.886444 0.367584 0.433899
0.964691 0.370087 0.422852
0.001099 0.518860 0.519989
0.051910 0.518036 0.518341
0.176971 0.517792 0.517792
0.391663 0.519440 0.529694
0.511108 0.523315 0.526642
0.631165 0.509186 0.488708
0.747864 0.517792 0.482910
0.880096 0.535217 0.484283
0.964691 0.542114 0.485657
0.056732 0.647491 0.519989
0.107849 0.647491 0.518890
0.141510 0.647491 0.519989
0.324951 0.649719 0.518616
0.539062 0.639740 0.577301
0.646393 0.642517 0.552368
0.748444 0.627563 0.489258
0.876221 0.624268 0.476807
0.964691 0.627014 0.474609
0.113495 0.766144 0.515015
0.164612 0.765045 0.514465
0.212952 0.767822 0.512817
0.254913 0.769745 0.504761
0.456909 0.773895 0.471283
0.644165 0.766724 0.489838
0.765045 0.731262 0.545990
0.883118 0.753967 0.508636
0.964691 0.753418 0.495636
0.166931 0.889496 0.504211
0.218018 0.890594 0.503387
0.277985 0.892822 0.499512
0.273468 0.897003 0.476807
0.411774 0.901398 0.433899
0.595428 0.897003 0.410950
0.787170 0.883698 0.522217
0.882294 0.836639 0.567596
0.956665 0.838867 0.559875
0.190460 0.964691 0.495636
0.240448 0.964691 0.497559
0.303192 0.964691 0.486206
0.318024 0.964691 0.458557
0.371613 0.964691 0.403748
0.577454 0.964691 0.371338
0.769470 0.964691 0.478455
0.910278 0.944489 0.578674
0.955841 0.908234 0.575348
0.105743 0.235840 0.601013
0.144958 0.187134 0.595459
0.183868 0.153076 0.603210
0.327698 0.023254 0.642242
0.514435 0.000000 0.645294
0.649719 0.000000 0.646667
0.767822 0.000000 0.647491
0.886993 0.008301 0.639191
0.962494 0.012482 0.627838
0.098572 0.319885 0.614014
0.157959 0.309387 0.607635
0.202728 0.256775 0.599884
0.277893 0.107574 0.629791
0.514435 0.086548 0.645294
0.647766 0.086823 0.644440
0.767242 0.087097 0.646942
0.886169 0.087921 0.634491
0.962494 0.090149 0.624817
0.085541 0.392303 0.624817
0.148285 0.394257 0.622040
0.242584 0.392303 0.616486
0.291992 0.305115 0.607635
0.514191 0.212952 0.644440
0.649719 0.214600 0.645294
0.767822 0.213776 0.644470
0.886993 0.216278 0.627014
0.962494 0.216003 0.612885
0.065063 0.465302 0.636444
0.125854 0.468872 0.634766
0.235107 0.476379 0.631714
0.377533 0.477753 0.623718
0.498962 0.372284 0.640289
0.648315 0.367035 0.645294
0.768372 0.368408 0.639740
0.886169 0.369537 0.612061
0.962494 0.370361 0.595734
0.040710 0.544617 0.643341
0.090424 0.546844 0.643066
0.204651 0.551270 0.641968
0.373962 0.559845 0.639465
0.508087 0.552643 0.616486
0.599609 0.531616 0.628113
0.767822 0.518341 0.629242
0.885345 0.518341 0.597107
0.962494 0.519714 0.584686
0.000000 0.647491 0.645294
0.049988 0.647491 0.645294
0.178619 0.647491 0.645294
0.349854 0.647491 0.645294
0.545715 0.646667 0.652496
0.644989 0.647766 0.647766
0.749512 0.639740 0.626465
0.876495 0.653595 0.625366
0.964691 0.659973 0.626740
0.047058 0.762817 0.643616
0.097076 0.764221 0.645020
0.153992 0.763641 0.645294
0.332977 0.762817 0.645294
0.495087 0.765320 0.642242
0.635315 0.765320 0.642517
0.769196 0.751740 0.658600
0.878418 0.750366 0.625916
0.964691 0.749817 0.621765
0.109344 0.884796 0.640869
0.158508 0.885895 0.643066
0.206024 0.885620 0.641418
0.270142 0.888123 0.638367
0.453857 0.891998 0.624512
0.596832 0.895294 0.597687
0.759766 0.888672 0.611786
0.883423 0.852112 0.669098
0.959991 0.858215 0.661346
0.134827 0.964691 0.640869
0.184814 0.964691 0.640869
0.238403 0.964691 0.638641
0.216187 0.964691 0.632843
0.429474 0.964691 0.613739
0.581329 0.964691 0.582703
0.737091 0.964691 0.579376
0.908630 0.956940 0.672150
0.958038 0.921234 0.675446
0.124573 0.285126 0.711884
0.168182 0.239441 0.703308
0.206848 0.202637 0.708557
0.243011 0.051208 0.738464
0.512787 0.000000 0.761169
0.649719 0.000000 0.761169
0.767242 0.000000 0.760620
0.886719 0.000000 0.760895
0.962494 0.000000 0.760620
0.118744 0.369995 0.724335
0.179535 0.360046 0.719086
0.224854 0.307739 0.709106
0.241913 0.180664 0.716858
0.511963 0.087097 0.761169
0.649719 0.087097 0.760895
0.767242 0.086548 0.760620
0.886719 0.088501 0.762543
0.962494 0.086548 0.759216
0.105743 0.444336 0.735138
0.170685 0.443787 0.731812
0.262207 0.439362 0.725189
0.304749 0.371277 0.712708
0.491760 0.217377 0.756195
0.649719 0.214600 0.761444
0.768372 0.212402 0.761719
0.885895 0.213776 0.760620
0.962494 0.214600 0.760040
0.086945 0.514008 0.745941
0.154083 0.519287 0.743713
0.261383 0.523407 0.739838
0.394989 0.525085 0.732666
0.439178 0.420471 0.726288
0.648895 0.366486 0.760620
0.767242 0.366486 0.760620
0.884796 0.367584 0.758667
0.962494 0.368713 0.751465
0.060913 0.585297 0.753967
0.126404 0.590027 0.753693
0.240082 0.595306 0.750092
0.396362 0.604401 0.747864
0.536041 0.606903 0.741241
0.636414 0.521118 0.756714
0.767242 0.518341 0.760620
0.886169 0.518066 0.752014
0.962494 0.518341 0.739594
0.037109 0.662445 0.758942
0.088776 0.664642 0.759766
0.204651 0.667969 0.759491
0.369812 0.672119 0.756470
0.531616 0.679901 0.754242
0.652771 0.681274 0.747040
0.763397 0.647766 0.760071
0.885620 0.646118 0.740662
0.964691 0.647491 0.726288
0.000000 0.762268 0.760620
0.049988 0.762817 0.761169
0.178619 0.762817 0.761169
0.347931 0.763641 0.761993
0.515564 0.763367 0.761169
0.653595 0.762817 0.761444
0.760590 0.766144 0.765594
0.880096 0.763641 0.750916
0.964691 0.772797 0.752869
0.047913 0.883118 0.760895
0.099304 0.884521 0.760620
0.149261 0.883698 0.760895
0.332153 0.884521 0.760895
0.498688 0.886444 0.758667
0.627838 0.888672 0.755615
0.746765 0.890869 0.740112
0.886719 0.867615 0.769745
0.962494 0.875946 0.763367
0.075867 0.964691 0.760620
0.127502 0.964691 0.758942
0.155365 0.964691 0.759491
0.311676 0.964691 0.758942
0.480682 0.964691 0.755646
0.612885 0.964691 0.749542
0.733490 0.964691 0.726837
0.897552 0.962494 0.765625
0.960266 0.938141 0.777771
0.148651 0.344086 0.831635
0.192566 0.298706 0.820831
0.226501 0.245544 0.818634
0.242157 0.143372 0.828339
0.501709 0.010254 0.882568
0.649719 0.000000 0.880646
0.766968 0.000000 0.882294
0.885071 0.000000 0.882843
0.964691 0.000000 0.884796
0.142548 0.424805 0.840515
0.203339 0.416504 0.837738
0.250580 0.368347 0.824432
0.279846 0.285034 0.823883
0.453003 0.104828 0.871796
0.648590 0.086823 0.880646
0.766968 0.086548 0.880371
0.885071 0.086823 0.882843
0.964691 0.088776 0.884796
0.135376 0.500549 0.852417
0.199219 0.497498 0.847687
0.287415 0.492523 0.840790
0.330750 0.440491 0.829437
0.369141 0.248383 0.846039
0.646942 0.214050 0.882019
0.767822 0.214050 0.881195
0.886993 0.214600 0.884796
0.964691 0.211304 0.883118
0.119049 0.568817 0.860687
0.189789 0.571014 0.857666
0.292664 0.575989 0.855438
0.415741 0.574341 0.847717
0.451355 0.506531 0.833313
0.624512 0.371460 0.876495
0.767242 0.367035 0.880920
0.885895 0.366486 0.881744
0.964691 0.366486 0.883972
0.098297 0.633759 0.868195
0.170990 0.640411 0.869293
0.280762 0.644287 0.863770
0.423767 0.653137 0.860992
0.551544 0.652863 0.852966
0.584076 0.564270 0.845215
0.767822 0.518890 0.881470
0.886169 0.519135 0.882019
0.964691 0.518860 0.883698
0.069763 0.703125 0.876495
0.138306 0.706726 0.875122
0.253082 0.711975 0.873993
0.408539 0.719482 0.870941
0.556824 0.727783 0.867645
0.668823 0.729706 0.862396
0.747040 0.648895 0.875671
0.886993 0.646667 0.882843
0.964691 0.646667 0.884247
0.041260 0.779968 0.882568
0.095123 0.781372 0.882294
0.208252 0.782471 0.878693
0.376160 0.788574 0.880371
0.537964 0.795197 0.878143
0.663269 0.800201 0.874268
0.774750 0.801056 0.869843
0.886993 0.761169 0.882568
0.962769 0.762268 0.878693
0.000000 0.882843 0.880646
0.049988 0.884521 0.882294
0.176666 0.882843 0.880646
0.347931 0.883698 0.881470
0.514740 0.882843 0.880646
0.649719 0.884796 0.882568
0.768921 0.884247 0.882019
0.881195 0.882843 0.882568
0.962769 0.885071 0.878693
0.003876 0.964691 0.882294
0.053894 0.964691 0.882568
0.178070 0.964691 0.882294
0.347107 0.964691 0.881470
0.512238 0.964691 0.880646
0.645844 0.964691 0.880646
0.761169 0.964691 0.880920
0.876770 0.964691 0.872314
0.962494 0.956116 0.886719
0.159454 0.367615 0.909332
0.203064 0.324432 0.898529
0.235657 0.266846 0.896027
0.263489 0.195709 0.904083
0.469086 0.028778 0.956940
0.647491 0.000000 0.964691
0.765045 0.000000 0.964691
0.884796 0.000000 0.964691
0.962494 0.000000 0.964691
0.155029 0.450562 0.920135
0.213867 0.439484 0.915710
0.263306 0.397675 0.904633
0.290070 0.316589 0.899628
0.396271 0.120056 0.942017
0.647491 0.086823 0.963593
0.766693 0.087097 0.964691
0.885345 0.086548 0.964691
0.962494 0.086823 0.964691
0.148376 0.524628 0.929260
0.211670 0.521881 0.926788
0.299866 0.517456 0.920410
0.342133 0.467316 0.908508
0.359985 0.297638 0.912109
0.638641 0.215149 0.961670
0.765594 0.214600 0.964691
0.886719 0.214600 0.964691
0.962494 0.214050 0.964691
0.138123 0.592072 0.939514
0.206970 0.594269 0.937286
0.308167 0.596497 0.932861
0.426270 0.595642 0.924835
0.461578 0.536987 0.911835
0.578033 0.376740 0.945862
0.768646 0.368134 0.964691
0.886719 0.366486 0.964691
0.962494 0.366486 0.964691
0.117371 0.657288 0.948090
0.190918 0.661713 0.945862
0.298187 0.666138 0.942566
0.434845 0.672791 0.937866
0.560944 0.673889 0.931458
0.594055 0.604980 0.921509
0.763947 0.519440 0.961945
0.885071 0.517792 0.964691
0.962494 0.517792 0.964691
0.089142 0.723907 0.954468
0.160736 0.726685 0.953613
0.274963 0.731354 0.951416
0.422394 0.740234 0.948639
0.565125 0.747681 0.943390
0.674622 0.748260 0.938141
0.716583 0.659943 0.941162
0.885345 0.646667 0.964691
0.962494 0.646667 0.964691
0.054260 0.794922 0.960266
0.119202 0.796570 0.960266
0.234528 0.801025 0.958618
0.394989 0.806854 0.957214
0.549347 0.814301 0.954163
0.672943 0.820953 0.951965
0.778900 0.821503 0.945312
0.886719 0.762543 0.964691
0.962494 0.762268 0.964691
0.014404 0.888947 0.962494
0.066071 0.887268 0.962494
0.184723 0.886993 0.962494
0.356506 0.887848 0.962494
0.522766 0.890869 0.962494
0.656067 0.890869 0.962494
0.773621 0.895569 0.960541
0.885345 0.895569 0.958313
0.962494 0.884796 0.964691
0.000000 0.964691 0.964691
0.049988 0.964691 0.964691
0.178619 0.964691 0.964691
0.347931 0.964691 0.964691
0.516663 0.964691 0.964691
0.649719 0.964691 0.964691
0.768921 0.964691 0.964691
0.885071 0.964691 0.964691
0.964691 0.964691 0.964691
