cube滤镜(3D LUT)/Lakelandite.cube
# Created by: Lutify.me
# Copyright: (c) Copyright Lutify.me 2015
# Website: https://lutify.me
#LUT size
LUT_3D_SIZE 9
#LUT data points
0.038635 0.051025 0.057434
0.073608 0.066681 0.064362
0.150848 0.093079 0.067596
0.244354 0.117859 0.080139
0.339539 0.152008 0.107422
0.445862 0.188049 0.147705
0.548218 0.226440 0.186981
0.648560 0.266510 0.220764
0.744171 0.305847 0.249298
0.049225 0.099091 0.060974
0.079926 0.103668 0.068054
0.169067 0.110260 0.064087
0.264160 0.137604 0.079132
0.363953 0.167419 0.109467
0.468872 0.201965 0.148773
0.570282 0.239655 0.184845
0.669159 0.279205 0.217499
0.762329 0.318604 0.245911
0.070587 0.164215 0.065063
0.104675 0.179108 0.073639
0.188446 0.167938 0.078857
0.307312 0.167694 0.080322
0.423981 0.203461 0.120728
0.530701 0.242310 0.155548
0.631195 0.284882 0.186096
0.728210 0.331024 0.213470
0.805756 0.368866 0.235443
0.100189 0.224640 0.083710
0.127258 0.245605 0.088928
0.215118 0.242004 0.105957
0.335541 0.236359 0.101318
0.475769 0.241760 0.125305
0.595428 0.283936 0.166962
0.690948 0.327026 0.194794
0.779358 0.375183 0.216339
0.839996 0.414276 0.228516
0.125275 0.282623 0.103943
0.159607 0.305054 0.109833
0.256195 0.322327 0.125031
0.389557 0.351837 0.131500
0.522766 0.340363 0.139038
0.632843 0.338593 0.163513
0.728821 0.370911 0.192291
0.820312 0.421600 0.216980
0.858307 0.456451 0.227081
0.160217 0.348938 0.127869
0.201599 0.369812 0.134064
0.296326 0.388123 0.147949
0.412323 0.423767 0.154388
0.543823 0.474396 0.181366
0.663879 0.471710 0.190308
0.757751 0.453857 0.200592
0.842896 0.474030 0.223572
0.862793 0.494202 0.229675
0.195312 0.412109 0.156799
0.235748 0.430908 0.163086
0.329163 0.447693 0.176147
0.437469 0.484528 0.184357
0.567657 0.551910 0.203430
0.664734 0.604706 0.230927
0.770905 0.615082 0.243988
0.860596 0.568298 0.236633
0.870300 0.557343 0.234985
0.241852 0.496887 0.192444
0.280609 0.531738 0.198425
0.364410 0.555054 0.206024
0.476166 0.605164 0.228302
0.586731 0.654419 0.246765
0.680176 0.692932 0.257019
0.761047 0.729065 0.275574
0.869934 0.734436 0.290955
0.878967 0.682373 0.272736
0.333069 0.694092 0.265106
0.346985 0.713348 0.272522
0.422180 0.740173 0.281250
0.521454 0.754517 0.286438
0.620148 0.769348 0.295197
0.700439 0.782745 0.298828
0.776733 0.798035 0.299622
0.855011 0.832031 0.314575
0.887360 0.808563 0.314270
0.043823 0.074249 0.086243
0.095001 0.081604 0.099365
0.176056 0.096130 0.093842
0.259918 0.116455 0.099243
0.345642 0.146912 0.120880
0.446686 0.186035 0.157257
0.546570 0.225586 0.192291
0.643829 0.264313 0.224518
0.735931 0.301270 0.252808
0.049835 0.097656 0.103119
0.075592 0.104736 0.110901
0.164337 0.129730 0.109863
0.271637 0.149200 0.099945
0.375244 0.170013 0.114655
0.471222 0.200012 0.152985
0.568207 0.236206 0.188263
0.665222 0.275269 0.220093
0.759033 0.314850 0.248260
0.072205 0.174194 0.105652
0.082275 0.189209 0.098907
0.190796 0.178894 0.108429
0.308105 0.178894 0.095886
0.416901 0.209076 0.113892
0.517578 0.242798 0.148376
0.617371 0.280914 0.180969
0.713135 0.320099 0.211517
0.801788 0.358276 0.239014
0.091827 0.229706 0.088623
0.107574 0.254700 0.094879
0.213501 0.256348 0.120941
0.341766 0.251465 0.119537
0.487671 0.251434 0.126862
0.594116 0.290375 0.161896
0.682739 0.330902 0.187744
0.769135 0.378479 0.208740
0.834167 0.420868 0.222961
0.115814 0.280975 0.104706
0.147736 0.321472 0.117645
0.249878 0.334808 0.135986
0.390961 0.362274 0.135406
0.528412 0.355621 0.144135
0.640442 0.350739 0.166229
0.736053 0.380981 0.192444
0.816895 0.429871 0.214844
0.859467 0.465729 0.227417
0.129333 0.327698 0.122925
0.191101 0.383240 0.141083
0.285950 0.395691 0.156860
0.409180 0.429199 0.171631
0.548370 0.483856 0.184509
0.665161 0.484039 0.194000
0.761261 0.463409 0.201782
0.848206 0.483246 0.225342
0.864105 0.506012 0.230347
0.167969 0.405365 0.152557
0.225128 0.429077 0.168518
0.317230 0.448334 0.181366
0.433167 0.485657 0.201111
0.569061 0.559143 0.205078
0.666046 0.609497 0.232330
0.769257 0.616608 0.244202
0.863007 0.574066 0.238373
0.871155 0.562775 0.235931
0.225861 0.506348 0.191528
0.275513 0.539856 0.205292
0.357178 0.563080 0.212524
0.464020 0.593018 0.223511
0.584961 0.659912 0.249603
0.680298 0.697601 0.259399
0.759766 0.728027 0.275055
0.869995 0.732391 0.290222
0.878448 0.683716 0.273926
0.341217 0.710022 0.271637
0.346954 0.721130 0.276093
0.413544 0.737518 0.279938
0.510590 0.760345 0.288971
0.613739 0.776978 0.298126
0.698700 0.790558 0.302795
0.775665 0.804047 0.302704
0.851074 0.831085 0.313660
0.887482 0.813385 0.315521
0.054108 0.108826 0.127808
0.079102 0.112122 0.133179
0.208771 0.127686 0.140656
0.300140 0.147308 0.136871
0.407684 0.180847 0.157471
0.503937 0.208801 0.173950
0.580353 0.239166 0.197784
0.665710 0.273438 0.226318
0.749817 0.307800 0.252106
0.056122 0.115143 0.132111
0.077698 0.134552 0.153137
0.204132 0.147125 0.161011
0.303650 0.161316 0.149445
0.413055 0.187317 0.161560
0.518219 0.215607 0.179169
0.588165 0.243134 0.197571
0.669373 0.275391 0.225555
0.753815 0.309937 0.252411
0.072449 0.168793 0.170227
0.079163 0.185150 0.185455
0.159790 0.199280 0.205780
0.293945 0.216309 0.187347
0.414581 0.222473 0.178589
0.523804 0.235107 0.185699
0.616211 0.261658 0.201447
0.702118 0.300598 0.219330
0.793121 0.341492 0.245392
0.115265 0.278442 0.220764
0.109955 0.270538 0.182495
0.146149 0.296722 0.158600
0.332031 0.284729 0.179779
0.472473 0.278717 0.172974
0.580994 0.311646 0.187836
0.670349 0.345245 0.202515
0.757965 0.382111 0.214478
0.840759 0.425415 0.230652
0.130646 0.326050 0.196747
0.121613 0.309906 0.164185
0.207489 0.361084 0.164520
0.368988 0.377228 0.193085
0.514313 0.382324 0.186432
0.635498 0.367767 0.174011
0.722870 0.398254 0.189606
0.801788 0.444000 0.211334
0.858368 0.483368 0.227875
0.140411 0.353912 0.197266
0.129852 0.335022 0.160004
0.254059 0.417084 0.179047
0.393219 0.436432 0.215759
0.552124 0.501251 0.200165
0.661377 0.502655 0.198792
0.755066 0.472931 0.200897
0.838684 0.494598 0.223236
0.866821 0.524963 0.231445
0.146149 0.367706 0.207275
0.149902 0.384796 0.181702
0.290131 0.463531 0.201202
0.419006 0.488861 0.229919
0.557068 0.560699 0.239899
0.670654 0.620239 0.235596
0.769501 0.619629 0.245087
0.857574 0.574524 0.237946
0.870361 0.570435 0.238312
0.172943 0.442200 0.209900
0.194122 0.492645 0.198914
0.335419 0.598053 0.234161
0.454010 0.610352 0.244843
0.571350 0.655853 0.264099
0.676666 0.703491 0.272125
0.761963 0.732697 0.276489
0.870605 0.729980 0.289581
0.878876 0.687012 0.275146
0.339203 0.705841 0.269897
0.349792 0.727081 0.278534
0.395386 0.750580 0.284912
0.495209 0.765167 0.290802
0.601746 0.787506 0.301666
0.692352 0.801117 0.308289
0.773529 0.813385 0.307373
0.846771 0.831543 0.313965
0.888000 0.820587 0.329193
0.069458 0.148926 0.176422
0.085693 0.148682 0.175568
0.176025 0.159485 0.202057
0.344757 0.183472 0.181549
0.444458 0.209686 0.188965
0.548859 0.241852 0.211243
0.635132 0.272705 0.233459
0.715485 0.299164 0.250305
0.786102 0.327454 0.266602
0.070953 0.153717 0.180420
0.081726 0.168701 0.197998
0.150482 0.175201 0.212219
0.347595 0.195862 0.195587
0.447815 0.219086 0.198883
0.551300 0.248627 0.218506
0.637146 0.278503 0.239502
0.718048 0.303741 0.254700
0.790161 0.332520 0.271118
0.080658 0.181061 0.202332
0.089417 0.202667 0.225189
0.134857 0.222900 0.251923
0.338226 0.235107 0.238281
0.447144 0.250824 0.231781
0.548523 0.269257 0.238556
0.635620 0.290955 0.251007
0.722321 0.315674 0.264648
0.794006 0.344574 0.280579
0.104828 0.250031 0.253052
0.113525 0.274902 0.273285
0.129364 0.300812 0.301208
0.279053 0.317505 0.321655
0.436981 0.329895 0.299683
0.553040 0.341064 0.290924
0.646667 0.350677 0.290375
0.741547 0.375671 0.296997
0.824249 0.409576 0.310425
0.154022 0.366455 0.320679
0.166504 0.395691 0.332184
0.161377 0.385651 0.300262
0.283661 0.406708 0.265778
0.492340 0.421783 0.282928
0.614594 0.412872 0.284027
0.708191 0.447815 0.295837
0.791229 0.483643 0.304871
0.860596 0.511200 0.314148
0.193054 0.457764 0.352814
0.177094 0.426300 0.305267
0.169739 0.411774 0.271210
0.347107 0.465820 0.264740
0.523804 0.512787 0.291901
0.645477 0.525574 0.279938
0.746460 0.496429 0.276215
0.827484 0.526855 0.286926
0.872620 0.557312 0.301331
0.192474 0.461395 0.328827
0.179993 0.435516 0.298462
0.187195 0.439362 0.265503
0.385223 0.509430 0.270020
0.533356 0.556519 0.304871
0.668823 0.630249 0.306000
0.764771 0.630615 0.271271
0.851227 0.584747 0.264221
0.876404 0.596924 0.284729
0.216522 0.525024 0.326904
0.207947 0.512421 0.293915
0.211914 0.534363 0.245697
0.416901 0.650574 0.282318
0.555908 0.665863 0.312286
0.666199 0.707550 0.338684
0.765900 0.742157 0.337158
0.867889 0.729767 0.289093
0.877533 0.690796 0.329681
0.294617 0.737305 0.305908
0.313965 0.736267 0.287231
0.351105 0.753296 0.290863
0.478516 0.852112 0.328308
0.596222 0.844940 0.333496
0.687134 0.823395 0.359406
0.769226 0.823822 0.368866
0.846191 0.835510 0.378571
0.889832 0.828583 0.383209
0.087616 0.192230 0.227386
0.093903 0.189240 0.223145
0.151672 0.197235 0.238861
0.318634 0.222992 0.234741
0.485535 0.246979 0.220551
0.579773 0.267639 0.232941
0.655975 0.294464 0.251404
0.730682 0.325562 0.272705
0.790588 0.359772 0.298370
0.089294 0.196533 0.232819
0.094238 0.207336 0.245361
0.143494 0.210327 0.250458
0.314301 0.232025 0.253632
0.484741 0.255798 0.231354
0.577362 0.274017 0.241272
0.656830 0.302185 0.260468
0.733246 0.333588 0.282166
0.788818 0.366882 0.307861
0.095032 0.212006 0.243652
0.103180 0.230774 0.264771
0.136200 0.254974 0.297211
0.269989 0.251526 0.308014
0.485596 0.281342 0.264557
0.569519 0.296906 0.267426
0.653259 0.322723 0.284515
0.732971 0.351288 0.303589
0.787170 0.381317 0.325104
0.112000 0.254761 0.282074
0.124146 0.282196 0.310333
0.138275 0.307343 0.341003
0.240387 0.330719 0.372833
0.474426 0.343658 0.336700
0.571350 0.360107 0.336029
0.653198 0.374176 0.337372
0.734558 0.385498 0.337555
0.790771 0.414246 0.357269
0.144135 0.337311 0.346710
0.154083 0.364258 0.367432
0.167358 0.394653 0.397675
0.231873 0.428711 0.435272
0.441833 0.445618 0.447571
0.573608 0.464447 0.435577
0.677185 0.479950 0.426147
0.763214 0.490173 0.413513
0.830078 0.508240 0.415314
0.194550 0.458618 0.423859
0.208435 0.487305 0.436066
0.223755 0.520721 0.462677
0.235291 0.507385 0.433533
0.453613 0.521759 0.404602
0.627228 0.556366 0.400848
0.723480 0.554657 0.413879
0.807281 0.586639 0.422974
0.867462 0.607605 0.431976
0.251099 0.580688 0.507751
0.243286 0.565338 0.476654
0.226837 0.530609 0.427734
0.258728 0.517639 0.394104
0.500061 0.568054 0.388885
0.645630 0.630219 0.415161
0.752319 0.651855 0.380768
0.840149 0.619049 0.389069
0.877380 0.642334 0.406036
0.268738 0.625122 0.485565
0.255920 0.603302 0.429840
0.249756 0.594971 0.393280
0.276001 0.652496 0.339752
0.518555 0.698517 0.369019
0.650757 0.710815 0.413361
0.758911 0.748047 0.432129
0.859589 0.739655 0.365143
0.879517 0.706451 0.421997
0.319336 0.770966 0.434052
0.315308 0.770233 0.403015
0.313690 0.778076 0.365875
0.330505 0.796234 0.314575
0.553192 0.866119 0.388336
0.672485 0.855774 0.413971
0.762726 0.833588 0.446869
0.849396 0.842499 0.452972
0.889679 0.836700 0.466553
0.105469 0.232910 0.275146
0.104584 0.229065 0.269745
0.150940 0.229370 0.270782
0.301697 0.251770 0.289337
0.456940 0.277130 0.257721
0.613708 0.298920 0.248230
0.685211 0.321777 0.265228
0.741882 0.346893 0.290497
0.779358 0.387299 0.339294
0.107727 0.237335 0.282135
0.111298 0.244934 0.290863
0.145721 0.244873 0.288635
0.272888 0.252808 0.310242
0.455688 0.285583 0.272583
0.611023 0.306274 0.258759
0.680603 0.328796 0.277527
0.738983 0.355347 0.305908
0.775055 0.398590 0.355835
0.110809 0.245544 0.286194
0.117218 0.259583 0.302917
0.135010 0.281677 0.334198
0.224609 0.283142 0.339020
0.450836 0.308838 0.312531
0.598480 0.328156 0.291046
0.666412 0.348328 0.309753
0.732300 0.377228 0.339752
0.775635 0.424255 0.390930
0.126892 0.283325 0.323242
0.138611 0.308807 0.350983
0.148560 0.328156 0.376892
0.226501 0.352631 0.415314
0.432251 0.354004 0.403503
0.605011 0.376678 0.367279
0.674133 0.399048 0.381042
0.746582 0.424194 0.402832
0.789551 0.461884 0.435791
0.149353 0.335602 0.372406
0.163269 0.365875 0.403687
0.177460 0.394653 0.438110
0.233276 0.420990 0.472107
0.383942 0.449615 0.508636
0.602661 0.465363 0.475739
0.689484 0.488647 0.478973
0.759430 0.498627 0.475220
0.798645 0.520050 0.486450
0.189148 0.429626 0.451477
0.197144 0.452026 0.466583
0.210785 0.481995 0.496307
0.232086 0.515137 0.534729
0.370361 0.550385 0.569672
0.591217 0.574677 0.568542
0.696625 0.591461 0.561859
0.782166 0.600952 0.544952
0.847290 0.608887 0.538635
0.233307 0.547760 0.537292
0.245392 0.573761 0.550476
0.261536 0.607361 0.572815
0.274048 0.634521 0.598602
0.355438 0.615265 0.561615
0.615540 0.628510 0.541199
0.745270 0.677032 0.515747
0.824890 0.674255 0.534607
0.885315 0.696930 0.540833
0.292084 0.672607 0.629120
0.302826 0.694031 0.640045
0.301971 0.691223 0.606628
0.293701 0.676910 0.542755
0.366486 0.710297 0.488220
0.632538 0.732086 0.493011
0.749969 0.750824 0.525421
0.850983 0.756561 0.472198
0.878876 0.733551 0.534851
0.353760 0.804565 0.666656
0.349396 0.803345 0.605804
0.344879 0.806854 0.537445
0.341461 0.812286 0.490204
0.388397 0.876495 0.408447
0.645660 0.866272 0.482056
0.757477 0.854980 0.510559
0.848389 0.850586 0.523651
0.883148 0.844696 0.610168
0.123413 0.271515 0.321411
0.121796 0.268738 0.315552
0.156036 0.267487 0.310242
0.251892 0.282043 0.330017
0.439941 0.315155 0.301483
0.584351 0.330841 0.285980
0.692444 0.356171 0.311554
0.743561 0.381226 0.344513
0.776825 0.416718 0.388306
0.126495 0.277191 0.331146
0.129456 0.283295 0.337677
0.149780 0.280121 0.329132
0.228729 0.286957 0.338715
0.438354 0.320801 0.319214
0.576141 0.337891 0.307037
0.686981 0.364349 0.329620
0.745728 0.388550 0.360260
0.784546 0.423645 0.405304
0.129181 0.283997 0.334595
0.134369 0.294403 0.348236
0.143158 0.310822 0.373962
0.212921 0.315857 0.376343
0.427582 0.333923 0.373047
0.578217 0.355286 0.353638
0.695862 0.379852 0.370911
0.756073 0.400635 0.393158
0.801117 0.440704 0.441376
0.144501 0.317261 0.369202
0.155487 0.340302 0.396118
0.160736 0.349976 0.411255
0.210022 0.372131 0.451508
0.351898 0.363678 0.454071
0.572876 0.398132 0.443390
0.703003 0.420776 0.448517
0.765564 0.441742 0.458221
0.812653 0.483582 0.502106
0.165771 0.363312 0.418182
0.179260 0.391327 0.449768
0.190979 0.414246 0.478760
0.224182 0.434174 0.507385
0.352173 0.465912 0.556946
0.559601 0.462158 0.562286
0.712402 0.490479 0.538177
0.779785 0.515594 0.538635
0.820465 0.552368 0.567474
0.195038 0.427582 0.482910
0.209290 0.458313 0.514343
0.221619 0.483337 0.542938
0.235687 0.503510 0.570160
0.356689 0.530304 0.599701
0.540466 0.569366 0.627808
0.717773 0.584717 0.614838
0.789581 0.604736 0.611084
0.841736 0.620300 0.613739
0.236115 0.522583 0.563904
0.242981 0.539734 0.575134
0.253784 0.563263 0.597656
0.266815 0.589874 0.626953
0.344604 0.622833 0.658020
0.529785 0.661957 0.681702
0.713287 0.691315 0.681000
0.803864 0.698334 0.667297
0.869934 0.703094 0.656219
0.280792 0.627686 0.651398
0.288025 0.651428 0.662689
0.297699 0.681122 0.681000
0.311584 0.718018 0.703217
0.330719 0.746704 0.715851
0.486694 0.752563 0.659943
0.736511 0.764465 0.642242
0.838959 0.776245 0.625580
0.886322 0.772552 0.647095
0.330048 0.758545 0.739868
0.342896 0.785583 0.750427
0.360199 0.818146 0.758545
0.367950 0.833252 0.723907
0.368256 0.841553 0.651062
0.516418 0.872528 0.583160
0.734955 0.868591 0.611053
0.835754 0.857117 0.625031
0.883820 0.854034 0.675842
0.145264 0.316986 0.375641
0.143433 0.314575 0.368774
0.163483 0.312378 0.359955
0.235718 0.320160 0.362244
0.428558 0.357025 0.359741
0.567810 0.374603 0.364838
0.683472 0.392975 0.389221
0.776611 0.418396 0.435425
0.806091 0.457581 0.490997
0.149017 0.323242 0.388367
0.151001 0.327637 0.393036
0.157166 0.323608 0.381104
0.219543 0.323639 0.374786
0.421265 0.352020 0.386841
0.568176 0.378174 0.388672
0.684814 0.398621 0.414032
0.777740 0.425812 0.461792
0.808289 0.464813 0.510590
0.151611 0.329407 0.392914
0.155823 0.337219 0.405060
0.163483 0.350342 0.427917
0.208649 0.352295 0.422760
0.343323 0.347961 0.435425
0.557861 0.387238 0.447052
0.680237 0.412659 0.463257
0.781586 0.439819 0.507019
0.813232 0.479218 0.539948
0.164520 0.356598 0.423126
0.174286 0.376099 0.447479
0.175903 0.377869 0.454193
0.198608 0.396881 0.491547
0.304932 0.400757 0.503723
0.521820 0.411194 0.548706
0.677032 0.441345 0.538055
0.787750 0.469574 0.565826
0.818268 0.511932 0.580078
0.186188 0.400909 0.474518
0.199707 0.428192 0.506500
0.208618 0.445557 0.528900
0.215332 0.451752 0.541412
0.314240 0.480164 0.592773
0.460632 0.467102 0.603760
0.676819 0.497589 0.632202
0.796722 0.523376 0.632690
0.828156 0.567322 0.633850
0.212585 0.455566 0.534027
0.225952 0.483154 0.564331
0.235687 0.502747 0.586731
0.243225 0.517181 0.605865
0.324860 0.534607 0.629913
0.486725 0.573425 0.673828
0.672516 0.575989 0.688660
0.804688 0.597198 0.683289
0.850006 0.630066 0.681854
0.243958 0.522034 0.600677
0.256378 0.548889 0.626770
0.264557 0.566345 0.644867
0.270905 0.578461 0.659668
0.329346 0.594299 0.676849
0.488556 0.631042 0.706635
0.678284 0.681305 0.734283
0.812408 0.688385 0.728668
0.859833 0.709412 0.728790
0.281403 0.608582 0.674652
0.287415 0.623993 0.684204
0.295197 0.642242 0.698303
0.304199 0.662476 0.715973
0.322754 0.685333 0.734924
0.468170 0.721191 0.755188
0.669952 0.760712 0.770508
0.809174 0.790741 0.770721
0.881073 0.796722 0.759613
0.322937 0.704315 0.752594
0.330353 0.725891 0.762115
0.338013 0.750549 0.774231
0.346497 0.780884 0.787384
0.357544 0.817352 0.803711
0.446503 0.849518 0.804413
0.651093 0.866821 0.757751
0.821320 0.872375 0.736023
0.883270 0.864014 0.759125
0.171234 0.369781 0.440491
0.169067 0.367035 0.431580
0.174347 0.363739 0.419037
0.230560 0.363861 0.406494
0.368286 0.385620 0.446716
0.561646 0.416107 0.466827
0.673676 0.438293 0.496887
0.773438 0.461914 0.548248
0.817413 0.508545 0.614929
0.176025 0.377228 0.456390
0.177307 0.380157 0.459534
0.173584 0.375000 0.444031
0.222931 0.372986 0.430176
0.333252 0.381744 0.457489
0.555817 0.412048 0.507507
0.673828 0.439331 0.525909
0.774445 0.464691 0.571289
0.818726 0.513672 0.633667
0.178711 0.382019 0.463470
0.182556 0.388245 0.475006
0.190521 0.402069 0.497833
0.215363 0.401337 0.490753
0.296265 0.391052 0.486877
0.491333 0.411163 0.560150
0.663666 0.443176 0.581116
0.773010 0.472076 0.612823
0.822205 0.524323 0.664337
0.186676 0.398682 0.481567
0.195801 0.416107 0.504669
0.196899 0.415833 0.510468
0.211304 0.438660 0.550018
0.289978 0.443298 0.563293
0.415802 0.423920 0.588287
0.630188 0.465363 0.651245
0.767334 0.493927 0.666626
0.826508 0.546936 0.701355
0.210388 0.446381 0.537689
0.222473 0.470428 0.566162
0.229065 0.482605 0.583038
0.227539 0.477203 0.582764
0.293732 0.504913 0.632660
0.406738 0.497589 0.643158
0.590485 0.510864 0.692413
0.763519 0.538757 0.721405
0.848267 0.576172 0.745026
0.233490 0.493866 0.589783
0.245636 0.518585 0.617310
0.253510 0.534119 0.635742
0.257935 0.542023 0.647614
0.306000 0.547729 0.660431
0.442566 0.582947 0.709625
0.602539 0.578308 0.727112
0.774017 0.602051 0.756531
0.859283 0.626770 0.776245
0.257812 0.544434 0.642792
0.268677 0.567108 0.665802
0.275726 0.581665 0.681305
0.280334 0.590637 0.692291
0.314453 0.600372 0.704315
0.446503 0.627747 0.731415
0.641907 0.678314 0.762573
0.786682 0.680908 0.789490
0.867615 0.695740 0.800446
0.285095 0.603271 0.697876
0.294342 0.623138 0.716492
0.301514 0.638336 0.731140
0.306030 0.648224 0.740295
0.319641 0.657928 0.749298
0.448425 0.682190 0.765961
0.637177 0.730469 0.792816
0.797302 0.786285 0.813171
0.874878 0.784821 0.820984
0.317413 0.677765 0.760315
0.325867 0.698456 0.774994
0.332062 0.713959 0.785217
0.339020 0.731110 0.796570
0.346191 0.749084 0.808136
0.433655 0.775543 0.822449
0.620667 0.811493 0.833282
0.784210 0.846375 0.841309
0.875732 0.869812 0.841980
