cube滤镜(3D LUT)/Lakelandite.cube
# Created by: Lutify.me
# Copyright: (c) Copyright Lutify.me 2015
# Website: https://lutify.me
#LUT size
LUT_3D_SIZE 5
#LUT data points
0.038635 0.051025 0.057434
0.150848 0.093079 0.067596
0.339539 0.152008 0.107422
0.548218 0.226440 0.186981
0.744171 0.305847 0.249298
0.070587 0.164215 0.065063
0.188446 0.167938 0.078857
0.423981 0.203461 0.120728
0.631195 0.284882 0.186096
0.805756 0.368866 0.235443
0.125275 0.282623 0.103943
0.256195 0.322327 0.125031
0.522766 0.340363 0.139038
0.728821 0.370911 0.192291
0.858307 0.456451 0.227081
0.195312 0.412109 0.156799
0.329163 0.447693 0.176147
0.567657 0.551910 0.203430
0.770905 0.615082 0.243988
0.870300 0.557343 0.234985
0.333069 0.694092 0.265106
0.422180 0.740173 0.281250
0.620148 0.769348 0.295197
0.776733 0.798035 0.299622
0.887360 0.808563 0.314270
0.054108 0.108826 0.127808
0.208771 0.127686 0.140656
0.407684 0.180847 0.157471
0.580353 0.239166 0.197784
0.749817 0.307800 0.252106
0.072449 0.168793 0.170227
0.159790 0.199280 0.205780
0.414581 0.222473 0.178589
0.616211 0.261658 0.201447
0.793121 0.341492 0.245392
0.130646 0.326050 0.196747
0.207489 0.361084 0.164520
0.514313 0.382324 0.186432
0.722870 0.398254 0.189606
0.858368 0.483368 0.227875
0.146149 0.367706 0.207275
0.290131 0.463531 0.201202
0.557068 0.560699 0.239899
0.769501 0.619629 0.245087
0.870361 0.570435 0.238312
0.339203 0.705841 0.269897
0.395386 0.750580 0.284912
0.601746 0.787506 0.301666
0.773529 0.813385 0.307373
0.888000 0.820587 0.329193
0.087616 0.192230 0.227386
0.151672 0.197235 0.238861
0.485535 0.246979 0.220551
0.655975 0.294464 0.251404
0.790588 0.359772 0.298370
0.095032 0.212006 0.243652
0.136200 0.254974 0.297211
0.485596 0.281342 0.264557
0.653259 0.322723 0.284515
0.787170 0.381317 0.325104
0.144135 0.337311 0.346710
0.167358 0.394653 0.397675
0.441833 0.445618 0.447571
0.677185 0.479950 0.426147
0.830078 0.508240 0.415314
0.251099 0.580688 0.507751
0.226837 0.530609 0.427734
0.500061 0.568054 0.388885
0.752319 0.651855 0.380768
0.877380 0.642334 0.406036
0.319336 0.770966 0.434052
0.313690 0.778076 0.365875
0.553192 0.866119 0.388336
0.762726 0.833588 0.446869
0.889679 0.836700 0.466553
0.123413 0.271515 0.321411
0.156036 0.267487 0.310242
0.439941 0.315155 0.301483
0.692444 0.356171 0.311554
0.776825 0.416718 0.388306
0.129181 0.283997 0.334595
0.143158 0.310822 0.373962
0.427582 0.333923 0.373047
0.695862 0.379852 0.370911
0.801117 0.440704 0.441376
0.165771 0.363312 0.418182
0.190979 0.414246 0.478760
0.352173 0.465912 0.556946
0.712402 0.490479 0.538177
0.820465 0.552368 0.567474
0.236115 0.522583 0.563904
0.253784 0.563263 0.597656
0.344604 0.622833 0.658020
0.713287 0.691315 0.681000
0.869934 0.703094 0.656219
0.330048 0.758545 0.739868
0.360199 0.818146 0.758545
0.368256 0.841553 0.651062
0.734955 0.868591 0.611053
0.883820 0.854034 0.675842
0.171234 0.369781 0.440491
0.174347 0.363739 0.419037
0.368286 0.385620 0.446716
0.673676 0.438293 0.496887
0.817413 0.508545 0.614929
0.178711 0.382019 0.463470
0.190521 0.402069 0.497833
0.296265 0.391052 0.486877
0.663666 0.443176 0.581116
0.822205 0.524323 0.664337
0.210388 0.446381 0.537689
0.229065 0.482605 0.583038
0.293732 0.504913 0.632660
0.590485 0.510864 0.692413
0.848267 0.576172 0.745026
0.257812 0.544434 0.642792
0.275726 0.581665 0.681305
0.314453 0.600372 0.704315
0.641907 0.678314 0.762573
0.867615 0.695740 0.800446
0.317413 0.677765 0.760315
0.332062 0.713959 0.785217
0.346191 0.749084 0.808136
0.620667 0.811493 0.833282
0.875732 0.869812 0.841980
