cube滤镜(3D LUT)/Lakelandite.cube
# Created by: Lutify.me
# Copyright: (c) Copyright Lutify.me 2015
# Website: https://lutify.me
#LUT size
LUT_3D_SIZE 33
#LUT data points
0.038635 0.051025 0.057434
0.039398 0.054199 0.059204
0.045074 0.057251 0.060944
0.057983 0.061768 0.063171
0.073608 0.066681 0.064362
0.091339 0.072662 0.064514
0.110565 0.079254 0.064972
0.130310 0.086578 0.066406
0.150848 0.093079 0.067596
0.172699 0.098999 0.069397
0.195831 0.104889 0.072174
0.219727 0.111267 0.075775
0.244354 0.117859 0.080139
0.267426 0.125549 0.085205
0.289917 0.134583 0.091034
0.314117 0.143616 0.098511
0.339539 0.152008 0.107422
0.365356 0.160370 0.116974
0.391907 0.169281 0.127045
0.418884 0.178619 0.137360
0.445862 0.188049 0.147705
0.472473 0.197601 0.157990
0.498291 0.207275 0.167999
0.523468 0.216858 0.177643
0.548218 0.226440 0.186981
0.572815 0.236084 0.196045
0.598511 0.246338 0.204468
0.623871 0.256500 0.212799
0.648560 0.266510 0.220764
0.673065 0.276520 0.228302
0.697357 0.286438 0.235687
0.721313 0.296204 0.242676
0.744171 0.305847 0.249298
0.040924 0.059570 0.059204
0.040161 0.059570 0.060364
0.046448 0.061371 0.061523
0.058075 0.066162 0.064240
0.074493 0.070831 0.065948
0.091827 0.075317 0.065674
0.110901 0.079651 0.065155
0.130615 0.085205 0.065948
0.151276 0.091431 0.067474
0.173767 0.098022 0.069397
0.197144 0.104919 0.072510
0.221252 0.111603 0.076263
0.245850 0.118408 0.080627
0.268463 0.125793 0.085632
0.290466 0.133942 0.091919
0.314331 0.142395 0.099670
0.339691 0.150970 0.108490
0.365692 0.159882 0.117950
0.392365 0.169067 0.127808
0.419434 0.178589 0.137787
0.446533 0.188324 0.147980
0.473297 0.197968 0.158142
0.499207 0.207703 0.167938
0.524689 0.217438 0.177429
0.549835 0.227264 0.186584
0.575317 0.237335 0.195129
0.600952 0.247528 0.203705
0.626038 0.257660 0.212067
0.650787 0.267670 0.219940
0.675690 0.277832 0.227814
0.699921 0.287811 0.235199
0.723663 0.297668 0.242218
0.746552 0.307373 0.248718
0.042419 0.070374 0.059814
0.043091 0.070862 0.062622
0.047119 0.071320 0.064270
0.061859 0.070984 0.060669
0.078552 0.074860 0.063782
0.095032 0.081116 0.064575
0.113281 0.087494 0.065491
0.132843 0.092926 0.066467
0.154175 0.097504 0.067535
0.176849 0.101837 0.069763
0.200592 0.106781 0.072998
0.224762 0.112488 0.076752
0.249176 0.118835 0.081360
0.271271 0.126282 0.086487
0.293762 0.134644 0.093170
0.318115 0.143280 0.101166
0.343506 0.152039 0.109894
0.369568 0.161224 0.119110
0.396088 0.170685 0.128723
0.423004 0.180206 0.138641
0.450012 0.189972 0.148621
0.476440 0.199677 0.158539
0.502319 0.209412 0.167999
0.528046 0.219360 0.177032
0.553558 0.229370 0.185822
0.579010 0.239502 0.194489
0.604309 0.249573 0.202942
0.629639 0.259644 0.211243
0.654327 0.269653 0.219391
0.678894 0.279755 0.226837
0.703186 0.289825 0.234283
0.727234 0.299927 0.241455
0.749817 0.309540 0.247986
0.045837 0.083862 0.060425
0.046539 0.084290 0.062714
0.050446 0.087524 0.064911
0.058167 0.087952 0.065552
0.083099 0.082825 0.062164
0.101501 0.085327 0.061401
0.119507 0.091736 0.062805
0.138458 0.098694 0.063965
0.159668 0.105255 0.066315
0.182251 0.111115 0.069183
0.205841 0.115265 0.072205
0.230835 0.120056 0.076202
0.256622 0.125549 0.080963
0.279602 0.132263 0.086639
0.301910 0.140198 0.093597
0.326324 0.148651 0.101837
0.351685 0.157227 0.110626
0.377655 0.166016 0.119934
0.404144 0.175232 0.129486
0.430664 0.184631 0.139099
0.457214 0.194122 0.148834
0.483612 0.203827 0.158417
0.509705 0.213715 0.167603
0.535339 0.223663 0.176544
0.560486 0.233551 0.185120
0.585419 0.243347 0.193695
0.610291 0.253174 0.202148
0.635376 0.263184 0.210327
0.660034 0.273193 0.218414
0.684235 0.283173 0.225983
0.708588 0.293304 0.233337
0.732178 0.303314 0.240417
0.755127 0.313110 0.247070
0.049225 0.099091 0.060974
0.049896 0.101501 0.061707
0.053070 0.106598 0.061401
0.063568 0.105255 0.063110
0.079926 0.103668 0.068054
0.104706 0.097076 0.063385
0.124725 0.097839 0.061188
0.146973 0.103851 0.061737
0.169067 0.110260 0.064087
0.191650 0.117096 0.066803
0.214844 0.124298 0.070221
0.238770 0.131012 0.074005
0.264160 0.137604 0.079132
0.289886 0.144470 0.085297
0.312744 0.152161 0.091858
0.337585 0.159760 0.100037
0.363953 0.167419 0.109467
0.389923 0.175507 0.119293
0.416077 0.184021 0.129181
0.442535 0.192871 0.139008
0.468872 0.201965 0.148773
0.494812 0.211212 0.158203
0.520355 0.220703 0.167267
0.545502 0.230225 0.176147
0.570282 0.239655 0.184845
0.595123 0.249390 0.193176
0.620117 0.259399 0.201416
0.644806 0.269379 0.209534
0.669159 0.279205 0.217499
0.692841 0.288971 0.224976
0.716522 0.298889 0.232208
0.739716 0.308777 0.239319
0.762329 0.318604 0.245911
0.053040 0.115143 0.060059
0.053650 0.119385 0.059113
0.058197 0.125366 0.058044
0.071259 0.122955 0.064087
0.088501 0.121368 0.069061
0.103668 0.117828 0.072845
0.127625 0.112335 0.063721
0.151245 0.111206 0.062103
0.177216 0.116486 0.063019
0.201843 0.122986 0.065582
0.226349 0.130035 0.068268
0.251099 0.137756 0.072357
0.275818 0.145721 0.078186
0.299377 0.153717 0.084412
0.322571 0.161957 0.091217
0.347290 0.170135 0.099365
0.374725 0.178101 0.108765
0.402130 0.186340 0.118439
0.429230 0.194763 0.128448
0.455841 0.203125 0.138489
0.482025 0.211700 0.148407
0.507965 0.220764 0.157959
0.533600 0.230164 0.166962
0.559052 0.239777 0.175659
0.584045 0.249329 0.184265
0.608948 0.259094 0.192657
0.633423 0.268738 0.200928
0.657715 0.278442 0.208923
0.681763 0.288239 0.216644
0.704803 0.297699 0.224121
0.727661 0.307343 0.231232
0.750275 0.316925 0.238220
0.772278 0.326477 0.244720
0.056732 0.131378 0.058868
0.059753 0.136810 0.058685
0.066376 0.142944 0.059967
0.079041 0.141052 0.065674
0.094543 0.140198 0.069733
0.112061 0.136200 0.076721
0.127991 0.133484 0.074890
0.154266 0.127563 0.066803
0.180481 0.125000 0.065094
0.208862 0.130096 0.066010
0.236938 0.136932 0.067780
0.263245 0.144653 0.072266
0.287292 0.152832 0.078339
0.312164 0.161438 0.085754
0.336975 0.170105 0.093689
0.362549 0.178589 0.102142
0.388519 0.186951 0.110962
0.414978 0.195435 0.119904
0.441650 0.203888 0.129272
0.468658 0.212708 0.138977
0.495544 0.222076 0.148468
0.522125 0.232056 0.157471
0.548523 0.242340 0.166168
0.574585 0.252502 0.174866
0.599915 0.262207 0.183411
0.624908 0.271881 0.191772
0.649658 0.281586 0.200256
0.673889 0.291229 0.208191
0.697174 0.300568 0.215729
0.719971 0.309967 0.223114
0.741943 0.319153 0.230072
0.763702 0.328400 0.236725
0.785217 0.337769 0.243225
0.062958 0.147797 0.061005
0.067505 0.153320 0.061890
0.074005 0.159943 0.063507
0.084930 0.160034 0.067871
0.099609 0.159363 0.071289
0.117920 0.155548 0.077332
0.134644 0.151398 0.085297
0.157257 0.151703 0.076324
0.183685 0.143188 0.071594
0.212311 0.140533 0.068848
0.242645 0.144623 0.068878
0.271606 0.151947 0.072327
0.299561 0.160492 0.080200
0.326141 0.168945 0.088654
0.352936 0.177887 0.097351
0.379364 0.186737 0.106415
0.406128 0.195129 0.115601
0.432678 0.203552 0.124817
0.459686 0.212677 0.134003
0.485748 0.222137 0.142761
0.511658 0.232086 0.151154
0.537903 0.242493 0.159393
0.563782 0.253113 0.167358
0.589203 0.263702 0.175385
0.614990 0.274353 0.183533
0.640778 0.285034 0.191589
0.665924 0.295593 0.199463
0.690582 0.306366 0.206848
0.714233 0.316437 0.214264
0.737213 0.326172 0.221527
0.758606 0.335205 0.228149
0.779724 0.344116 0.234863
0.798828 0.352386 0.240601
0.070587 0.164215 0.065063
0.075073 0.169098 0.066132
0.081482 0.175629 0.067719
0.090881 0.178986 0.070892
0.104675 0.179108 0.073639
0.123108 0.175690 0.079041
0.143036 0.170380 0.087067
0.161377 0.170441 0.089691
0.188446 0.167938 0.078857
0.215942 0.159424 0.075745
0.246857 0.156342 0.072083
0.277405 0.159973 0.073517
0.307312 0.167694 0.080322
0.338654 0.176453 0.090759
0.368500 0.185394 0.101013
0.396515 0.194458 0.110840
0.423981 0.203461 0.120728
0.451660 0.212799 0.129852
0.478973 0.222229 0.138885
0.505402 0.232178 0.147522
0.530701 0.242310 0.155548
0.555969 0.252563 0.163483
0.581299 0.263123 0.171204
0.606476 0.273987 0.178772
0.631195 0.284882 0.186096
0.656189 0.296295 0.193329
0.681000 0.307892 0.200470
0.704498 0.319641 0.206909
0.728210 0.331024 0.213470
0.750977 0.342102 0.219849
0.772003 0.352661 0.225647
0.792145 0.363037 0.231140
0.805756 0.368866 0.235443
0.078308 0.179749 0.069702
0.082458 0.184143 0.070709
0.088806 0.190765 0.072235
0.096893 0.197571 0.074371
0.109711 0.198517 0.076477
0.127960 0.195984 0.081299
0.148804 0.190125 0.088470
0.169830 0.185883 0.093842
0.195251 0.192261 0.091766
0.220673 0.183167 0.083588
0.250946 0.175446 0.079926
0.283386 0.172852 0.077087
0.313660 0.176239 0.081177
0.345856 0.183502 0.090820
0.379089 0.192413 0.102478
0.411469 0.202362 0.114136
0.441925 0.212524 0.124939
0.470673 0.222412 0.134827
0.498474 0.232666 0.143555
0.524902 0.242920 0.152008
0.549713 0.253204 0.159760
0.574341 0.263336 0.167450
0.598755 0.273590 0.175049
0.623352 0.284424 0.182343
0.647705 0.295471 0.189301
0.671783 0.306793 0.196045
0.695587 0.318573 0.202515
0.718872 0.330750 0.208710
0.741302 0.342743 0.214325
0.764130 0.354980 0.219757
0.785126 0.366852 0.224701
0.805695 0.378876 0.229034
0.812714 0.382568 0.231171
0.085876 0.194580 0.074219
0.089417 0.198639 0.075195
0.095184 0.205200 0.076965
0.103241 0.212982 0.078827
0.115234 0.217224 0.080048
0.133026 0.215790 0.083649
0.154083 0.209778 0.089935
0.176331 0.203552 0.097443
0.204346 0.206543 0.093018
0.231384 0.210602 0.093506
0.254761 0.197662 0.090546
0.288086 0.191498 0.085571
0.320892 0.189392 0.084381
0.352661 0.192688 0.090698
0.386688 0.200012 0.102386
0.421082 0.210052 0.114563
0.454773 0.221100 0.126556
0.486725 0.232208 0.137726
0.515686 0.242950 0.147491
0.542755 0.253693 0.156006
0.567749 0.264008 0.163727
0.591461 0.274109 0.170807
0.615479 0.284424 0.177887
0.638824 0.294952 0.184875
0.661652 0.305847 0.191528
0.685760 0.317261 0.198181
0.709198 0.328918 0.204254
0.732788 0.341248 0.210327
0.755096 0.353638 0.215637
0.777557 0.366394 0.220398
0.798584 0.379028 0.225037
0.818451 0.391663 0.228729
0.821075 0.393280 0.229309
0.093018 0.209229 0.078857
0.095703 0.212646 0.079803
0.101257 0.219269 0.081604
0.109283 0.226624 0.083099
0.121246 0.231903 0.084381
0.138489 0.235474 0.086639
0.160278 0.230377 0.091614
0.183319 0.223694 0.099426
0.209595 0.223694 0.099701
0.241058 0.228699 0.093384
0.268555 0.231934 0.098450
0.293152 0.215027 0.097015
0.327972 0.210205 0.091278
0.361115 0.208527 0.093384
0.395294 0.211945 0.101318
0.430511 0.219879 0.113953
0.464691 0.229919 0.126465
0.497375 0.240967 0.138000
0.528320 0.252380 0.148499
0.557037 0.263611 0.158020
0.583649 0.274506 0.166321
0.608276 0.284912 0.173767
0.631439 0.295135 0.180542
0.654236 0.305573 0.187073
0.676270 0.316376 0.193329
0.699097 0.327789 0.199463
0.722290 0.339447 0.205322
0.745178 0.351593 0.211060
0.767731 0.364258 0.216339
0.790100 0.377533 0.220825
0.811401 0.390656 0.225372
0.830322 0.402985 0.228882
0.830872 0.403320 0.228943
0.100189 0.224640 0.083710
0.101746 0.226379 0.084320
0.107361 0.232880 0.086029
0.115295 0.240326 0.087646
0.127258 0.245605 0.088928
0.144287 0.251251 0.090881
0.167206 0.251770 0.094269
0.191162 0.245880 0.100494
0.215118 0.242004 0.105957
0.248657 0.249268 0.098328
0.278351 0.252869 0.097565
0.307495 0.256165 0.106964
0.335541 0.236359 0.101318
0.371246 0.232574 0.098328
0.405579 0.231415 0.104065
0.440765 0.234070 0.112885
0.475769 0.241760 0.125305
0.508087 0.251282 0.137360
0.538391 0.261780 0.148041
0.567444 0.272827 0.157776
0.595428 0.283936 0.166962
0.621216 0.294983 0.174927
0.646240 0.305786 0.182434
0.668884 0.316345 0.188934
0.690948 0.327026 0.194794
0.712585 0.338135 0.200470
0.735107 0.350159 0.206085
0.757263 0.362488 0.211243
0.779358 0.375183 0.216339
0.801453 0.388367 0.220825
0.822205 0.401886 0.225189
0.839813 0.414185 0.228516
0.839996 0.414276 0.228516
0.107422 0.239960 0.088745
0.108276 0.240784 0.089172
0.113251 0.246368 0.090546
0.121155 0.254028 0.092468
0.133301 0.259369 0.093719
0.151642 0.265167 0.095612
0.175018 0.270569 0.098297
0.199860 0.267609 0.103271
0.223724 0.262909 0.109680
0.254089 0.268097 0.107300
0.290833 0.275238 0.102417
0.319550 0.280304 0.106781
0.348450 0.280243 0.114258
0.381195 0.260162 0.106415
0.417664 0.257172 0.108551
0.452423 0.256256 0.116058
0.486542 0.257599 0.124664
0.519073 0.264496 0.135895
0.549255 0.273743 0.146667
0.577423 0.283478 0.156647
0.605011 0.293671 0.166016
0.631348 0.304382 0.174591
0.656555 0.315491 0.182281
0.681427 0.326813 0.189514
0.704346 0.338074 0.195709
0.725952 0.349121 0.201324
0.747284 0.360931 0.206543
0.769165 0.373505 0.211273
0.790375 0.386719 0.216125
0.811371 0.399872 0.220428
0.832062 0.413635 0.224731
0.847992 0.425323 0.227875
0.848175 0.425446 0.227875
0.114349 0.254822 0.093933
0.115021 0.255463 0.094116
0.119110 0.259949 0.095306
0.127258 0.268127 0.097443
0.140564 0.273651 0.098663
0.160248 0.279785 0.100891
0.183838 0.286774 0.103607
0.209503 0.287659 0.107941
0.234039 0.283661 0.114288
0.261261 0.286194 0.116272
0.298553 0.296600 0.109833
0.333313 0.301788 0.112610
0.365265 0.310913 0.118805
0.391449 0.303650 0.119812
0.429596 0.285614 0.115601
0.464905 0.282867 0.120544
0.498108 0.282013 0.128265
0.529572 0.282867 0.135742
0.559052 0.288147 0.145142
0.587402 0.296631 0.154907
0.614471 0.305847 0.164307
0.640381 0.315277 0.173035
0.665527 0.325500 0.181122
0.690094 0.336578 0.188385
0.714172 0.348358 0.194977
0.737640 0.360413 0.201355
0.758759 0.372467 0.206573
0.780029 0.384857 0.211395
0.800690 0.398193 0.215942
0.820709 0.411621 0.220123
0.841766 0.425842 0.224854
0.853302 0.436432 0.227386
0.853271 0.436310 0.227386
0.120392 0.269165 0.099060
0.121033 0.269714 0.099060
0.125031 0.273987 0.100372
0.134613 0.283173 0.102753
0.149628 0.289062 0.104156
0.169800 0.295624 0.106506
0.193909 0.303375 0.109467
0.219788 0.306030 0.113617
0.244995 0.303497 0.119659
0.270874 0.304688 0.123566
0.305298 0.315033 0.118927
0.344574 0.324280 0.119232
0.375153 0.329926 0.124390
0.411743 0.341888 0.131165
0.436768 0.328766 0.128784
0.477661 0.312317 0.127258
0.510223 0.309662 0.132629
0.540924 0.309082 0.139832
0.569580 0.309784 0.146698
0.596985 0.312683 0.154053
0.623505 0.319916 0.162689
0.649445 0.328644 0.171173
0.673553 0.337982 0.179291
0.697845 0.347687 0.186859
0.720978 0.358673 0.193542
0.745087 0.370728 0.200043
0.768097 0.383667 0.205902
0.789734 0.396606 0.211273
0.811188 0.410004 0.216248
0.831085 0.423462 0.221008
0.850861 0.437561 0.226105
0.856110 0.446564 0.227142
0.856018 0.446411 0.227142
0.125275 0.282623 0.103943
0.126190 0.283264 0.104126
0.132507 0.289948 0.106079
0.143494 0.298767 0.108337
0.159607 0.305054 0.109833
0.180145 0.311920 0.112305
0.204468 0.320068 0.115387
0.230286 0.323486 0.119232
0.256195 0.322327 0.125031
0.281403 0.322876 0.129578
0.313080 0.332123 0.127411
0.352417 0.344818 0.125854
0.389557 0.351837 0.131500
0.419128 0.360504 0.136993
0.456970 0.372375 0.143646
0.481903 0.355743 0.140442
0.522766 0.340363 0.139038
0.552246 0.337738 0.144104
0.580292 0.337097 0.150726
0.607117 0.337372 0.157379
0.632843 0.338593 0.163513
0.657898 0.343750 0.170532
0.682648 0.352081 0.178131
0.706085 0.361450 0.185272
0.728821 0.370911 0.192291
0.751862 0.381622 0.198853
0.774902 0.394012 0.205017
0.797394 0.407532 0.210938
0.820312 0.421600 0.216980
0.841034 0.435699 0.222687
0.856689 0.449127 0.227081
0.858337 0.456451 0.227081
0.858307 0.456451 0.227081
0.130371 0.295593 0.108795
0.133331 0.298340 0.109650
0.142120 0.307892 0.112488
0.153595 0.314697 0.113892
0.169922 0.320740 0.115631
0.190613 0.327759 0.118256
0.214996 0.336151 0.121338
0.241028 0.339935 0.125122
0.266815 0.339722 0.130310
0.291870 0.340149 0.135010
0.321411 0.348297 0.135559
0.358978 0.362366 0.132111
0.399017 0.373383 0.137512
0.432312 0.380371 0.143646
0.465302 0.393677 0.150635
0.499420 0.402588 0.155945
0.523132 0.384766 0.152283
0.563416 0.370026 0.151001
0.590851 0.366852 0.154877
0.616821 0.365784 0.161224
0.642029 0.365753 0.167450
0.666626 0.366058 0.173401
0.690491 0.368835 0.179352
0.714355 0.376587 0.185852
0.737305 0.385681 0.192413
0.759796 0.395477 0.198853
0.781830 0.405762 0.205261
0.804047 0.418396 0.211334
0.826630 0.432465 0.218048
0.848053 0.447479 0.224182
0.858917 0.460419 0.227173
0.859619 0.466064 0.227325
0.859589 0.466064 0.227325
0.138489 0.310974 0.114380
0.143402 0.316132 0.115875
0.152618 0.325439 0.118652
0.164062 0.330780 0.119476
0.180450 0.336395 0.121399
0.201202 0.343384 0.124237
0.225433 0.351776 0.127258
0.251587 0.355499 0.130981
0.277374 0.356140 0.135712
0.302246 0.356873 0.140167
0.330322 0.364227 0.141937
0.365234 0.377930 0.139130
0.405212 0.392334 0.142517
0.443604 0.402069 0.150482
0.471985 0.409912 0.155823
0.508636 0.428162 0.164642
0.537720 0.434326 0.168701
0.559479 0.416321 0.164612
0.599487 0.401794 0.163635
0.626984 0.397186 0.165680
0.651581 0.395874 0.171265
0.674957 0.395111 0.177155
0.698608 0.394836 0.182983
0.721130 0.395416 0.188507
0.744110 0.402161 0.194702
0.766815 0.411316 0.200836
0.788971 0.421143 0.206879
0.810669 0.431305 0.212982
0.832794 0.443848 0.219452
0.853394 0.458466 0.225525
0.860474 0.471283 0.227692
0.860840 0.474915 0.228027
0.860779 0.474792 0.228027
0.149536 0.329681 0.120880
0.154663 0.335419 0.122711
0.163055 0.341492 0.124237
0.174744 0.346558 0.125214
0.191284 0.352264 0.127350
0.211884 0.359467 0.130096
0.235992 0.367493 0.133270
0.261627 0.370758 0.136932
0.287231 0.371948 0.141388
0.312073 0.373383 0.145905
0.339264 0.380615 0.147827
0.371155 0.392853 0.146698
0.409332 0.408936 0.147491
0.448883 0.422241 0.155945
0.484711 0.432251 0.163239
0.509033 0.441498 0.168488
0.546326 0.462708 0.178284
0.572662 0.468048 0.182007
0.592865 0.449615 0.177155
0.632660 0.435883 0.176910
0.660126 0.428680 0.177063
0.684021 0.427002 0.181030
0.706573 0.425507 0.186340
0.728485 0.424103 0.191956
0.750549 0.423218 0.197479
0.772522 0.428589 0.203339
0.795166 0.437500 0.209381
0.816925 0.447479 0.215332
0.838409 0.457672 0.221375
0.858521 0.470093 0.227081
0.861664 0.481903 0.228668
0.862000 0.484253 0.228943
0.862061 0.483978 0.228943
0.160217 0.348938 0.127869
0.165527 0.354950 0.129852
0.173218 0.358673 0.130493
0.185028 0.363800 0.131622
0.201599 0.369812 0.134064
0.221954 0.377258 0.136719
0.245728 0.383240 0.140015
0.270905 0.386261 0.143646
0.296326 0.388123 0.147949
0.321167 0.389984 0.152618
0.347321 0.396698 0.154663
0.377197 0.408295 0.154877
0.412323 0.423767 0.154388
0.451263 0.440216 0.160065
0.489227 0.453033 0.169006
0.521332 0.463654 0.175842
0.543823 0.474396 0.181366
0.579895 0.496796 0.191437
0.605469 0.502533 0.195404
0.624939 0.484711 0.190277
0.663879 0.471710 0.190308
0.689911 0.461090 0.189209
0.714386 0.458588 0.191284
0.737305 0.456268 0.195526
0.757751 0.453857 0.200592
0.778259 0.451569 0.205933
0.800171 0.455475 0.211670
0.821869 0.464172 0.217651
0.842896 0.474030 0.223572
0.861359 0.484253 0.228668
0.862427 0.493622 0.229584
0.862518 0.494446 0.229675
0.862793 0.494202 0.229675
0.169739 0.368256 0.135315
0.175079 0.374298 0.137115
0.182495 0.378143 0.137909
0.194061 0.383789 0.138977
0.210693 0.390015 0.141602
0.231079 0.395905 0.144196
0.254333 0.399200 0.147339
0.279236 0.401672 0.150787
0.304688 0.404083 0.155121
0.329926 0.406952 0.159546
0.355103 0.412476 0.161743
0.384003 0.424042 0.162292
0.416382 0.438354 0.162048
0.453705 0.455872 0.164886
0.491760 0.471802 0.173584
0.526917 0.484589 0.181976
0.554657 0.495239 0.188232
0.576569 0.507416 0.194092
0.611572 0.530914 0.204559
0.636108 0.537231 0.208801
0.655518 0.521545 0.204559
0.692780 0.508179 0.203400
0.718170 0.494629 0.202209
0.743195 0.490540 0.202698
0.765717 0.486877 0.205109
0.786041 0.483521 0.209198
0.805511 0.480133 0.214081
0.825989 0.482635 0.219635
0.846832 0.490845 0.225433
0.863007 0.500031 0.229858
0.864014 0.508057 0.230408
0.864319 0.506866 0.230408
0.864319 0.506653 0.230408
0.178741 0.387054 0.142639
0.183838 0.391754 0.144440
0.191101 0.395905 0.145538
0.202637 0.401733 0.146698
0.219543 0.408173 0.149231
0.239807 0.411560 0.151642
0.262695 0.413452 0.154419
0.287384 0.416382 0.157745
0.312927 0.419281 0.162079
0.338379 0.423126 0.166565
0.363159 0.428284 0.169098
0.391266 0.439453 0.169495
0.422180 0.453583 0.169434
0.456421 0.469879 0.171326
0.494049 0.488220 0.177521
0.529907 0.503540 0.186737
0.562073 0.516602 0.194672
0.586212 0.527191 0.200500
0.607391 0.540314 0.206665
0.641327 0.564453 0.217255
0.665100 0.571838 0.221832
0.684753 0.559326 0.219391
0.719391 0.544434 0.216705
0.745605 0.528809 0.215057
0.768616 0.522552 0.214844
0.791565 0.517181 0.215240
0.813019 0.512665 0.217804
0.831970 0.507935 0.221954
0.851105 0.509338 0.226898
0.865295 0.516937 0.230988
0.866974 0.524017 0.231354
0.866577 0.522339 0.231293
0.866577 0.522430 0.231293
0.187500 0.402649 0.149811
0.191528 0.403381 0.151398
0.198914 0.407379 0.152374
0.210785 0.413544 0.153625
0.227783 0.420593 0.156281
0.247864 0.423950 0.158813
0.270935 0.426117 0.161774
0.295410 0.429871 0.164917
0.321106 0.433899 0.168976
0.346832 0.438751 0.173340
0.371826 0.444153 0.176697
0.399200 0.454834 0.177063
0.429565 0.469208 0.176666
0.461517 0.484528 0.177979
0.496735 0.502686 0.182800
0.532318 0.520477 0.190582
0.565247 0.535248 0.199493
0.594574 0.548401 0.207031
0.616333 0.559021 0.212677
0.636719 0.572815 0.218903
0.669159 0.597534 0.229584
0.692841 0.606537 0.234833
0.712128 0.596802 0.233826
0.745697 0.580475 0.230499
0.773041 0.562836 0.227417
0.793182 0.553314 0.226593
0.816833 0.546295 0.225769
0.838165 0.540985 0.226685
0.857239 0.535248 0.229767
0.868286 0.535431 0.232300
0.869385 0.541382 0.232727
0.868927 0.538879 0.232513
0.868927 0.539154 0.232513
0.195312 0.412109 0.156799
0.199219 0.412811 0.158447
0.206696 0.417053 0.159210
0.218719 0.423523 0.160370
0.235748 0.430908 0.163086
0.255920 0.435120 0.165741
0.278992 0.438171 0.168793
0.303467 0.442596 0.172028
0.329163 0.447693 0.176147
0.355408 0.453644 0.180603
0.380829 0.459564 0.184357
0.407684 0.469818 0.185150
0.437469 0.484528 0.184357
0.468353 0.499878 0.184814
0.500824 0.516449 0.188629
0.535095 0.535065 0.194977
0.567657 0.551910 0.203430
0.597931 0.566559 0.211884
0.625275 0.580109 0.219269
0.645935 0.591431 0.225037
0.664734 0.604706 0.230927
0.695404 0.629791 0.241547
0.718689 0.640411 0.247314
0.736633 0.632172 0.246918
0.770905 0.615082 0.243988
0.799957 0.595398 0.239258
0.819031 0.584076 0.237823
0.839813 0.575195 0.237091
0.860596 0.568298 0.236633
0.870636 0.562378 0.236328
0.870697 0.561035 0.235748
0.870300 0.557343 0.234985
0.870300 0.557343 0.234985
0.203247 0.420715 0.164093
0.207062 0.421600 0.165497
0.214722 0.426086 0.166229
0.226807 0.432892 0.167297
0.244019 0.440796 0.169922
0.264313 0.445862 0.172668
0.287048 0.449524 0.175537
0.311737 0.454285 0.179321
0.337646 0.460114 0.183624
0.364258 0.467010 0.188293
0.390167 0.474823 0.192169
0.416687 0.485321 0.193329
0.446228 0.500702 0.192566
0.476807 0.517029 0.192871
0.507202 0.532898 0.195984
0.538208 0.549530 0.201019
0.569824 0.567291 0.207428
0.599884 0.583618 0.215759
0.628357 0.598602 0.224060
0.654419 0.612762 0.231476
0.674042 0.624146 0.237122
0.690430 0.635803 0.242401
0.719971 0.661194 0.252960
0.744263 0.673737 0.259460
0.761078 0.666016 0.259399
0.795410 0.647736 0.256927
0.825531 0.626282 0.250702
0.845184 0.614410 0.249268
0.861176 0.603973 0.248108
0.869537 0.595459 0.245972
0.870087 0.589233 0.243958
0.870422 0.581635 0.241394
0.870453 0.581696 0.241425
0.211945 0.428467 0.171692
0.215515 0.429749 0.172882
0.223114 0.434296 0.173615
0.235535 0.442169 0.174469
0.252838 0.451385 0.177185
0.273285 0.458221 0.180023
0.296021 0.463531 0.183044
0.320526 0.469757 0.186890
0.346649 0.477417 0.191132
0.373627 0.485901 0.195496
0.400421 0.496490 0.199188
0.426331 0.507263 0.200836
0.455292 0.523499 0.201538
0.485596 0.541107 0.202942
0.515198 0.557434 0.206848
0.543823 0.572632 0.211670
0.571808 0.587677 0.216217
0.600098 0.603546 0.221588
0.628082 0.619263 0.228455
0.655579 0.634369 0.236481
0.680756 0.647858 0.243713
0.700134 0.658417 0.249329
0.714508 0.667633 0.253815
0.743256 0.691071 0.263763
0.768677 0.704865 0.270905
