cube滤镜(3D LUT)/Lapis Lazuli.cube
# Created by: Lutify.me
# Copyright: (c) Copyright Lutify.me 2015
# Website: https://lutify.me
#LUT size
LUT_3D_SIZE 5
#LUT data points
0.000000 0.000000 0.000000
0.240265 0.027222 0.009064
0.521667 0.090912 0.000000
0.737305 0.147522 0.000000
0.921265 0.171936 0.000000
0.153412 0.227448 0.153412
0.174103 0.176056 0.102539
0.504242 0.212250 0.000000
0.721344 0.233276 0.000000
0.916962 0.258820 0.000000
0.290405 0.547028 0.290405
0.244110 0.546753 0.289093
0.509735 0.379059 0.165100
0.747253 0.484894 0.000000
0.905060 0.481476 0.000000
0.397675 0.784546 0.397675
0.388641 0.786285 0.403229
0.601135 0.748901 0.090546
0.745483 0.592712 0.237946
0.908478 0.653046 0.107758
0.472778 0.907532 0.472778
0.469879 0.906738 0.478912
0.413361 0.907166 0.398956
0.861572 0.889130 0.330719
0.892975 0.725494 0.329681
0.090912 0.160950 0.217896
0.176819 0.000214 0.245544
0.533752 0.000000 0.158722
0.772034 0.004333 0.003540
0.923553 0.021210 0.000000
0.014404 0.226746 0.241211
0.176636 0.231567 0.247650
0.521637 0.239929 0.163849
0.757935 0.261261 0.094238
0.944977 0.287964 0.000000
0.228394 0.535309 0.111572
0.236633 0.541595 0.130188
0.513367 0.450256 0.274475
0.738373 0.476044 0.100037
0.928314 0.457001 0.000000
0.347198 0.775116 0.247345
0.362579 0.779816 0.298035
0.476746 0.761780 0.209961
0.746552 0.641266 0.340057
0.909180 0.707520 0.183075
0.436401 0.907043 0.362701
0.452820 0.906677 0.401947
0.202393 0.908966 0.429077
0.821808 0.892975 0.312256
0.893280 0.766479 0.414246
0.162292 0.315460 0.470795
0.102844 0.153290 0.538239
0.514587 0.000000 0.523529
0.759094 0.000000 0.503510
0.913818 0.000000 0.418854
0.125397 0.395935 0.508728
0.210754 0.396637 0.489716
0.532196 0.199341 0.540771
0.796570 0.142090 0.475220
0.961365 0.064545 0.353485
0.000000 0.519012 0.519714
0.134552 0.522522 0.522736
0.501221 0.530426 0.535248
0.733185 0.514893 0.457153
0.923706 0.548126 0.447906
0.134766 0.754120 0.501343
0.129242 0.756409 0.497131
0.399780 0.766663 0.425781
0.751495 0.695831 0.553101
0.915497 0.727570 0.451080
0.253693 0.908661 0.449432
0.278015 0.908569 0.435944
0.209717 0.909576 0.282990
0.742218 0.899109 0.418457
0.892914 0.810516 0.578247
0.186859 0.469727 0.685577
0.160645 0.339569 0.702484
0.510315 0.000000 0.741455
0.753235 0.000000 0.743134
0.901672 0.000000 0.740967
0.136414 0.562561 0.716309
0.249939 0.555145 0.699463
0.496826 0.165222 0.802002
0.786682 0.137177 0.775574
0.950714 0.058838 0.769989
0.000000 0.626617 0.740356
0.195190 0.641876 0.735138
0.540436 0.657684 0.713898
0.763062 0.510559 0.751801
0.914185 0.510529 0.712708
0.000000 0.744263 0.742035
0.044250 0.747498 0.745117
0.500854 0.747223 0.743713
0.737579 0.750732 0.751373
0.909393 0.756378 0.722717
0.000000 0.905945 0.735107
0.000000 0.904968 0.735535
0.422821 0.904846 0.723846
0.674042 0.900970 0.663330
0.889679 0.852020 0.750732
0.217682 0.598267 0.840607
0.179047 0.439819 0.844696
0.439026 0.000000 0.928589
0.748962 0.000000 0.904999
0.901581 0.000000 0.905060
0.182312 0.687775 0.865662
0.291718 0.675903 0.851196
0.237061 0.309143 0.912659
0.793335 0.054321 0.969604
0.944611 0.055237 0.948425
0.078003 0.740295 0.894043
0.283112 0.754333 0.882599
0.571808 0.763885 0.858582
0.751373 0.515839 0.913788
0.914001 0.507477 0.917633
0.000000 0.798065 0.903900
0.123383 0.809418 0.906006
0.539337 0.827393 0.895813
0.760925 0.832520 0.872681
0.905151 0.739594 0.908813
0.000000 0.901123 0.901123
0.000000 0.904419 0.904419
0.472504 0.902832 0.902832
0.730255 0.893829 0.893829
0.882507 0.882507 0.882507
