cube滤镜(3D LUT)/Lapis Lazuli.cube
# Created by: Lutify.me
# Copyright: (c) Copyright Lutify.me 2015
# Website: https://lutify.me
#LUT size
LUT_3D_SIZE 9
#LUT data points
0.000000 0.000000 0.000000
0.071716 0.000000 0.007599
0.240265 0.027222 0.009064
0.385742 0.041351 0.000000
0.521667 0.090912 0.000000
0.633209 0.123474 0.000000
0.737305 0.147522 0.000000
0.867035 0.162506 0.000000
0.921265 0.171936 0.000000
0.066040 0.113037 0.066040
0.028778 0.087616 0.055756
0.228333 0.120087 0.001099
0.388489 0.145660 0.000000
0.509583 0.158661 0.000000
0.615967 0.170654 0.000000
0.725311 0.182526 0.000000
0.862885 0.198364 0.000000
0.920532 0.205780 0.000000
0.153412 0.227448 0.153412
0.149597 0.226624 0.144348
0.174103 0.176056 0.102539
0.352753 0.205627 0.007263
0.504242 0.212250 0.000000
0.611359 0.219543 0.000000
0.721344 0.233276 0.000000
0.852417 0.249481 0.000000
0.916962 0.258820 0.000000
0.219482 0.382507 0.219482
0.219513 0.382538 0.218872
0.168152 0.376282 0.195282
0.331757 0.262482 0.149139
0.518982 0.308777 0.057556
0.626587 0.342682 0.000000
0.720367 0.332367 0.000000
0.846100 0.331573 0.000000
0.910858 0.337219 0.000000
0.290405 0.547028 0.290405
0.290344 0.545624 0.290344
0.244110 0.546753 0.289093
0.442902 0.518677 0.133667
0.509735 0.379059 0.165100
0.646332 0.416840 0.110199
0.747253 0.484894 0.000000
0.851166 0.487701 0.000000
0.905060 0.481476 0.000000
0.348663 0.672607 0.348663
0.349457 0.673431 0.349457
0.329193 0.673340 0.349487
0.303406 0.657593 0.283630
0.633423 0.632202 0.203247
0.640564 0.489166 0.191986
0.749268 0.522430 0.142365
0.862457 0.600647 0.000000
0.906281 0.615570 0.000000
0.397675 0.784546 0.397675
0.397827 0.783752 0.397888
0.388641 0.786285 0.403229
0.160645 0.776611 0.384918
0.601135 0.748901 0.090546
0.749298 0.723145 0.267822
0.745483 0.592712 0.237946
0.857056 0.618805 0.182098
0.908478 0.653046 0.107758
0.451630 0.893738 0.451630
0.454498 0.896271 0.454498
0.444153 0.895386 0.455383
0.284637 0.893707 0.457581
0.488098 0.873291 0.334442
0.738525 0.855469 0.053192
0.855347 0.826233 0.339233
0.852081 0.688660 0.301025
0.892029 0.680664 0.290131
0.472778 0.907532 0.472778
0.472778 0.907532 0.472778
0.469879 0.906738 0.478912
0.356232 0.907501 0.487091
0.413361 0.907166 0.398956
0.710083 0.901123 0.079102
0.861572 0.889130 0.330719
0.894196 0.784760 0.354187
0.892975 0.725494 0.329681
0.037750 0.073395 0.136200
0.044861 0.075134 0.142303
0.184235 0.000000 0.130981
0.359497 0.000305 0.011841
0.527435 0.000000 0.021790
0.653137 0.004425 0.012238
0.758820 0.079651 0.000000
0.873291 0.121674 0.000000
0.923401 0.129639 0.000000
0.024933 0.122528 0.145782
0.046906 0.126038 0.148956
0.225067 0.127869 0.102905
0.380676 0.151947 0.061951
0.525757 0.161255 0.001190
0.633148 0.179901 0.000000
0.736450 0.199982 0.000000
0.859680 0.224182 0.000000
0.915741 0.238251 0.000000
0.114624 0.223022 0.115692
0.114075 0.223755 0.118500
0.169220 0.202087 0.144287
0.374634 0.208649 0.077057
0.516052 0.209717 0.000000
0.618439 0.226318 0.000000
0.724213 0.246063 0.000000
0.851990 0.271118 0.000000
0.912567 0.280609 0.000000
0.201630 0.380371 0.172485
0.201965 0.380646 0.173157
0.167603 0.379822 0.195282
0.335876 0.295990 0.178864
0.519501 0.338440 0.093597
0.627686 0.325928 0.000000
0.723358 0.321747 0.000000
0.853058 0.337067 0.000000
0.913940 0.346405 0.000000
0.274231 0.541412 0.252747
0.274902 0.543274 0.253204
0.265045 0.544708 0.277527
0.375488 0.526703 0.164764
0.511658 0.413727 0.193665
0.648163 0.458710 0.125000
0.742859 0.490570 0.000000
0.855133 0.472351 0.000000
0.913422 0.466553 0.000000
0.334290 0.669891 0.314362
0.333252 0.668884 0.314728
0.331940 0.673004 0.338318
0.198059 0.665802 0.317352
0.608612 0.638672 0.190460
0.639343 0.521454 0.222778
0.751709 0.558044 0.158783
0.862274 0.615967 0.000000
0.911194 0.617310 0.000000
0.386017 0.780914 0.367737
0.385071 0.781128 0.367737
0.386200 0.783936 0.391663
0.190125 0.780090 0.393646
0.550049 0.752258 0.164673
0.739685 0.735748 0.277740
0.748749 0.619537 0.270264
0.861115 0.649628 0.197266
0.907440 0.679108 0.105804
0.439850 0.896393 0.424500
0.441010 0.891937 0.425293
0.441986 0.894836 0.447205
0.320618 0.894348 0.453308
0.410065 0.880432 0.372192
0.706451 0.858093 0.023682
0.849609 0.838165 0.349030
0.851379 0.709137 0.328430
0.894196 0.705536 0.318939
0.467896 0.906189 0.456177
0.467896 0.906189 0.456177
0.469910 0.906738 0.470398
0.367645 0.907410 0.483154
0.319275 0.908112 0.425476
0.667511 0.902740 0.164001
0.844818 0.891937 0.307892
0.892670 0.803497 0.376740
0.891693 0.746429 0.357300
0.090912 0.160950 0.217896
0.081116 0.139526 0.227234
0.176819 0.000214 0.245544
0.345978 0.000000 0.228882
0.533752 0.000000 0.158722
0.665497 0.000000 0.050293
0.772034 0.004333 0.003540
0.874512 0.001373 0.036285
0.923553 0.021210 0.000000
0.084991 0.190613 0.231293
0.084259 0.184875 0.227539
0.169128 0.106018 0.245941
0.352722 0.087524 0.219940
0.547455 0.011932 0.127075
0.674744 0.029297 0.003845
0.764160 0.122284 0.000000
0.874298 0.163666 0.000000
0.923096 0.176971 0.000000
0.014404 0.226746 0.241211
0.014984 0.225952 0.240662
0.176636 0.231567 0.247650
0.369568 0.223267 0.185974
0.521637 0.239929 0.163849
0.641510 0.251495 0.137451
0.757935 0.261261 0.094238
0.891998 0.273499 0.002960
0.944977 0.287964 0.000000
0.151642 0.373535 0.217529
0.150116 0.372986 0.220276
0.152313 0.371063 0.233948
0.336243 0.341736 0.256439
0.510742 0.331818 0.166382
0.622375 0.320221 0.120636
0.738861 0.325592 0.069672
0.876373 0.341492 0.000000
0.935944 0.351288 0.000000
0.228394 0.535309 0.111572
0.229675 0.536896 0.106628
0.236633 0.541595 0.130188
0.259064 0.538025 0.161865
0.513367 0.450256 0.274475
0.642639 0.489929 0.194061
0.738373 0.476044 0.100037
0.866089 0.455627 0.000000
0.928314 0.457001 0.000000
0.292206 0.664093 0.157776
0.291840 0.663971 0.156952
0.305023 0.670563 0.224274
0.131897 0.669495 0.280334
0.569214 0.642059 0.199005
0.641327 0.552429 0.302551
0.752930 0.593445 0.236176
0.866058 0.614777 0.051697
0.921753 0.606506 0.000000
0.347198 0.775116 0.247345
0.346985 0.774597 0.245483
0.362579 0.779816 0.298035
0.208832 0.780090 0.345856
0.476746 0.761780 0.209961
0.719025 0.741394 0.314789
0.746552 0.641266 0.340057
0.860016 0.678375 0.268585
0.909180 0.707520 0.183075
0.406342 0.891357 0.324280
0.406189 0.890320 0.324463
0.422211 0.894196 0.368347
0.320007 0.894409 0.410034
0.306030 0.886871 0.383453
0.662109 0.861877 0.029449
0.834259 0.843567 0.379761
0.856140 0.732727 0.392700
0.895355 0.729370 0.377106
0.436401 0.907043 0.362701
0.433899 0.907104 0.360413
0.452820 0.906677 0.401947
0.364746 0.907654 0.441345
0.202393 0.908966 0.429077
0.619537 0.903961 0.215881
0.821808 0.892975 0.312256
0.893555 0.822479 0.426147
0.893280 0.766479 0.414246
0.139160 0.232330 0.337494
0.117462 0.188751 0.349274
0.123657 0.034424 0.428314
0.336639 0.000000 0.377716
0.519897 0.000000 0.375031
0.658203 0.000000 0.324188
0.767395 0.000000 0.259888
0.876007 0.000000 0.189850
0.922302 0.000000 0.161346
0.131042 0.269928 0.354340
0.134583 0.259613 0.346222
0.143707 0.173676 0.369965
0.353851 0.078003 0.398956
0.544830 0.021973 0.377472
0.673004 0.000000 0.304169
0.777832 0.000000 0.236633
0.881073 0.000000 0.170502
0.924683 0.000000 0.140625
0.103241 0.297028 0.371613
0.098206 0.302094 0.369568
0.187836 0.300537 0.350311
0.316132 0.226624 0.375763
0.535339 0.201324 0.345306
0.680115 0.177490 0.266205
0.794922 0.150574 0.185089
0.912781 0.148193 0.086243
0.963318 0.154633 0.043274
0.000000 0.368073 0.376648
0.000000 0.367462 0.375916
0.179840 0.370789 0.385773
0.326080 0.377777 0.390839
0.509521 0.352783 0.308197
0.629242 0.370605 0.291565
0.744843 0.387024 0.279266
0.879913 0.404053 0.255463
0.941498 0.410889 0.242432
0.129639 0.526917 0.364960
0.128693 0.525757 0.366211
0.106781 0.528076 0.361176
0.369354 0.509338 0.460846
0.504639 0.504089 0.421997
0.623199 0.481049 0.299316
0.725830 0.462158 0.254486
0.869110 0.470001 0.225861
0.935425 0.474762 0.207367
0.200806 0.653961 0.328644
0.200623 0.654510 0.329193
0.212708 0.658142 0.310883
0.119843 0.664734 0.243195
0.497589 0.649628 0.279663
0.643036 0.585602 0.417175
0.747620 0.618561 0.341278
0.862732 0.603638 0.249298
0.924805 0.593842 0.217407
0.262756 0.765167 0.266388
0.262512 0.764252 0.264435
0.285095 0.768433 0.218811
0.143677 0.776581 0.076874
0.392761 0.770050 0.081451
0.685547 0.744202 0.378204
0.749390 0.669006 0.444214
0.861633 0.709595 0.370972
0.911896 0.726410 0.307312
0.334900 0.881805 0.112183
0.334290 0.880646 0.117310
0.357330 0.885345 0.032349
0.279755 0.892365 0.116211
0.244537 0.890808 0.236481
0.601410 0.870178 0.034424
0.811554 0.849335 0.435944
0.855896 0.755737 0.481750
0.896332 0.756409 0.467285
0.360748 0.908722 0.046692
0.361755 0.908691 0.040405
0.392029 0.907990 0.037720
0.327576 0.908844 0.199921
0.135803 0.909821 0.297974
0.550507 0.905609 0.156189
0.787842 0.896973 0.350403
0.891235 0.840179 0.499115
0.891235 0.788330 0.496155
0.162292 0.315460 0.470795
0.147980 0.247437 0.480011
0.102844 0.153290 0.538239
0.337128 0.000000 0.525024
0.514587 0.000000 0.523529
0.646667 0.000000 0.523285
0.759094 0.000000 0.503510
0.871368 0.000000 0.449127
0.913818 0.000000 0.418854
0.149231 0.361115 0.489044
0.159821 0.347534 0.480804
0.160065 0.275116 0.488586
0.356781 0.021820 0.576691
0.540314 0.016754 0.549652
0.670807 0.000000 0.538422
0.775879 0.000000 0.495972
0.880341 0.000000 0.428833
0.921814 0.000000 0.398315
0.125397 0.395935 0.508728
0.135681 0.397522 0.500244
0.210754 0.396637 0.489716
0.284058 0.227875 0.530731
0.532196 0.199341 0.540771
0.676056 0.175140 0.530029
0.796570 0.142090 0.475220
0.915314 0.086700 0.388641
0.961365 0.064545 0.353485
0.066528 0.434052 0.523285
0.063660 0.437683 0.521545
0.185883 0.449860 0.515747
0.331757 0.436523 0.469849
0.431152 0.388031 0.497650
0.660126 0.355194 0.497253
0.778961 0.346558 0.432648
0.898254 0.332428 0.362823
0.949005 0.327148 0.335876
0.000000 0.519012 0.519714
0.000000 0.519104 0.519989
0.134552 0.522522 0.522736
0.395447 0.523010 0.540710
0.501221 0.530426 0.535248
0.622742 0.501160 0.468597
0.733185 0.514893 0.457153
0.868256 0.536987 0.448395
0.923706 0.548126 0.447906
0.032501 0.645599 0.516968
0.036560 0.645294 0.516022
0.006470 0.645996 0.518280
0.275421 0.647461 0.516022
0.541992 0.632660 0.603851
0.639435 0.631927 0.565186
0.728058 0.609436 0.461487
0.857422 0.600067 0.428589
0.923218 0.603210 0.421814
0.134766 0.754120 0.501343
0.135498 0.754181 0.501770
0.129242 0.756409 0.497131
0.099945 0.761932 0.482422
0.399780 0.766663 0.425781
0.633423 0.751221 0.456451
0.751495 0.695831 0.553101
0.860138 0.727814 0.482330
0.915497 0.727570 0.451080
0.215942 0.872070 0.471893
0.215424 0.872467 0.472046
0.236450 0.874573 0.460938
0.090607 0.882141 0.424225
0.292328 0.888458 0.338043
0.541168 0.879272 0.295807
0.777161 0.852966 0.500671
0.856628 0.780090 0.578156
0.897522 0.783630 0.558044
0.253693 0.908661 0.449432
0.253571 0.908630 0.453674
0.278015 0.908569 0.435944
0.194580 0.909302 0.388000
0.209717 0.909576 0.282990
0.506866 0.906372 0.200531
0.742218 0.899109 0.418457
0.891022 0.863312 0.566284
0.892914 0.810516 0.578247
0.174683 0.395264 0.588684
0.162567 0.320770 0.589691
0.142853 0.262848 0.617859
0.311798 0.000000 0.674866
0.513397 0.000000 0.638611
0.645691 0.000000 0.640717
0.752411 0.000000 0.641693
0.865570 0.000000 0.630524
0.907623 0.000000 0.614441
0.156250 0.446777 0.604309
0.175568 0.430908 0.594940
0.172180 0.350800 0.593048
0.240631 0.044678 0.716431
0.537872 0.000000 0.673157
0.666443 0.000000 0.660889
0.771667 0.000000 0.655121
0.879913 0.000000 0.629791
0.921082 0.000000 0.613159
0.127441 0.483063 0.620514
0.151459 0.485138 0.614105
0.230499 0.481506 0.602631
0.236542 0.342926 0.607300
0.538757 0.179535 0.677734
0.672607 0.174469 0.665497
0.790771 0.141479 0.664124
0.911194 0.084412 0.628326
0.955933 0.063202 0.601776
0.075287 0.515808 0.634796
0.103699 0.522858 0.632080
0.211365 0.532959 0.624481
0.369629 0.532776 0.608337
0.485046 0.366119 0.645813
0.657288 0.353363 0.652191
0.777222 0.343719 0.645081
0.896240 0.331970 0.593262
0.942139 0.327698 0.561554
0.000000 0.561920 0.642517
0.000000 0.564819 0.641479
0.152252 0.572662 0.640533
0.357269 0.583221 0.632660
0.497589 0.572968 0.595551
0.571716 0.540466 0.615387
0.764526 0.513000 0.614197
0.880127 0.509338 0.556305
0.914307 0.513153 0.538635
0.000000 0.640533 0.638184
0.000000 0.640533 0.638245
0.095306 0.644501 0.641083
0.319000 0.642975 0.641174
0.558105 0.641602 0.652954
0.636871 0.643829 0.643951
0.727661 0.628204 0.607056
0.856445 0.648712 0.601318
0.915192 0.657776 0.600464
0.000000 0.747528 0.634247
0.000000 0.749481 0.636597
0.002655 0.748108 0.636841
0.271210 0.748901 0.635345
0.466339 0.752838 0.629150
0.620178 0.748932 0.634369
0.755798 0.728271 0.655334
0.854950 0.724213 0.598083
0.914307 0.721466 0.588654
0.059906 0.864868 0.623627
0.054993 0.865356 0.625183
0.048248 0.864868 0.623901
0.093872 0.869873 0.617706
0.380890 0.874420 0.592041
0.538971 0.876251 0.538483
0.727814 0.862274 0.561249
0.854675 0.802307 0.661133
0.897858 0.810822 0.644409
0.118988 0.908325 0.616333
0.119141 0.908325 0.616333
0.126648 0.908356 0.612518
0.000000 0.907440 0.603699
0.327576 0.907288 0.568787
0.495331 0.907990 0.498901
0.682831 0.902313 0.492981
0.880951 0.879730 0.643616
0.892242 0.830566 0.665039
0.186859 0.469727 0.685577
0.181091 0.399628 0.681335
0.160645 0.339569 0.702484
0.161255 0.005615 0.822205
0.510315 0.000000 0.741455
0.645477 0.000000 0.741272
0.753235 0.000000 0.743134
0.860718 0.000000 0.741882
0.901672 0.000000 0.740967
0.168976 0.524323 0.700470
0.191803 0.507904 0.693268
0.190643 0.429871 0.686829
0.140015 0.218994 0.761139
0.527588 0.000000 0.779144
0.664459 0.000000 0.766418
0.769226 0.000000 0.758850
0.877686 0.000000 0.756073
0.918060 0.000000 0.750275
0.136414 0.562561 0.716309
0.169159 0.561676 0.709747
0.249939 0.555145 0.699463
0.245972 0.448761 0.689178
0.496826 0.165222 0.802002
0.678864 0.147919 0.787842
0.786682 0.137177 0.775574
0.906097 0.079437 0.774628
0.950714 0.058838 0.769989
0.083557 0.595459 0.733002
0.128845 0.601440 0.726532
0.241608 0.607849 0.719696
0.389832 0.607330 0.706085
0.387360 0.438873 0.711975
0.663849 0.345490 0.769287
0.774719 0.341827 0.763367
0.892334 0.328369 0.759674
0.938843 0.322357 0.748383
0.000000 0.626617 0.740356
0.039764 0.633636 0.740173
0.195190 0.641876 0.735138
0.387482 0.654327 0.727112
0.540436 0.657684 0.713898
0.631195 0.518799 0.748566
0.763062 0.510559 0.751801
0.878906 0.506989 0.735474
0.914185 0.510529 0.712708
0.000000 0.668213 0.742767
0.000000 0.671539 0.744537
0.116486 0.677948 0.746735
0.342102 0.683350 0.740906
0.533112 0.694641 0.734375
0.647491 0.695892 0.720337
0.743561 0.640778 0.741669
0.867462 0.636108 0.710785
0.913422 0.637054 0.688293
0.000000 0.744263 0.742035
0.000000 0.743988 0.742188
0.044250 0.747498 0.745117
0.298676 0.747650 0.745209
0.500854 0.747223 0.743713
0.647552 0.745331 0.744171
0.737579 0.750732 0.751373
0.854034 0.744080 0.722595
0.909393 0.756378 0.722717
0.000000 0.857361 0.740082
0.000000 0.859985 0.739746
0.000000 0.858307 0.740448
0.249939 0.860321 0.739044
0.461334 0.861877 0.734497
0.585327 0.865021 0.721954
0.705444 0.864655 0.693359
0.856689 0.824829 0.744324
0.897064 0.834473 0.728943
0.000000 0.905945 0.735107
0.000000 0.906036 0.733521
0.000000 0.904968 0.735535
0.188599 0.907013 0.731079
0.422821 0.904846 0.723846
0.546661 0.905273 0.702759
0.674042 0.900970 0.663330
0.860809 0.886200 0.719788
0.889679 0.852020 0.750732
0.207184 0.561127 0.795532
0.201202 0.490112 0.786896
0.172455 0.405518 0.800842
0.062042 0.206573 0.893188
0.491180 0.000000 0.863586
0.645325 0.000000 0.852173
0.751434 0.000000 0.853882
0.857483 0.000000 0.854401
0.905090 0.000000 0.858307
0.188934 0.609985 0.806641
0.212982 0.595093 0.801971
0.215240 0.521545 0.789429
0.176941 0.385193 0.814941
0.433411 0.000000 0.915070
0.660034 0.000000 0.879242
0.766968 0.000000 0.872101
0.873718 0.000000 0.870239
0.920380 0.000000 0.870697
0.166260 0.651337 0.824188
0.199188 0.645966 0.815094
0.276611 0.637451 0.804871
0.270264 0.552948 0.791840
0.286407 0.232819 0.898621
0.682465 0.088226 0.925964
0.794830 0.086029 0.906677
0.902069 0.078735 0.897675
0.950409 0.044128 0.896667
0.120880 0.679596 0.834412
0.175537 0.683533 0.830872
0.282990 0.689758 0.822998
0.416138 0.687775 0.810211
0.399353 0.580170 0.794739
0.623291 0.344849 0.893463
0.779175 0.330048 0.890198
0.889191 0.328491 0.882324
0.939606 0.318024 0.887085
0.035797 0.704681 0.845917
0.118134 0.713165 0.845642
0.256134 0.720490 0.837585
0.424591 0.729492 0.827484
0.560608 0.731537 0.814453
0.538422 0.590027 0.813324
0.765289 0.507904 0.872803
0.876587 0.504883 0.869873
0.917603 0.510284 0.866760
0.000000 0.733124 0.854523
0.000000 0.739319 0.854919
0.193268 0.746063 0.851135
0.395233 0.758301 0.844818
0.565338 0.770447 0.836700
0.669250 0.769806 0.823853
0.721436 0.642670 0.850769
0.868591 0.636200 0.861816
0.914215 0.634766 0.861816
0.000000 0.773682 0.857513
0.000000 0.775757 0.857269
0.068329 0.780884 0.859253
0.334625 0.788086 0.856537
0.529938 0.796539 0.852051
0.658447 0.805359 0.845245
0.757965 0.803192 0.833252
0.864502 0.738831 0.857574
0.906067 0.739441 0.851105
0.000000 0.854187 0.850708
0.000000 0.857391 0.854187
0.000000 0.858185 0.854645
0.278931 0.858490 0.854736
0.490143 0.856842 0.853149
0.624573 0.856781 0.853027
0.742188 0.852325 0.848572
0.842957 0.845856 0.845581
0.891602 0.846649 0.836365
0.000000 0.901672 0.850403
0.000000 0.901672 0.850616
0.000000 0.904907 0.851715
0.265533 0.905212 0.850006
0.467407 0.903595 0.846893
0.605530 0.901184 0.843384
0.719360 0.895691 0.838715
0.825531 0.889160 0.818512
0.884155 0.873444 0.842041
0.217682 0.598267 0.840607
0.211182 0.529327 0.830841
0.179047 0.439819 0.844696
0.114563 0.307251 0.903625
0.439026 0.000000 0.928589
0.641968 0.000000 0.905090
0.748962 0.000000 0.904999
0.858093 0.000000 0.905029
0.901581 0.000000 0.905060
0.202789 0.649567 0.853943
0.223145 0.632629 0.847565
0.229004 0.566864 0.836273
0.187469 0.435028 0.851959
0.330170 0.000305 0.984558
0.657318 0.000000 0.930786
0.766724 0.000000 0.926117
0.872986 0.000000 0.921021
0.915588 0.000000 0.919189
0.182312 0.687775 0.865662
0.212799 0.684174 0.861481
0.291718 0.675903 0.851196
0.283844 0.597717 0.837494
0.237061 0.309143 0.912659
0.667999 0.066895 0.985565
0.793335 0.054321 0.969604
0.903748 0.052826 0.953461
0.944611 0.055237 0.948425
0.149200 0.716156 0.881165
0.197205 0.719269 0.875946
0.303375 0.721527 0.867859
0.428284 0.721344 0.854156
0.406799 0.626556 0.838928
0.547607 0.355103 0.935120
0.783173 0.325653 0.951782
0.893066 0.318726 0.942078
0.934631 0.320984 0.938416
0.078003 0.740295 0.894043
0.152588 0.746063 0.889191
0.283112 0.754333 0.882599
0.440369 0.762970 0.872040
0.571808 0.763885 0.858582
0.549530 0.655609 0.849213
0.751373 0.515839 0.913788
0.869507 0.508179 0.917786
0.914001 0.507477 0.917633
0.000000 0.765991 0.900330
0.037323 0.771515 0.901062
0.229370 0.779053 0.896179
0.416473 0.790863 0.888275
0.572235 0.802002 0.879395
0.676849 0.800537 0.866730
0.675049 0.662109 0.876465
0.867340 0.636017 0.914581
0.910767 0.634857 0.914398
0.000000 0.798065 0.903900
0.000000 0.801483 0.904938
0.123383 0.809418 0.906006
0.362610 0.817474 0.901642
0.539337 0.827393 0.895813
0.668610 0.834259 0.885986
0.760925 0.832520 0.872681
0.864105 0.740265 0.909821
0.905151 0.739594 0.908813
0.000000 0.863953 0.901703
0.000000 0.861267 0.902039
0.000000 0.864410 0.906158
0.285034 0.864594 0.906219
0.489044 0.867432 0.904663
0.630707 0.866486 0.901337
0.746368 0.867615 0.892426
0.845398 0.862854 0.882599
0.890686 0.844696 0.894348
0.000000 0.901123 0.901123
0.000000 0.901123 0.901123
0.000000 0.904419 0.904419
0.265564 0.904541 0.904541
0.472504 0.902832 0.902832
0.609314 0.899963 0.899963
0.730255 0.893829 0.893829
0.837677 0.886322 0.886322
0.882507 0.882507 0.882507
