cube滤镜(3D LUT)/Lapis Lazuli.cube
# Created by: Lutify.me
# Copyright: (c) Copyright Lutify.me 2015
# Website: https://lutify.me
#LUT size
LUT_3D_SIZE 33
#LUT data points
0.000000 0.000000 0.000000
0.006866 0.000000 0.000000
0.024841 0.000000 0.000000
0.042328 0.000000 0.000000
0.071716 0.000000 0.007599
0.117523 0.002655 0.003357
0.167419 0.013397 0.003632
0.205292 0.018219 0.007019
0.240265 0.027222 0.009064
0.274231 0.032806 0.004364
0.311279 0.033356 0.000732
0.348053 0.037262 0.000000
0.385742 0.041351 0.000000
0.421722 0.050629 0.000000
0.456940 0.067719 0.000000
0.491730 0.080688 0.000000
0.521667 0.090912 0.000000
0.550323 0.101166 0.000000
0.578979 0.108490 0.000000
0.605774 0.116028 0.000000
0.633209 0.123474 0.000000
0.658142 0.130493 0.000000
0.682617 0.138489 0.000000
0.708740 0.144348 0.000000
0.737305 0.147522 0.000000
0.767517 0.150452 0.000000
0.798859 0.153473 0.000000
0.833008 0.158966 0.000000
0.867035 0.162506 0.000000
0.897034 0.168549 0.000000
0.921021 0.171936 0.000000
0.921265 0.171936 0.000000
0.921265 0.171936 0.000000
0.000000 0.000000 0.000000
0.000000 0.008392 0.008392
0.017242 0.007660 0.007660
0.049377 0.016937 0.000488
0.085815 0.022400 0.004150
0.139557 0.028229 0.000854
0.183136 0.045685 0.000061
0.216919 0.058563 0.003204
0.257355 0.065491 0.004059
0.289459 0.069122 0.001282
0.322906 0.076416 0.000061
0.356934 0.084137 0.000000
0.389252 0.088928 0.000000
0.421906 0.095978 0.000000
0.454590 0.104095 0.000000
0.486023 0.111938 0.000000
0.517181 0.117737 0.000000
0.546539 0.124634 0.000000
0.572357 0.130981 0.000000
0.598785 0.135284 0.000000
0.627838 0.141266 0.000000
0.653809 0.145355 0.000000
0.678528 0.147888 0.000000
0.705933 0.151276 0.000000
0.733765 0.154175 0.000000
0.764587 0.159332 0.000000
0.795990 0.162384 0.000000
0.833466 0.166504 0.000000
0.866516 0.171875 0.000000
0.895111 0.175659 0.000000
0.920990 0.178711 0.000000
0.921082 0.178711 0.000000
0.921082 0.178711 0.000000
0.016266 0.033997 0.016266
0.008118 0.026154 0.016541
0.016266 0.016815 0.017548
0.023834 0.025330 0.015350
0.068329 0.040009 0.005127
0.121368 0.053925 0.000732
0.180542 0.062836 0.000641
0.222107 0.075287 0.001984
0.260254 0.087830 0.002472
0.289490 0.094543 0.000763
0.322113 0.100952 0.000000
0.357941 0.104126 0.000000
0.390320 0.111816 0.000000
0.422424 0.119232 0.000000
0.454498 0.125549 0.000000
0.484253 0.130920 0.000000
0.514130 0.135010 0.000000
0.541931 0.139313 0.000000
0.568604 0.144165 0.000000
0.595642 0.147766 0.000000
0.621399 0.150482 0.000000
0.648010 0.152832 0.000000
0.674713 0.156952 0.000000
0.703003 0.160034 0.000000
0.732056 0.163177 0.000000
0.761444 0.168457 0.000000
0.794800 0.171509 0.000000
0.829651 0.175690 0.000000
0.861511 0.179382 0.000000
0.897339 0.185699 0.000000
0.920654 0.188385 0.000000
0.920959 0.188599 0.000000
0.920959 0.188599 0.000000
0.046631 0.078094 0.046631
0.040283 0.072784 0.040833
0.031097 0.067596 0.031677
0.015198 0.054779 0.041595
0.025513 0.050171 0.032532
0.084045 0.067657 0.013885
0.152863 0.081665 0.001251
0.206787 0.094360 0.000061
0.251038 0.102722 0.000214
0.287598 0.110504 0.000214
0.321075 0.118439 0.000000
0.355194 0.126007 0.000000
0.388641 0.131012 0.000000
0.422302 0.135986 0.000000
0.452240 0.140778 0.000000
0.483490 0.144440 0.000000
0.511658 0.148346 0.000000
0.538086 0.151672 0.000000
0.566742 0.155579 0.000000
0.593964 0.158508 0.000000
0.617981 0.159821 0.000000
0.644165 0.161621 0.000000
0.671234 0.164246 0.000000
0.699036 0.168610 0.000000
0.729462 0.172729 0.000000
0.758850 0.176880 0.000000
0.790100 0.178467 0.000000
0.829742 0.183105 0.000000
0.863007 0.188202 0.000000
0.897339 0.192749 0.000000
0.920471 0.198547 0.000000
0.920685 0.198730 0.000000
0.920685 0.198730 0.000000
0.066040 0.113037 0.066040
0.064972 0.112244 0.064972
0.059235 0.108124 0.058716
0.047028 0.103943 0.052551
0.028778 0.087616 0.055756
0.047821 0.082794 0.046783
0.112549 0.098083 0.021362
0.179199 0.110748 0.008698
0.228333 0.120087 0.001099
0.272614 0.126160 0.000000
0.313202 0.133698 0.000000
0.353607 0.140076 0.000000
0.388489 0.145660 0.000000
0.419647 0.149658 0.000000
0.453613 0.153473 0.000000
0.481873 0.156738 0.000000
0.509583 0.158661 0.000000
0.537506 0.161774 0.000000
0.566345 0.165100 0.000000
0.592072 0.168091 0.000000
0.615967 0.170654 0.000000
0.642914 0.173767 0.000000
0.669708 0.175781 0.000000
0.697632 0.178802 0.000000
0.725311 0.182526 0.000000
0.756500 0.184814 0.000000
0.788452 0.189178 0.000000
0.823639 0.193939 0.000000
0.862885 0.198364 0.000000
0.896790 0.202393 0.000000
0.920410 0.205750 0.000000
0.920502 0.205780 0.000000
0.920532 0.205780 0.000000
0.089874 0.147308 0.089874
0.089813 0.147034 0.089813
0.088531 0.149475 0.084137
0.079254 0.143463 0.069611
0.057190 0.135376 0.056610
0.043762 0.117310 0.052582
0.081970 0.111969 0.060181
0.154541 0.124664 0.039764
0.202087 0.137390 0.017090
0.250214 0.144653 0.001984
0.295471 0.149261 0.000000
0.341461 0.154419 0.000000
0.380310 0.157593 0.000000
0.416016 0.160675 0.000000
0.449463 0.164001 0.000000
0.482727 0.167389 0.000000
0.508911 0.170074 0.000000
0.536316 0.171417 0.000000
0.565216 0.174683 0.000000
0.591064 0.177704 0.000000
0.614777 0.180634 0.000000
0.641937 0.184296 0.000000
0.668671 0.186127 0.000000
0.697083 0.189941 0.000000
0.726288 0.194489 0.000000
0.754852 0.196899 0.000000
0.787079 0.201996 0.000000
0.822601 0.206451 0.000000
0.856842 0.210114 0.000000
0.896149 0.214294 0.000000
0.919800 0.218903 0.000000
0.920105 0.218353 0.000000
0.920135 0.218781 0.000000
0.110199 0.172791 0.110199
0.109924 0.172546 0.109924
0.110382 0.173340 0.109741
0.104492 0.172913 0.094513
0.094025 0.172333 0.069366
0.072601 0.161346 0.055115
0.072540 0.137817 0.072388
0.133575 0.135406 0.074066
0.179779 0.149231 0.062286
0.225403 0.161530 0.029572
0.278076 0.166321 0.003540
0.326843 0.169067 0.000000
0.370117 0.171051 0.000000
0.409668 0.174103 0.000000
0.445587 0.176636 0.000000
0.477692 0.178040 0.000000
0.508606 0.181152 0.000000
0.536041 0.183929 0.000000
0.563660 0.185028 0.000000
0.589752 0.188660 0.000000
0.614502 0.192017 0.000000
0.640442 0.195831 0.000000
0.667664 0.198669 0.000000
0.695343 0.201935 0.000000
0.723572 0.205933 0.000000
0.754059 0.208252 0.000000
0.785797 0.213348 0.000000
0.820312 0.218353 0.000000
0.856110 0.222931 0.000000
0.895142 0.227325 0.000000
0.918671 0.231232 0.000000
0.918915 0.233673 0.000000
0.918945 0.233643 0.000000
0.132294 0.197876 0.132294
0.134491 0.199615 0.134491
0.134369 0.199219 0.134369
0.127930 0.196411 0.122803
0.125488 0.199615 0.110779
0.108612 0.195221 0.097504
0.092316 0.180389 0.075989
0.132660 0.161255 0.075989
0.170349 0.157593 0.091980
0.206573 0.168610 0.078766
0.257477 0.179443 0.044067
0.311005 0.184692 0.005493
0.362457 0.189056 0.000000
0.403961 0.189270 0.000000
0.439911 0.191711 0.000000
0.475006 0.193695 0.000000
0.506683 0.193970 0.000000
0.533600 0.195648 0.000000
0.560638 0.198303 0.000000
0.587769 0.201782 0.000000
0.613342 0.205170 0.000000
0.639130 0.207275 0.000000
0.665710 0.210876 0.000000
0.694885 0.215088 0.000000
0.724182 0.219238 0.000000
0.754456 0.221741 0.000000
0.786407 0.226685 0.000000
0.818970 0.232300 0.000000
0.854706 0.235199 0.000000
0.891785 0.239868 0.000000
0.917328 0.244965 0.000000
0.917542 0.245728 0.000000
0.917542 0.245667 0.000000
0.153412 0.227448 0.153412
0.154205 0.228088 0.154205
0.154266 0.228058 0.154266
0.153076 0.227325 0.152313
0.149597 0.226624 0.144348
0.127014 0.227386 0.136749
0.112488 0.218658 0.109955
0.153687 0.199432 0.077942
0.174103 0.176056 0.102539
0.202026 0.174652 0.106873
0.239166 0.182861 0.092224
0.296570 0.196899 0.057983
0.352753 0.205627 0.007263
0.398346 0.210876 0.000000
0.436676 0.211060 0.000000
0.471802 0.213043 0.000000
0.504242 0.212250 0.000000
0.534302 0.212555 0.000000
0.560272 0.214020 0.000000
0.585876 0.216827 0.000000
0.611359 0.219543 0.000000
0.637512 0.221954 0.000000
0.664124 0.225250 0.000000
0.692078 0.228607 0.000000
0.721344 0.233276 0.000000
0.752014 0.236084 0.000000
0.785156 0.239532 0.000000
0.819855 0.246002 0.000000
0.852417 0.249481 0.000000
0.887451 0.255951 0.000000
0.916687 0.259003 0.000000
0.916931 0.259460 0.000000
0.916962 0.258820 0.000000
0.169861 0.261993 0.169861
0.169922 0.262115 0.169922
0.169922 0.262024 0.169922
0.169922 0.261993 0.169434
0.169067 0.261993 0.166290
0.159607 0.260193 0.161438
0.142761 0.259155 0.153412
0.157928 0.248596 0.127747
0.199310 0.222107 0.099518
0.201843 0.190094 0.120026
0.236572 0.190521 0.116669
0.281830 0.200317 0.103668
0.339142 0.216187 0.071655
0.396362 0.227783 0.009064
0.435699 0.235870 0.000000
0.473114 0.238037 0.000000
0.507019 0.239685 0.000000
0.536255 0.238373 0.000000
0.562592 0.238647 0.000000
0.586823 0.237152 0.000000
0.611145 0.238434 0.000000
0.636353 0.240234 0.000000
0.662689 0.242706 0.000000
0.690216 0.244843 0.000000
0.718536 0.248840 0.000000
0.749664 0.253052 0.000000
0.783051 0.256958 0.000000
0.819244 0.262451 0.000000
0.851257 0.266266 0.000000
0.889832 0.273529 0.000000
0.915649 0.274048 0.000000
0.915314 0.276520 0.000000
0.915314 0.276367 0.000000
0.185120 0.299500 0.185120
0.183685 0.297821 0.183685
0.185120 0.299500 0.185120
0.185120 0.299500 0.185089
0.185028 0.299622 0.182953
0.180298 0.298553 0.180206
0.156799 0.296539 0.176910
0.135895 0.295074 0.163483
0.213684 0.283508 0.126068
0.239197 0.245880 0.123657
0.240845 0.210999 0.132019
0.277832 0.209259 0.125763
0.329437 0.221436 0.113464
0.385223 0.238190 0.084106
0.439148 0.253754 0.018616
0.476929 0.263672 0.002228
0.510498 0.269745 0.000000
0.540161 0.270508 0.000000
0.565674 0.269836 0.000000
0.590393 0.268311 0.000000
0.615417 0.265747 0.000000
0.638306 0.265961 0.000000
0.662567 0.265839 0.000000
0.688995 0.266663 0.000000
0.717499 0.268433 0.000000
0.747986 0.272430 0.000000
0.780426 0.276062 0.000000
0.817413 0.281372 0.000000
0.851868 0.285400 0.000000
0.890259 0.289978 0.000000
0.913696 0.293884 0.000000
0.913696 0.295074 0.000000
0.913696 0.295105 0.000000
0.201813 0.340179 0.201813
0.201172 0.339417 0.201172
0.201691 0.340027 0.201691
0.201813 0.340179 0.201874
0.201569 0.340149 0.199768
0.199371 0.340027 0.199280
0.181213 0.338715 0.196167
0.156250 0.337494 0.190063
0.186035 0.330933 0.163239
0.271515 0.314240 0.121613
0.281311 0.272003 0.142578
0.285736 0.235779 0.142303
0.322479 0.231079 0.134430
0.375214 0.243439 0.122162
0.429169 0.262390 0.095581
0.480133 0.281219 0.035034
0.517700 0.294067 0.005310
0.546936 0.303680 0.000000
0.572388 0.304993 0.000000
0.595428 0.305298 0.000000
0.619507 0.302856 0.000000
0.642883 0.301758 0.000000
0.666443 0.298859 0.000000
0.689819 0.297058 0.000000
0.716492 0.296021 0.000000
0.746063 0.296936 0.000000
0.778107 0.298767 0.000000
0.814423 0.302429 0.000000
0.849152 0.306915 0.000000
0.888184 0.309998 0.000000
0.912231 0.315002 0.000000
0.912476 0.315155 0.000000
0.912476 0.315918 0.000000
0.219482 0.382507 0.219482
0.219482 0.382507 0.219482
0.219604 0.382324 0.219604
0.219482 0.382507 0.219482
0.219513 0.382538 0.218872
0.217651 0.382812 0.217468
0.206940 0.382965 0.216461
0.175964 0.379822 0.211182
0.168152 0.376282 0.195282
0.258728 0.368439 0.155182
0.323578 0.344269 0.124023
0.327362 0.298920 0.153259
0.331757 0.262482 0.149139
0.369629 0.256134 0.141815
0.420929 0.268402 0.128754
0.473114 0.289459 0.105743
0.518982 0.308777 0.057556
0.555603 0.325104 0.009827
0.583099 0.337280 0.000000
0.605225 0.342102 0.000000
0.626587 0.342682 0.000000
0.647583 0.340637 0.000000
0.671631 0.338867 0.000000
0.695007 0.334412 0.000000
0.720367 0.332367 0.000000
0.747803 0.329895 0.000000
0.778717 0.329132 0.000000
0.812500 0.330200 0.000000
0.846100 0.331573 0.000000
0.886200 0.333527 0.000000
0.910706 0.336884 0.000000
0.910858 0.336914 0.000000
0.910858 0.337219 0.000000
0.238708 0.426270 0.238708
0.238068 0.424652 0.238068
0.238586 0.429199 0.238586
0.238098 0.424744 0.238098
0.238129 0.424561 0.237976
0.236298 0.424957 0.236298
0.229980 0.424774 0.235657
0.199982 0.423309 0.232544
0.170776 0.419891 0.224060
0.217743 0.414246 0.190033
0.327454 0.406616 0.129181
0.373810 0.376434 0.144257
0.373322 0.327576 0.158875
0.378448 0.290588 0.153748
0.415497 0.283234 0.147339
0.462799 0.294220 0.134827
0.512360 0.315674 0.116058
0.554626 0.336029 0.076813
0.590973 0.355042 0.019714
0.616089 0.369293 0.003265
0.636658 0.377716 0.000000
0.656921 0.380676 0.000000
0.678009 0.379974 0.000000
0.699249 0.377502 0.000000
0.725342 0.374786 0.000000
0.751801 0.372223 0.000000
0.780792 0.367523 0.000000
0.811829 0.365936 0.000000
0.845367 0.363647 0.000000
0.883148 0.364105 0.000000
0.908722 0.363403 0.000000
0.908905 0.363464 0.000000
0.908844 0.365021 0.000000
0.256775 0.468933 0.256775
0.256226 0.467651 0.256226
0.255615 0.468384 0.255615
0.256195 0.468323 0.256195
0.255402 0.465637 0.255341
0.255585 0.467773 0.255554
0.249481 0.465942 0.254517
0.229034 0.466187 0.253204
0.188019 0.463684 0.247986
0.171417 0.460175 0.228210
0.296478 0.452026 0.175110
0.391022 0.441498 0.129333
0.421539 0.406799 0.161713
0.421204 0.361664 0.162964
0.423798 0.319061 0.157715
0.459808 0.312561 0.150604
0.504364 0.322571 0.139496
0.549103 0.342133 0.122925
0.588654 0.363647 0.090576
0.622284 0.383667 0.036743
0.646423 0.399445 0.006653
0.667053 0.410980 0.000000
0.687836 0.417633 0.000000
0.707275 0.417969 0.000000
0.729645 0.416504 0.000000
0.755859 0.415436 0.000000
0.782684 0.410065 0.000000
0.813934 0.408752 0.000000
0.847229 0.404907 0.000000
0.879517 0.400574 0.000000
0.906555 0.398590 0.000000
0.906708 0.398682 0.000000
0.906494 0.400879 0.000000
0.273376 0.508972 0.273376
0.272339 0.507599 0.272339
0.271820 0.506348 0.271820
0.272980 0.508087 0.272980
0.272736 0.507507 0.272736
0.273224 0.508453 0.273163
0.267914 0.506836 0.271942
0.254761 0.508575 0.273376
0.214447 0.506134 0.269379
0.165466 0.501770 0.257904
0.247375 0.496063 0.219086
0.375671 0.486237 0.152374
0.446930 0.473602 0.138184
0.466919 0.438599 0.169830
0.462067 0.388702 0.166107
0.468292 0.349152 0.161438
0.501587 0.342682 0.154114
0.543091 0.351227 0.143524
0.583618 0.369598 0.126495
0.618469 0.390167 0.102417
0.650360 0.410950 0.056519
0.676483 0.429443 0.011780
0.697449 0.443146 0.000000
0.717926 0.452576 0.000000
0.739502 0.455017 0.000000
0.763153 0.457153 0.000000
0.787292 0.452301 0.000000
0.817108 0.451324 0.000000
0.850403 0.448730 0.000000
0.879578 0.440338 0.000000
0.905121 0.438477 0.000000
0.905334 0.438660 0.000000
0.905182 0.441437 0.000000
0.290405 0.547028 0.290405
0.289673 0.546112 0.289734
0.289673 0.546295 0.289795
0.291046 0.547485 0.291046
0.290344 0.545624 0.290344
0.289825 0.545135 0.289764
0.287415 0.547272 0.290680
0.276367 0.546753 0.291168
0.244110 0.546753 0.289093
0.190704 0.541504 0.281921
0.207672 0.535095 0.255219
0.343719 0.527954 0.192535
0.442902 0.518677 0.133667
0.496460 0.503906 0.155823
0.509369 0.466461 0.175995
0.501801 0.415283 0.171173
0.509735 0.379059 0.165100
0.537964 0.369781 0.158661
0.576691 0.378082 0.148407
0.613586 0.397217 0.131744
0.646332 0.416840 0.110199
0.677521 0.438446 0.073700
0.705200 0.458466 0.014465
0.726410 0.474030 0.000519
0.747253 0.484894 0.000000
0.771332 0.492401 0.000000
0.793915 0.491913 0.000000
0.819977 0.490143 0.000000
0.851166 0.487701 0.000000
0.881439 0.483673 0.000000
0.904724 0.480286 0.000000
0.905029 0.479462 0.000000
0.905060 0.481476 0.000000
0.307190 0.582520 0.307190
0.307526 0.582153 0.306732
0.307312 0.581879 0.306580
0.308014 0.583466 0.307983
0.307617 0.582275 0.307678
0.306732 0.581024 0.306824
0.304413 0.582001 0.307587
0.295990 0.582886 0.308075
0.269897 0.580872 0.306274
0.212555 0.580017 0.302734
0.170044 0.574249 0.285583
0.301941 0.564636 0.234222
0.421265 0.556549 0.151611
0.499603 0.550201 0.111450
0.539062 0.530487 0.176849
0.546936 0.489868 0.181244
0.540771 0.443237 0.176849
0.546265 0.407745 0.169556
0.573273 0.397614 0.163635
0.608948 0.406189 0.153381
0.640961 0.423828 0.139526
0.674194 0.444214 0.116302
0.702545 0.464813 0.082275
0.732513 0.485687 0.023224
0.753540 0.503174 0.005341
0.776733 0.516144 0.000000
0.800995 0.524048 0.000000
0.825104 0.525635 0.000000
0.852478 0.524506 0.000000
0.881622 0.524841 0.000000
0.904785 0.520721 0.000000
0.905029 0.519836 0.000000
0.905060 0.520691 0.000000
0.321716 0.615845 0.321716
0.321259 0.613770 0.320282
0.321686 0.614838 0.320648
0.321259 0.613342 0.321014
0.321259 0.615021 0.321289
0.322113 0.613983 0.321503
0.319733 0.614258 0.322937
0.312439 0.615143 0.322632
0.292145 0.614227 0.322296
0.240448 0.611969 0.319855
0.171631 0.610779 0.309662
0.242767 0.602203 0.274567
0.397156 0.591888 0.192505
0.490112 0.585052 0.115509
0.550018 0.579407 0.131470
0.576782 0.555908 0.189575
0.579712 0.514038 0.187500
0.574493 0.469208 0.182922
0.580109 0.435608 0.175629
0.607056 0.426971 0.170166
0.637512 0.434021 0.159454
0.668182 0.450012 0.145874
0.699280 0.469879 0.123322
0.727997 0.491211 0.089722
0.758667 0.512909 0.036530
0.781372 0.531738 0.005524
0.805969 0.545868 0.000000
0.831696 0.555511 0.000000
0.856140 0.557129 0.000000
0.881897 0.559204 0.000000
0.904419 0.556915 0.000000
0.904602 0.556885 0.000000
0.904572 0.557953 0.000000
0.334961 0.645721 0.334961
0.334686 0.644440 0.334686
0.335358 0.646027 0.335358
0.334930 0.643494 0.334930
0.334564 0.644012 0.334564
0.335663 0.643585 0.334930
0.334351 0.644043 0.336304
0.328156 0.645233 0.336823
0.311523 0.645660 0.336853
0.269775 0.643921 0.335358
0.202850 0.640747 0.329041
0.209595 0.636017 0.304840
0.355255 0.626404 0.244537
0.470978 0.618835 0.146332
0.548157 0.613525 0.120514
0.595825 0.607544 0.181122
0.611969 0.580750 0.200958
0.610870 0.540436 0.196960
0.607605 0.499359 0.191376
0.611755 0.462067 0.183197
0.635254 0.454590 0.177551
0.663696 0.461487 0.168182
0.694702 0.477112 0.151489
0.723938 0.496246 0.132935
0.754761 0.518005 0.098114
0.784637 0.540283 0.040833
0.809265 0.558258 0.007416
0.834198 0.574493 0.000000
0.860321 0.583710 0.000000
0.884094 0.586731 0.000000
0.904388 0.589661 0.000000
0.904510 0.589569 0.000000
0.904388 0.589539 0.000000
0.348663 0.672607 0.348663
0.349548 0.673492 0.349548
0.349579 0.673492 0.349579
0.349518 0.673523 0.349518
0.349457 0.673431 0.349457
0.349579 0.673584 0.349579
0.348511 0.673553 0.349487
0.342316 0.673615 0.349396
0.329193 0.673340 0.349487
0.294189 0.673553 0.349030
0.216949 0.670471 0.346069
0.152618 0.666107 0.328217
0.303406 0.657593 0.283630
0.445099 0.648621 0.195862
0.532074 0.643799 0.114349
0.593262 0.640350 0.139008
0.633423 0.632202 0.203247
0.640808 0.603027 0.212067
0.639191 0.564453 0.207245
0.637634 0.526917 0.199982
0.640564 0.489166 0.191986
0.663239 0.482605 0.184937
0.689819 0.488251 0.178162
0.721313 0.504089 0.161621
0.749268 0.522430 0.142365
0.780609 0.543701 0.106812
0.813263 0.565979 0.047729
0.837860 0.583832 0.008118
0.862457 0.600647 0.000000
0.887909 0.610718 0.000000
0.906250 0.615448 0.000000
0.906403 0.615509 0.000000
0.906281 0.615570 0.000000
0.361237 0.700989 0.361237
0.362152 0.701935 0.362152
0.361237 0.700989 0.361237
0.361176 0.700897 0.361176
0.361267 0.701019 0.361267
0.361237 0.701019 0.361237
0.361847 0.701874 0.362183
0.355774 0.701080 0.362457
0.345001 0.700684 0.362488
0.316620 0.700775 0.362579
0.242157 0.699158 0.360291
0.142944 0.695374 0.348969
0.231354 0.688507 0.312714
0.416107 0.678772 0.244507
0.513306 0.671661 0.146942
0.583038 0.667542 0.115204
0.631775 0.664764 0.173798
0.663666 0.653046 0.219086
0.667267 0.624817 0.223419
0.665894 0.586761 0.218628
0.663971 0.549194 0.209290
0.667450 0.516663 0.201904
0.690063 0.509430 0.194305
0.715668 0.514771 0.188202
0.746857 0.529083 0.172363
0.775085 0.547028 0.150024
0.808258 0.568787 0.113892
0.839874 0.590424 0.055603
0.864410 0.608307 0.013611
0.889801 0.625549 0.000000
0.908508 0.633484 0.000000
0.908752 0.633606 0.000000
0.908752 0.633606 0.000000
0.373962 0.729431 0.373962
0.374786 0.730316 0.374786
0.373230 0.728699 0.373230
0.373047 0.728485 0.373047
0.373077 0.728546 0.373077
0.373108 0.728546 0.373138
0.374268 0.729767 0.375702
0.370758 0.729889 0.376678
0.359314 0.728668 0.377014
0.336090 0.727631 0.377136
0.278198 0.726501 0.375244
0.191284 0.723297 0.366974
0.226349 0.717133 0.339050
0.378937 0.708618 0.283813
0.493866 0.700409 0.195801
0.568604 0.694977 0.102966
0.626984 0.691132 0.129700
0.668274 0.689209 0.202728
0.692169 0.674683 0.233917
0.694336 0.645020 0.236450
0.691132 0.609619 0.230896
0.689270 0.573425 0.220276
0.692993 0.543030 0.212250
0.713409 0.535339 0.205719
0.743256 0.542053 0.198181
0.771240 0.553894 0.183472
0.803223 0.572144 0.158813
0.836090 0.593964 0.123688
0.863098 0.613556 0.073029
0.893341 0.633942 0.013092
0.909241 0.644440 0.000000
0.909485 0.644531 0.000000
0.909302 0.644562 0.000000
0.386963 0.758240 0.387054
0.384979 0.756195 0.385071
0.385742 0.756927 0.385742
0.385010 0.756165 0.385040
0.384888 0.756134 0.384979
0.386169 0.756897 0.386047
0.385651 0.756958 0.388031
0.383545 0.757446 0.388702
0.373108 0.757782 0.389648
0.352081 0.754028 0.389130
0.307220 0.753387 0.389099
0.216431 0.751740 0.384308
0.186249 0.746490 0.362213
0.326508 0.738312 0.319550
0.460571 0.729919 0.251678
0.551056 0.723785 0.147736
0.615234 0.719482 0.086670
0.663330 0.716827 0.158783
0.701416 0.714783 0.228760
0.720520 0.696960 0.250427
0.720215 0.664001 0.248901
0.718628 0.632355 0.243011
0.715485 0.597565 0.232666
0.718079 0.568817 0.224182
0.742065 0.559906 0.217773
0.771973 0.567169 0.208649
0.799042 0.578247 0.193665
0.830139 0.597565 0.170197
0.862793 0.616791 0.131989
0.891418 0.636688 0.077637
0.909088 0.650452 0.026031
0.909607 0.650452 0.027008
0.909180 0.650604 0.025452
0.397675 0.784546 0.397675
0.397675 0.784515 0.397766
0.399750 0.785828 0.399719
0.398590 0.784668 0.398651
0.397827 0.783752 0.397888
0.400177 0.785431 0.399750
0.399963 0.786835 0.401215
0.396820 0.784760 0.400726
0.388641 0.786285 0.403229
0.368866 0.782928 0.402710
0.331421 0.780365 0.402252
0.244995 0.780060 0.399750
0.160645 0.776611 0.384918
0.260101 0.768921 0.349304
0.425568 0.760620 0.294861
0.525848 0.753693 0.209534
0.601135 0.748901 0.090546
0.652893 0.744080 0.094818
0.696442 0.744019 0.185883
0.732178 0.741547 0.249207
0.749298 0.723145 0.267822
0.747131 0.688446 0.264435
0.746826 0.657135 0.259125
0.740814 0.620789 0.247131
0.745483 0.592712 0.237946
0.770966 0.586395 0.234283
0.799103 0.590973 0.220703
0.827881 0.604401 0.204285
0.857056 0.618805 0.182098
0.886993 0.640320 0.149109
0.908234 0.652863 0.108490
0.908478 0.653046 0.112366
0.908478 0.653046 0.107758
0.412750 0.813904 0.412079
0.413361 0.814484 0.412811
0.412811 0.812012 0.412720
0.413483 0.812683 0.413452
0.413574 0.812103 0.413177
0.412842 0.811676 0.412811
0.412201 0.813507 0.415649
0.409790 0.813232 0.414581
0.401550 0.813263 0.415833
0.385162 0.812897 0.416870
0.352173 0.809906 0.416565
0.279968 0.808441 0.415253
0.180115 0.806030 0.404999
0.222321 0.800537 0.377441
0.380646 0.792389 0.330780
0.496552 0.784912 0.266785
0.578583 0.778564 0.157928
0.642456 0.774445 0.042938
0.687714 0.771729 0.122986
0.729797 0.771759 0.218567
0.762543 0.766724 0.270935
0.775330 0.746613 0.284882
0.772980 0.710876 0.280579
0.773224 0.680023 0.275452
0.768158 0.645081 0.261902
0.773376 0.616638 0.250427
0.794708 0.609558 0.248688
0.822144 0.612885 0.236664
0.855774 0.628265 0.220490
0.883698 0.643890 0.198669
0.904327 0.654114 0.171204
0.904694 0.654358 0.170502
0.904663 0.654236 0.170654
0.425415 0.840118 0.425415
0.428406 0.842468 0.427917
0.425690 0.839813 0.425659
0.427551 0.841644 0.427551
0.428314 0.842346 0.427856
0.426239 0.840759 0.426178
0.425293 0.839508 0.427734
0.423950 0.842407 0.428925
0.415894 0.841431 0.429443
0.401459 0.840668 0.431030
0.374481 0.840576 0.430389
0.316223 0.838898 0.430237
0.203156 0.836121 0.424530
0.172699 0.830719 0.402069
0.325195 0.823944 0.363464
0.464203 0.816986 0.310822
0.553680 0.810547 0.238556
0.622650 0.805145 0.119263
0.678253 0.802216 0.028320
0.721832 0.799866 0.148132
0.759644 0.796570 0.242065
0.789764 0.791870 0.290009
0.801636 0.770508 0.301422
0.802246 0.737946 0.298187
0.800415 0.704407 0.292023
