cube滤镜(3D LUT)/Larimar.cube
# Created by: Lutify.me
# Copyright: (c) Copyright Lutify.me 2015
# Website: https://lutify.me
#LUT size
LUT_3D_SIZE 33
#LUT data points
0.000000 0.000000 0.000000
0.005341 0.000000 0.000031
0.023102 0.000000 0.000122
0.059814 0.000000 0.000305
0.097687 0.000000 0.000641
0.132355 0.000000 0.001007
0.165619 0.000000 0.001495
0.197845 0.000000 0.002075
0.229706 0.000000 0.002747
0.260986 0.000000 0.003510
0.292114 0.000000 0.004425
0.323059 0.000000 0.005432
0.353760 0.000000 0.006531
0.384369 0.000000 0.007751
0.414948 0.000000 0.009125
0.445496 0.000000 0.010620
0.475952 0.000000 0.012238
0.506348 0.000000 0.013977
0.536774 0.000000 0.015869
0.567169 0.000000 0.017883
0.597443 0.000000 0.020050
0.627686 0.000000 0.022339
0.657959 0.000000 0.024780
0.688232 0.000000 0.027374
0.718536 0.000000 0.030151
0.748810 0.000000 0.033051
0.778992 0.000000 0.036102
0.809265 0.000000 0.039337
0.839478 0.000000 0.042633
0.869598 0.000000 0.045898
0.899811 0.000000 0.049194
0.930023 0.000000 0.052521
0.960175 0.000000 0.055817
0.000000 0.004974 0.003479
0.005524 0.005249 0.000000
0.023865 0.005096 0.000000
0.061005 0.004822 0.000000
0.098785 0.004547 0.000000
0.133881 0.004150 0.000031
0.167297 0.003662 0.000031
0.200012 0.002899 0.000061
0.231995 0.002136 0.000061
0.263519 0.001465 0.000092
0.294739 0.000732 0.000122
0.325623 0.000153 0.000519
0.356201 0.000000 0.001495
0.386627 0.000000 0.002747
0.417023 0.000000 0.004272
0.447357 0.000000 0.005859
0.477661 0.000000 0.007446
0.507935 0.000000 0.009216
0.538208 0.000000 0.011169
0.568451 0.000000 0.013123
0.598694 0.000000 0.015167
0.628906 0.000000 0.017609
0.659119 0.000000 0.020050
0.689331 0.000000 0.022522
0.719543 0.000000 0.025452
0.749725 0.000000 0.028076
0.779877 0.000000 0.031128
0.810059 0.000000 0.034363
0.840240 0.000000 0.037750
0.870422 0.000000 0.041534
0.900574 0.000000 0.044861
0.930725 0.000000 0.048248
0.960876 0.000000 0.051727
0.000000 0.021606 0.015137
0.000183 0.023315 0.013123
0.024078 0.022827 0.000000
0.061523 0.022430 0.000000
0.099304 0.022034 0.000000
0.134338 0.021606 0.000000
0.167877 0.020935 0.000000
0.200378 0.020294 0.000000
0.232208 0.019653 0.000000
0.263824 0.018799 0.000000
0.295044 0.017944 0.000000
0.326141 0.016937 0.000000
0.357147 0.015747 0.000031
0.387970 0.014618 0.000122
0.418732 0.013245 0.000183
0.449432 0.011871 0.000305
0.480072 0.010376 0.000397
0.510681 0.008728 0.000519
0.541290 0.006744 0.000641
0.571838 0.004791 0.000763
0.602325 0.002808 0.000885
0.632782 0.000824 0.001312
0.662964 0.000000 0.002808
0.692963 0.000000 0.005493
0.722961 0.000000 0.008423
0.752960 0.000000 0.011230
0.782990 0.000000 0.014618
0.813019 0.000000 0.017883
0.843048 0.000000 0.020905
0.873077 0.000000 0.024841
0.903137 0.000000 0.028625
0.933167 0.000000 0.032471
0.963226 0.000000 0.036499
0.000000 0.056610 0.041595
0.000000 0.057953 0.040131
0.000793 0.062439 0.028870
0.061676 0.059204 0.000000
0.100220 0.058563 0.000000
0.135162 0.058136 0.000000
0.168579 0.057617 0.000000
0.200958 0.057129 0.000000
0.232819 0.056519 0.000000
0.264252 0.055878 0.000000
0.295532 0.055115 0.000000
0.326630 0.054260 0.000000
0.357605 0.053253 0.000000
0.388428 0.052216 0.000000
0.419189 0.051056 0.000000
0.449890 0.049805 0.000000
0.480530 0.048462 0.000000
0.511169 0.046783 0.000000
0.541748 0.045105 0.000000
0.572296 0.043274 0.000000
0.602844 0.041138 0.000000
0.633362 0.038849 0.000000
0.663818 0.036682 0.000092
0.694214 0.034393 0.000336
0.724640 0.031799 0.000610
0.755035 0.029144 0.000885
0.785461 0.026184 0.001221
0.815857 0.023254 0.001526
0.846283 0.020020 0.001801
0.876617 0.016998 0.002197
0.907074 0.013153 0.002563
0.937439 0.009552 0.002930
0.967804 0.005859 0.003326
0.000000 0.093201 0.072784
0.000000 0.094116 0.071777
0.000000 0.097198 0.067261
0.006439 0.104065 0.032288
0.100067 0.096710 0.000000
0.135956 0.096039 0.000000
0.169312 0.095642 0.000000
0.201691 0.095215 0.000000
0.233490 0.094757 0.000000
0.264923 0.094299 0.000000
0.296082 0.093781 0.000000
0.327118 0.093170 0.000000
0.358063 0.092468 0.000000
0.388947 0.091644 0.000000
0.419678 0.090881 0.000000
0.450348 0.089996 0.000000
0.480957 0.089050 0.000000
0.511597 0.087952 0.000000
0.542175 0.086761 0.000000
0.572693 0.085602 0.000000
0.603210 0.084259 0.000000
0.633728 0.082764 0.000000
0.664185 0.081299 0.000000
0.694580 0.079773 0.000000
0.725037 0.077942 0.000000
0.755524 0.075958 0.000000
0.785980 0.073853 0.000000
0.816345 0.071838 0.000000
0.846832 0.069397 0.000000
0.877228 0.066864 0.000000
0.907623 0.064270 0.000000
0.938019 0.061554 0.000000
0.968414 0.058563 0.000000
0.000000 0.127136 0.102081
0.000000 0.127838 0.101288
0.000000 0.130127 0.098633
0.000305 0.135590 0.084930
0.027039 0.142242 0.018799
0.135590 0.131470 0.000000
0.169983 0.130768 0.000000
0.202454 0.130371 0.000000
0.234222 0.129974 0.000000
0.265686 0.129547 0.000000
0.296906 0.129089 0.000000
0.327759 0.128693 0.000000
0.358582 0.128235 0.000000
0.389435 0.127625 0.000000
0.420197 0.126953 0.000000
0.450836 0.126282 0.000000
0.481476 0.125519 0.000000
0.512054 0.124725 0.000000
0.542603 0.123871 0.000000
0.573120 0.122986 0.000000
0.603607 0.122070 0.000000
0.634064 0.121063 0.000000
0.664520 0.119965 0.000000
0.694977 0.118805 0.000000
0.725433 0.117554 0.000000
0.755829 0.116272 0.000000
0.786255 0.114868 0.000000
0.816681 0.113403 0.000000
0.847137 0.111694 0.000000
0.877502 0.110077 0.000000
0.907928 0.108215 0.000000
0.938354 0.106262 0.000000
0.968658 0.104492 0.000000
0.000000 0.159485 0.129944
0.000000 0.160034 0.129333
0.000000 0.161835 0.127350
0.000000 0.166046 0.120392
0.001709 0.173096 0.091461
0.075836 0.175018 0.024933
0.169403 0.164551 0.000000
0.203003 0.163818 0.000000
0.234955 0.163422 0.000000
0.266388 0.163025 0.000000
0.297516 0.162659 0.000000
0.328552 0.162201 0.000000
0.359375 0.161774 0.000000
0.390076 0.161377 0.000000
0.420685 0.160919 0.000000
0.451294 0.160400 0.000000
0.481934 0.159760 0.000000
0.512543 0.159088 0.000000
0.543060 0.158417 0.000000
0.573547 0.157715 0.000000
0.604065 0.156891 0.000000
0.634552 0.156067 0.000000
0.665009 0.155182 0.000000
0.695435 0.154297 0.000000
0.725830 0.153351 0.000000
0.756256 0.152344 0.000000
0.786652 0.151276 0.000000
0.817078 0.150085 0.000000
0.847443 0.148926 0.000000
0.877838 0.147675 0.000000
0.908234 0.146332 0.000000
0.938629 0.144897 0.000000
0.969025 0.143341 0.000000
0.000000 0.190887 0.157043
0.000000 0.191345 0.156525
0.000000 0.192841 0.154907
0.000000 0.196289 0.150269
0.000000 0.201874 0.136169
0.014893 0.208740 0.093414
0.118378 0.206696 0.033112
0.202271 0.196716 0.000000
0.235443 0.195953 0.000000
0.267090 0.195557 0.000000
0.298279 0.195160 0.000000
0.329224 0.194794 0.000000
0.360077 0.194366 0.000000
0.390839 0.193939 0.000000
0.421448 0.193512 0.000000
0.451965 0.193146 0.000000
0.482422 0.192719 0.000000
0.512970 0.192200 0.000000
0.543518 0.191589 0.000000
0.574005 0.190979 0.000000
0.604492 0.190308 0.000000
0.635010 0.189575 0.000000
0.665466 0.188812 0.000000
0.695892 0.188049 0.000000
0.726288 0.187286 0.000000
0.756683 0.186432 0.000000
0.787109 0.185516 0.000000
0.817505 0.184540 0.000000
0.847900 0.183594 0.000000
0.878235 0.182617 0.000000
0.908600 0.181549 0.000000
0.938965 0.180450 0.000000
0.969360 0.179230 0.000000
0.000000 0.221771 0.183624
0.000000 0.222168 0.183228
0.000000 0.223419 0.181793
0.000000 0.226318 0.178345
0.000000 0.230865 0.170044
0.001160 0.237244 0.146881
0.034485 0.243622 0.088470
0.155609 0.238068 0.039948
0.234558 0.228302 0.000000
0.267456 0.227539 0.000000
0.298920 0.227081 0.000000
0.329956 0.226715 0.000000
0.360779 0.226349 0.000000
0.391449 0.225983 0.000000
0.422150 0.225555 0.000000
0.452759 0.225098 0.000000
0.483246 0.224701 0.000000
0.513672 0.224304 0.000000
0.544037 0.223877 0.000000
0.574493 0.223389 0.000000
0.604950 0.222809 0.000000
0.635406 0.222198 0.000000
0.665863 0.221558 0.000000
0.696289 0.220886 0.000000
0.726715 0.220215 0.000000
0.757111 0.219482 0.000000
0.787506 0.218689 0.000000
0.817902 0.217896 0.000000
0.848328 0.216980 0.000000
0.878723 0.216095 0.000000
0.909027 0.215271 0.000000
0.939392 0.214325 0.000000
0.969788 0.213257 0.000000
0.000000 0.252289 0.209930
0.000000 0.252594 0.209595
0.000000 0.253723 0.208344
0.000000 0.256195 0.205566
0.000000 0.260071 0.199677
0.000000 0.265350 0.186371
0.003052 0.272339 0.152893
0.055695 0.278320 0.071503
0.192383 0.268829 0.044098
0.266479 0.259521 0.000000
0.299225 0.258728 0.000000
0.330536 0.258270 0.000000
0.361450 0.257904 0.000000
0.392212 0.257507 0.000000
0.422791 0.257172 0.000000
0.453369 0.256775 0.000000
0.483978 0.256317 0.000000
0.514465 0.255890 0.000000
0.544861 0.255493 0.000000
0.575195 0.255096 0.000000
0.605530 0.254700 0.000000
0.635895 0.254211 0.000000
0.666321 0.253662 0.000000
0.696747 0.253082 0.000000
0.727142 0.252441 0.000000
0.757568 0.251770 0.000000
0.787964 0.251099 0.000000
0.818329 0.250397 0.000000
0.848755 0.249634 0.000000
0.879089 0.248901 0.000000
0.909454 0.248108 0.000000
0.939819 0.247284 0.000000
0.970184 0.246368 0.000000
0.000000 0.282532 0.236023
0.000000 0.282806 0.235718
0.000000 0.283783 0.234619
0.000000 0.285980 0.232269
0.000000 0.289337 0.227753
0.000000 0.293823 0.219116
0.000000 0.299744 0.199280
0.016144 0.306763 0.154480
0.099121 0.310455 0.068176
0.227997 0.299347 0.045837
0.298126 0.290497 0.000000
0.330780 0.289673 0.000000
0.362000 0.289215 0.000000
0.392853 0.288818 0.000000
0.423523 0.288452 0.000000
0.454102 0.288086 0.000000
0.484558 0.287720 0.000000
0.515076 0.287292 0.000000
0.545563 0.286835 0.000000
0.575989 0.286407 0.000000
0.606323 0.286041 0.000000
0.636597 0.285645 0.000000
0.666931 0.285217 0.000000
0.697235 0.284760 0.000000
0.727600 0.284241 0.000000
0.758026 0.283630 0.000000
0.788422 0.283020 0.000000
0.818787 0.282379 0.000000
0.849152 0.281738 0.000000
0.879486 0.281067 0.000000
0.909851 0.280365 0.000000
0.940277 0.279572 0.000000
0.970612 0.278809 0.000000
0.000000 0.312592 0.261963
0.000000 0.312836 0.261688
0.000000 0.313690 0.260712
0.000000 0.315643 0.258606
0.000000 0.318634 0.254974
0.000000 0.322540 0.248596
0.000000 0.327576 0.236115
0.002014 0.334015 0.209229
0.042358 0.340454 0.154968
0.147034 0.340973 0.077637
0.262299 0.329834 0.045349
0.329590 0.321289 0.000000
0.362183 0.320435 0.000000
0.393341 0.319946 0.000000
0.424133 0.319550 0.000000
0.454773 0.319183 0.000000
0.485321 0.318787 0.000000
0.515747 0.318451 0.000000
0.546173 0.318054 0.000000
0.576630 0.317627 0.000000
0.607025 0.317200 0.000000
0.637390 0.316772 0.000000
0.667725 0.316376 0.000000
0.697968 0.316010 0.000000
0.728210 0.315582 0.000000
0.758484 0.315155 0.000000
0.788849 0.314606 0.000000
0.819275 0.313995 0.000000
0.849609 0.313446 0.000000
0.879944 0.312836 0.000000
0.910278 0.312195 0.000000
0.940674 0.311493 0.000000
0.971069 0.310760 0.000000
0.000000 0.342499 0.287750
0.000000 0.342743 0.287506
0.000000 0.343506 0.286652
0.000000 0.345276 0.284760
0.000000 0.347931 0.281708
0.000000 0.351410 0.276672
0.000000 0.355774 0.268005
0.000000 0.361389 0.250427
0.005402 0.368256 0.216034
0.069427 0.373962 0.152313
0.189636 0.371216 0.088623
0.295837 0.360229 0.042664
0.360901 0.351898 0.000000
0.393463 0.351044 0.000000
0.424591 0.350555 0.000000
0.455383 0.350128 0.000000
0.485931 0.349762 0.000000
0.516449 0.349396 0.000000
0.546875 0.349030 0.000000
0.577240 0.348694 0.000000
0.607635 0.348267 0.000000
0.638062 0.347839 0.000000
0.668457 0.347382 0.000000
0.698792 0.346954 0.000000
0.729004 0.346588 0.000000
0.759247 0.346191 0.000000
0.789490 0.345795 0.000000
0.819763 0.345306 0.000000
0.850037 0.344849 0.000000
0.880402 0.344269 0.000000
0.910767 0.343689 0.000000
0.941101 0.343079 0.000000
0.971466 0.342438 0.000000
0.000000 0.372314 0.313477
0.000000 0.372528 0.313263
0.000000 0.373230 0.312469
0.000000 0.374817 0.310699
0.000000 0.377228 0.308105
0.000000 0.380341 0.303986
0.000000 0.384247 0.297333
0.000000 0.389130 0.285522
0.000000 0.395264 0.262390
0.017365 0.402222 0.220001
0.093109 0.407532 0.143494
0.228241 0.401459 0.098145
0.328827 0.390594 0.037415
0.392090 0.382446 0.000000
0.424652 0.381561 0.000000
0.455780 0.381042 0.000000
0.486542 0.380615 0.000000
0.517090 0.380249 0.000000
0.547577 0.379852 0.000000
0.578003 0.379486 0.000000
0.608307 0.379150 0.000000
0.638641 0.378784 0.000000
0.669006 0.378387 0.000000
0.699432 0.377899 0.000000
0.729797 0.377472 0.000000
0.760071 0.377045 0.000000
0.790314 0.376678 0.000000
0.820496 0.376282 0.000000
0.850677 0.375916 0.000000
0.880951 0.375458 0.000000
0.911224 0.374969 0.000000
0.941559 0.374420 0.000000
0.971924 0.373810 0.000000
0.000000 0.402069 0.339142
0.000000 0.402252 0.338928
0.000000 0.402893 0.338226
0.000000 0.404358 0.336548
0.000000 0.406525 0.334259
0.000000 0.409363 0.330780
0.000000 0.412903 0.325378
0.000000 0.417206 0.316772
0.000000 0.422577 0.300812
0.002319 0.429108 0.272125
0.043243 0.435791 0.221008
0.114105 0.441223 0.124634
0.264557 0.431732 0.106354
0.361420 0.420929 0.029510
0.423218 0.412872 0.000000
0.455780 0.411987 0.000000
0.486908 0.411469 0.000000
0.517670 0.411041 0.000000
0.548187 0.410645 0.000000
0.578674 0.410248 0.000000
0.609070 0.409882 0.000000
0.639374 0.409546 0.000000
0.669647 0.409210 0.000000
0.700012 0.408813 0.000000
0.730377 0.408356 0.000000
0.760742 0.407898 0.000000
0.791046 0.407471 0.000000
0.821320 0.407074 0.000000
0.851501 0.406708 0.000000
0.881653 0.406342 0.000000
0.911865 0.405945 0.000000
0.942108 0.405487 0.000000
0.972412 0.404968 0.000000
0.000000 0.431763 0.364716
0.000000 0.431915 0.364532
0.000000 0.432495 0.363892
0.000000 0.433838 0.362366
0.000000 0.435852 0.360260
0.000000 0.438416 0.357269
0.000000 0.441650 0.352753
0.000000 0.445557 0.345947
0.000000 0.450287 0.334717
0.000000 0.456116 0.314178
0.007599 0.462921 0.279480
0.071533 0.469269 0.217773
0.154449 0.472931 0.120392
0.299408 0.462006 0.113464
0.393707 0.451233 0.019012
0.454254 0.443268 0.000000
0.486847 0.442322 0.000000
0.517975 0.441803 0.000000
0.548706 0.441376 0.000000
0.579254 0.440979 0.000000
0.609680 0.440613 0.000000
0.640076 0.440247 0.000000
0.670410 0.439880 0.000000
0.700684 0.439514 0.000000
0.730957 0.439148 0.000000
0.761292 0.438751 0.000000
0.791656 0.438293 0.000000
0.821991 0.437836 0.000000
0.852295 0.437408 0.000000
0.882507 0.437012 0.000000
0.912689 0.436646 0.000000
0.942871 0.436279 0.000000
0.973022 0.435883 0.000000
0.000000 0.461365 0.390259
0.000000 0.461548 0.390106
0.000000 0.462067 0.389526
0.000000 0.463287 0.388123
0.000000 0.465149 0.386139
0.000000 0.467529 0.383484
0.000000 0.470459 0.379669
0.000000 0.474030 0.373993
0.000000 0.478302 0.365479
0.000000 0.483490 0.350739
0.000000 0.489746 0.325653
0.015747 0.496735 0.284546
0.100769 0.502350 0.215973
0.204742 0.503021 0.131287
0.333252 0.492279 0.119598
0.425781 0.481476 0.006561
0.485260 0.473572 0.000000
0.517883 0.472626 0.000000
0.549011 0.472107 0.000000
0.579742 0.471649 0.000000
0.610291 0.471252 0.000000
0.640686 0.470886 0.000000
0.671082 0.470520 0.000000
0.701416 0.470123 0.000000
0.731689 0.469788 0.000000
0.761932 0.469452 0.000000
0.792236 0.469055 0.000000
0.822540 0.468628 0.000000
0.852905 0.468170 0.000000
0.883209 0.467743 0.000000
0.913483 0.467316 0.000000
0.943695 0.466919 0.000000
0.973816 0.466553 0.000000
0.000000 0.490936 0.415771
0.000000 0.491119 0.415619
0.000000 0.491608 0.415070
0.000000 0.492737 0.413788
0.000000 0.494446 0.411926
0.000000 0.496643 0.409576
0.000000 0.499359 0.406219
0.000000 0.502655 0.401428
0.000000 0.506561 0.394470
0.000000 0.511200 0.383759
0.000000 0.516785 0.365051
0.001373 0.523407 0.335266
0.041534 0.530151 0.287628
0.126495 0.535400 0.211304
0.249817 0.532928 0.143646
0.367371 0.522400 0.124512
0.457764 0.511627 0.000000
0.516205 0.503876 0.000000
0.548859 0.502899 0.000000
0.579987 0.502350 0.000000
0.610748 0.501892 0.000000
0.641296 0.501495 0.000000
0.671692 0.501129 0.000000
0.702087 0.500732 0.000000
0.732422 0.500366 0.000000
0.762695 0.500000 0.000000
0.792908 0.499664 0.000000
0.823120 0.499329 0.000000
0.853424 0.498901 0.000000
0.883759 0.498474 0.000000
0.914124 0.498016 0.000000
0.944427 0.497559 0.000000
0.974640 0.497162 0.000000
0.000000 0.520508 0.441254
0.000000 0.520630 0.441101
0.000000 0.521088 0.440613
0.000000 0.522156 0.439423
0.000000 0.523773 0.437622
0.000000 0.525787 0.435486
0.000000 0.528320 0.432556
0.000000 0.531342 0.428406
0.000000 0.534943 0.422546
0.000000 0.539185 0.414154
0.000000 0.544220 0.400360
0.000000 0.550201 0.377838
0.009155 0.557007 0.343079
0.075348 0.563354 0.288422
0.149597 0.568573 0.201019
0.290985 0.562836 0.154846
0.402161 0.552246 0.128967
0.489655 0.541687 0.000000
0.547119 0.534119 0.000000
0.579803 0.533142 0.000000
0.610962 0.532562 0.000000
0.641724 0.532104 0.000000
0.672272 0.531708 0.000000
0.702667 0.531311 0.000000
0.733063 0.530945 0.000000
0.763367 0.530579 0.000000
0.793671 0.530212 0.000000
0.823883 0.529846 0.000000
0.854095 0.529510 0.000000
0.884369 0.529144 0.000000
0.914642 0.528717 0.000000
0.945007 0.528259 0.000000
0.975311 0.527802 0.000000
0.000000 0.550049 0.466705
0.000000 0.550140 0.466553
0.000000 0.550568 0.466095
0.000000 0.551544 0.464996
0.000000 0.553070 0.463257
0.000000 0.554962 0.461304
0.000000 0.557312 0.458710
0.000000 0.560120 0.455078
0.000000 0.563477 0.450012
0.000000 0.567383 0.442993
0.000000 0.571930 0.432617
0.000000 0.577362 0.415375
0.000000 0.583710 0.389038
0.015503 0.590698 0.348816
0.103363 0.596649 0.285797
0.170929 0.601868 0.182861
0.329742 0.592743 0.165070
0.436737 0.582062 0.132294
0.521362 0.571747 0.000000
0.578003 0.564331 0.000000
0.610718 0.563324 0.000000
0.641876 0.562775 0.000000
0.672668 0.562286 0.000000
0.703217 0.561859 0.000000
0.733643 0.561493 0.000000
0.763977 0.561127 0.000000
0.794312 0.560730 0.000000
0.824615 0.560364 0.000000
0.854858 0.560028 0.000000
0.885071 0.559662 0.000000
0.915253 0.559326 0.000000
0.945557 0.558899 0.000000
0.975861 0.558502 0.000000
0.000000 0.579529 0.492126
0.000000 0.579651 0.492004
0.000000 0.580017 0.491577
0.000000 0.580963 0.490570
0.000000 0.582367 0.488892
0.000000 0.584137 0.487061
0.000000 0.586334 0.484711
0.000000 0.588959 0.481476
0.000000 0.592072 0.477081
0.000000 0.595703 0.471039
0.000000 0.599915 0.462738
0.000000 0.604828 0.449707
0.000000 0.610596 0.429108
0.000000 0.617310 0.398560
0.036621 0.624115 0.352997
0.127380 0.630035 0.279236
0.205750 0.633850 0.173462
0.366760 0.622711 0.174500
0.470764 0.611908 0.134613
0.552979 0.601776 0.000000
0.608856 0.594513 0.000000
0.641632 0.593506 0.000000
0.672791 0.592926 0.000000
0.703583 0.592438 0.000000
0.734161 0.592010 0.000000
0.764587 0.591644 0.000000
0.794922 0.591278 0.000000
0.825287 0.590881 0.000000
0.855560 0.590515 0.000000
0.885803 0.590149 0.000000
0.916046 0.589813 0.000000
0.946228 0.589447 0.000000
0.976440 0.589081 0.000000
0.000000 0.608978 0.517548
0.000000 0.609100 0.517426
0.000000 0.609467 0.517029
0.000000 0.610321 0.516052
0.000000 0.611664 0.514526
0.000000 0.613342 0.512756
0.000000 0.615387 0.510590
0.000000 0.617859 0.507690
0.000000 0.620758 0.503815
0.000000 0.624146 0.498566
0.000000 0.628082 0.491455
0.000000 0.632568 0.481384
0.000000 0.637848 0.465363
0.000000 0.643951 0.441498
0.009308 0.650787 0.406708
0.073975 0.657227 0.355713
0.155212 0.662903 0.275726
0.257294 0.663910 0.183380
0.402557 0.652710 0.183136
0.504303 0.641785 0.135925
0.584473 0.631805 0.000000
0.639709 0.624695 0.000000
0.672485 0.623657 0.000000
0.703705 0.623077 0.000000
0.734497 0.622589 0.000000
0.765076 0.622162 0.000000
0.795532 0.621765 0.000000
0.825867 0.621399 0.000000
0.856201 0.621002 0.000000
0.886505 0.620636 0.000000
0.916779 0.620270 0.000000
0.946991 0.619904 0.000000
0.977173 0.619568 0.000000
0.000000 0.638428 0.542938
0.000000 0.638550 0.542816
0.000000 0.638885 0.542450
0.000000 0.639709 0.541565
0.000000 0.640961 0.540131
0.000000 0.642548 0.538391
0.000000 0.644470 0.536407
0.000000 0.646790 0.533783
0.000000 0.649506 0.530304
0.000000 0.652679 0.525696
0.000000 0.656342 0.519501
0.000000 0.660522 0.511230
0.000000 0.665375 0.498871
0.000000 0.670959 0.479797
0.000000 0.677368 0.452515
0.018341 0.684296 0.413147
0.107208 0.690338 0.356171
0.181061 0.695740 0.270172
0.305176 0.693665 0.196381
0.437408 0.682739 0.191040
0.537537 0.671692 0.136322
0.615875 0.661835 0.000000
0.670502 0.654846 0.000000
0.703369 0.653778 0.000000
0.734558 0.653198 0.000000
0.765381 0.652710 0.000000
0.795990 0.652252 0.000000
0.826447 0.651855 0.000000
0.856781 0.651489 0.000000
0.887085 0.651123 0.000000
0.917389 0.650726 0.000000
0.947693 0.650360 0.000000
0.977905 0.650024 0.000000
0.000000 0.667877 0.568329
0.000000 0.667969 0.568207
0.000000 0.668304 0.567871
0.000000 0.669067 0.567017
0.000000 0.670258 0.565674
0.000000 0.671753 0.563995
0.000000 0.673553 0.562134
0.000000 0.675751 0.559723
0.000000 0.678314 0.556610
0.000000 0.681305 0.552490
0.000000 0.684753 0.547089
0.000000 0.688660 0.539917
0.000000 0.693115 0.530090
0.000000 0.698273 0.515076
0.000000 0.704163 0.493103
0.000000 0.710876 0.462067
0.033203 0.717773 0.418030
0.134338 0.723511 0.354095
0.204865 0.728668 0.259766
0.348694 0.723480 0.208557
0.471527 0.712799 0.198303
0.570465 0.701599 0.135742
0.647217 0.691864 0.000000
0.701294 0.684967 0.000000
0.734222 0.683899 0.000000
0.765442 0.683289 0.000000
0.796265 0.682800 0.000000
0.826874 0.682343 0.000000
0.857330 0.681946 0.000000
0.887695 0.681580 0.000000
0.917969 0.681213 0.000000
0.948303 0.680817 0.000000
0.978607 0.680450 0.000000
0.000000 0.697296 0.593689
0.000000 0.697388 0.593597
0.000000 0.697723 0.593262
0.000000 0.698425 0.592468
0.000000 0.699554 0.591217
0.000000 0.700958 0.589539
0.000000 0.702698 0.587799
0.000000 0.704742 0.585602
0.000000 0.707184 0.582764
0.000000 0.709991 0.579071
0.000000 0.713226 0.574249
0.000000 0.716919 0.567963
0.000000 0.721069 0.559753
0.000000 0.725830 0.547913
0.000000 0.731293 0.530060
0.000000 0.737488 0.505188
0.007141 0.744354 0.470337
0.066345 0.750946 0.421722
0.158417 0.756805 0.348694
0.227081 0.761719 0.242767
0.389496 0.753296 0.219971
0.505096 0.742859 0.205017
0.603180 0.731537 0.134186
0.678467 0.721863 0.000000
0.732086 0.715088 0.000000
0.765045 0.714020 0.000000
0.796295 0.713409 0.000000
0.827148 0.712891 0.000000
0.857758 0.712433 0.000000
0.888245 0.712036 0.000000
0.918610 0.711639 0.000000
0.948883 0.711273 0.000000
0.979126 0.710846 0.000000
0.000000 0.726715 0.619049
0.000000 0.726807 0.618958
0.000000 0.727112 0.618652
0.000000 0.727783 0.617889
0.000000 0.728851 0.616730
0.000000 0.730194 0.615143
0.000000 0.731842 0.613434
0.000000 0.733765 0.611389
0.000000 0.736084 0.608795
0.000000 0.738739 0.605438
0.000000 0.741791 0.601105
0.000000 0.745270 0.595551
0.000000 0.749176 0.588348
0.000000 0.753601 0.578796
0.000000 0.758636 0.564575
0.000000 0.764404 0.544067
0.000000 0.770874 0.516052
0.020081 0.777771 0.477264
0.107117 0.783936 0.423920
0.180359 0.790131 0.339691
0.256134 0.794128 0.228058
0.428314 0.783173 0.230682
0.538177 0.772949 0.211121
0.635712 0.761475 0.131531
0.709686 0.751892 0.000000
0.762848 0.745209 0.000000
0.795868 0.744110 0.000000
0.827118 0.743500 0.000000
0.857971 0.742981 0.000000
0.888550 0.742462 0.000000
0.918884 0.741913 0.000000
0.949127 0.741394 0.000000
0.978973 0.740692 0.000000
0.000000 0.756104 0.644409
0.000000 0.756195 0.644318
0.000000 0.756500 0.644012
0.000000 0.757141 0.643311
0.000000 0.758148 0.642181
0.000000 0.759430 0.640717
0.000000 0.760986 0.639008
0.000000 0.762817 0.637115
0.000000 0.765015 0.634705
0.000000 0.767548 0.631653
0.000000 0.770416 0.627747
0.000000 0.773712 0.622772
0.000000 0.777405 0.616394
0.000000 0.781555 0.608215
0.000000 0.786224 0.596863
0.000000 0.791565 0.580048
0.000000 0.797577 0.557007
0.000000 0.804321 0.525604
0.030304 0.811218 0.482727
0.138153 0.817017 0.424164
0.207886 0.822906 0.334625
0.306763 0.824402 0.234924
0.465729 0.813049 0.240784
0.571411 0.802979 0.216461
0.668030 0.791412 0.127777
