cube滤镜(3D LUT)/Larimar.cube
# Created by: Lutify.me
# Copyright: (c) Copyright Lutify.me 2015
# Website: https://lutify.me
#LUT size
LUT_3D_SIZE 9
#LUT data points
0.000000 0.000000 0.000000
0.097687 0.000000 0.000641
0.229706 0.000000 0.002747
0.353760 0.000000 0.006531
0.475952 0.000000 0.012238
0.597443 0.000000 0.020050
0.718536 0.000000 0.030151
0.839478 0.000000 0.042633
0.960175 0.000000 0.055817
0.000000 0.093201 0.072784
0.100067 0.096710 0.000000
0.233490 0.094757 0.000000
0.358063 0.092468 0.000000
0.480957 0.089050 0.000000
0.603210 0.084259 0.000000
0.725037 0.077942 0.000000
0.846832 0.069397 0.000000
0.968414 0.058563 0.000000
0.000000 0.221771 0.183624
0.000000 0.230865 0.170044
0.234558 0.228302 0.000000
0.360779 0.226349 0.000000
0.483246 0.224701 0.000000
0.604950 0.222809 0.000000
0.726715 0.220215 0.000000
0.848328 0.216980 0.000000
0.969788 0.213257 0.000000
0.000000 0.342499 0.287750
0.000000 0.347931 0.281708
0.005402 0.368256 0.216034
0.360901 0.351898 0.000000
0.485931 0.349762 0.000000
0.607635 0.348267 0.000000
0.729004 0.346588 0.000000
0.850037 0.344849 0.000000
0.971466 0.342438 0.000000
0.000000 0.461365 0.390259
0.000000 0.465149 0.386139
0.000000 0.478302 0.365479
0.100769 0.502350 0.215973
0.485260 0.473572 0.000000
0.610291 0.471252 0.000000
0.731689 0.469788 0.000000
0.852905 0.468170 0.000000
0.973816 0.466553 0.000000
0.000000 0.579529 0.492126
0.000000 0.582367 0.488892
0.000000 0.592072 0.477081
0.000000 0.610596 0.429108
0.205750 0.633850 0.173462
0.608856 0.594513 0.000000
0.734161 0.592010 0.000000
0.855560 0.590515 0.000000
0.976440 0.589081 0.000000
0.000000 0.697296 0.593689
0.000000 0.699554 0.591217
0.000000 0.707184 0.582764
0.000000 0.721069 0.559753
0.007141 0.744354 0.470337
0.389496 0.753296 0.219971
0.732086 0.715088 0.000000
0.857758 0.712433 0.000000
0.979126 0.710846 0.000000
0.000000 0.814911 0.695099
0.000000 0.816711 0.693085
0.000000 0.822968 0.686340
0.000000 0.834137 0.671265
0.000000 0.851776 0.629730
0.102631 0.877319 0.490295
0.537140 0.871155 0.258392
0.851440 0.831848 0.000000
0.973541 0.826141 0.000000
0.000000 0.926849 0.791626
0.000000 0.928223 0.789856
0.000000 0.932953 0.783691
0.000000 0.941223 0.772003
0.000000 0.953735 0.746368
0.000000 0.971954 0.676056
0.317810 0.984283 0.522034
0.658600 0.968140 0.282806
0.943481 0.921936 0.000000
0.000000 0.011200 0.015228
0.086700 0.006927 0.093048
0.229919 0.000000 0.096588
0.353943 0.000000 0.098206
0.476074 0.000000 0.101074
0.597565 0.000000 0.104828
0.718597 0.000000 0.109619
0.839539 0.000000 0.115204
0.960266 0.000000 0.121765
0.000000 0.097626 0.096252
0.097473 0.097473 0.097473
0.263763 0.068878 0.072845
0.407959 0.000000 0.012238
0.515137 0.000000 0.017303
0.627380 0.000000 0.024872
0.742371 0.000000 0.034821
0.859009 0.000000 0.046875
0.976685 0.000000 0.059357
0.000000 0.223541 0.195831
0.043030 0.231079 0.166412
0.232239 0.229950 0.071930
0.378906 0.219330 0.000000
0.504425 0.210754 0.000000
0.625366 0.203857 0.000000
0.745026 0.197906 0.000000
0.864441 0.192261 0.000000
0.983978 0.186523 0.000000
0.000000 0.343506 0.296021
0.000000 0.349823 0.278503
0.068054 0.367279 0.214844
0.360687 0.353546 0.003052
0.494263 0.347656 0.000000
0.618866 0.343109 0.000000
0.741028 0.338928 0.000000
0.862091 0.335022 0.000000
0.982849 0.331024 0.000000
0.000000 0.462036 0.396332
0.000000 0.466400 0.384827
0.000000 0.479828 0.359802
0.137848 0.501282 0.214966
0.485626 0.474609 0.000000
0.614960 0.470459 0.000000
0.738495 0.467316 0.000000
0.860779 0.464203 0.000000
0.982025 0.461334 0.000000
0.000000 0.580017 0.496887
0.000000 0.583252 0.488525
0.000000 0.593170 0.473724
0.000000 0.611664 0.425446
0.231628 0.632294 0.189178
0.609619 0.595123 0.000000
0.737213 0.591675 0.000000
0.860199 0.589142 0.000000
0.981934 0.586761 0.000000
0.000000 0.697662 0.597626
0.000000 0.700256 0.591095
0.000000 0.708008 0.580719
0.000000 0.722046 0.555328
0.024628 0.744781 0.467346
0.398529 0.752411 0.234558
0.733124 0.715454 0.000000
0.859894 0.712311 0.000000
0.982422 0.709991 0.000000
0.000000 0.815186 0.698456
0.000000 0.817291 0.693115
0.000000 0.823608 0.685150
0.000000 0.834930 0.668121
0.000000 0.852448 0.627594
0.141693 0.876831 0.488525
0.542847 0.870453 0.269897
0.852509 0.832031 0.000000
0.975037 0.826050 0.000000
0.000000 0.927032 0.794525
0.000000 0.928650 0.789856
0.000000 0.933411 0.783112
0.000000 0.941833 0.769501
0.000000 0.954315 0.743439
0.000000 0.972412 0.674194
0.348877 0.982025 0.529327
0.665680 0.966553 0.308197
0.944244 0.921967 0.000000
0.000000 0.048981 0.063324
0.000000 0.072205 0.099304
0.209656 0.030914 0.221527
0.354431 0.000000 0.227783
0.476593 0.000000 0.228058
0.597961 0.000000 0.229218
0.718933 0.000000 0.231262
0.839813 0.000000 0.233856
0.960480 0.000000 0.237061
0.000000 0.114624 0.131409
0.023987 0.124725 0.153015
0.224457 0.101013 0.230865
0.401733 0.000000 0.240906
0.512909 0.000000 0.223724
0.626465 0.000000 0.216827
0.742004 0.000000 0.214508
0.858887 0.000000 0.214691
0.976654 0.000000 0.216461
0.000000 0.230011 0.227448
0.003601 0.237396 0.228668
0.229767 0.229767 0.229767
0.378357 0.217651 0.220642
0.539337 0.177917 0.185455
0.704529 0.057495 0.088287
0.817780 0.000000 0.053558
0.922424 0.000000 0.062012
1.000000 0.147125 0.170868
0.000000 0.347473 0.316742
0.000000 0.352783 0.311401
0.196747 0.356750 0.269318
0.354736 0.354614 0.215149
0.507599 0.342987 0.166595
0.662140 0.318817 0.052002
0.791687 0.299896 0.000000
0.909943 0.288208 0.000000
1.000000 0.311890 0.155273
0.000000 0.464661 0.412964
0.000000 0.468658 0.406067
0.125244 0.478821 0.357819
0.219147 0.496307 0.250427
0.480896 0.476654 0.182953
0.631653 0.466644 0.055511
0.766022 0.456055 0.000000
0.891296 0.447235 0.000000
1.000000 0.448975 0.124207
0.000000 0.581879 0.510437
0.000000 0.585022 0.503723
0.000000 0.596436 0.469513
0.125000 0.611237 0.417542
0.297577 0.626862 0.244263
0.607422 0.597656 0.108398
0.748993 0.589905 0.000000
0.877594 0.583496 0.000000
0.999451 0.578918 0.056396
0.000000 0.699127 0.608795
0.000000 0.701630 0.603210
0.000000 0.710663 0.576813
0.000000 0.724731 0.549713
0.162964 0.743011 0.466553
0.431671 0.748810 0.277344
0.731781 0.718170 0.000000
0.867828 0.711578 0.000000
0.994568 0.706696 0.000000
0.000000 0.816345 0.707825
0.000000 0.818420 0.703125
0.000000 0.825745 0.682678
0.000000 0.837067 0.665039
0.000000 0.854889 0.618347
0.225067 0.875122 0.484100
0.563141 0.867798 0.307434
0.851593 0.834045 0.000000
0.980530 0.825623 0.000000
0.000000 0.927826 0.802368
0.000000 0.929413 0.798218
0.000000 0.934967 0.781403
0.000000 0.943359 0.767548
0.000000 0.956146 0.736176
0.014648 0.973938 0.665741
0.429688 0.974884 0.551025
0.691376 0.961212 0.364532
0.943604 0.922974 0.000000
0.000000 0.094116 0.114655
0.000000 0.109650 0.136749
0.003296 0.147369 0.223633
0.325073 0.067108 0.342133
0.476990 0.000000 0.351227
0.598389 0.000000 0.351135
0.719391 0.000000 0.351624
0.840210 0.000000 0.352661
0.960876 0.000000 0.354431
0.000000 0.141571 0.165039
0.000000 0.152069 0.184082
0.044373 0.177399 0.255585
0.336639 0.117432 0.350098
0.509186 0.000000 0.367432
0.624878 0.000000 0.356018
0.741333 0.000000 0.350098
0.858643 0.000000 0.347382
0.976593 0.000000 0.346741
0.000000 0.242249 0.263977
0.000000 0.248627 0.272705
0.161896 0.254395 0.292664
0.352692 0.229767 0.357727
0.531464 0.177948 0.368805
0.695618 0.062622 0.349762
0.813263 0.000000 0.326172
0.919861 0.000000 0.313232
1.000000 0.145111 0.329895
0.000000 0.354340 0.350677
0.000000 0.359039 0.350922
0.158081 0.364563 0.351868
0.354004 0.354004 0.354004
0.497406 0.345123 0.347656
0.651245 0.322235 0.328247
0.813538 0.274109 0.285583
0.979309 0.167145 0.197418
1.000000 0.311035 0.322998
0.000000 0.469666 0.436218
0.000000 0.473175 0.434692
0.034485 0.485168 0.415253
0.324768 0.479095 0.392914
0.475983 0.477173 0.342377
0.627533 0.466766 0.311066
0.780670 0.447754 0.261749
0.941071 0.412689 0.151550
1.000000 0.448425 0.310822
0.000000 0.585541 0.529938
0.000000 0.588348 0.527039
0.000000 0.598450 0.509827
0.275055 0.602692 0.446594
0.376648 0.617279 0.340698
0.600891 0.598633 0.319550
0.753052 0.588745 0.256409
0.903961 0.573181 0.147491
1.000000 0.578308 0.288208
0.000000 0.701904 0.625854
0.000000 0.704285 0.621643
0.000000 0.712555 0.605316
0.196075 0.722412 0.547607
0.280701 0.738312 0.478455
0.488586 0.741028 0.354645
0.725922 0.719543 0.283051
0.878204 0.710083 0.157715
1.000000 0.704895 0.240570
0.000000 0.818542 0.722748
0.000000 0.820526 0.718781
0.000000 0.827576 0.702118
0.036926 0.840363 0.659058
0.181885 0.853760 0.613831
0.314087 0.871643 0.496368
0.610596 0.860474 0.366547
0.848053 0.835907 0.216675
0.991516 0.824371 0.000000
0.000000 0.929321 0.815094
0.000000 0.930847 0.811432
0.000000 0.936249 0.796722
0.000000 0.946045 0.763702
0.000000 0.958862 0.729584
0.197784 0.971924 0.660370
0.517334 0.964142 0.598175
0.731934 0.951630 0.455994
0.941101 0.924744 0.081726
0.000000 0.138733 0.165405
0.000000 0.149872 0.181030
0.000000 0.182281 0.232513
0.074493 0.212128 0.363464
0.438721 0.103577 0.460876
0.598816 0.000000 0.472778
0.719818 0.000000 0.472565
0.840668 0.000000 0.472687
0.961304 0.000000 0.473267
0.000000 0.174500 0.203705
0.000000 0.183197 0.217987
0.000000 0.209656 0.266235
0.111237 0.231140 0.386169
0.447144 0.141876 0.466827
0.622528 0.000000 0.487305
0.740173 0.000000 0.479553
0.858124 0.000000 0.474884
0.976471 0.000000 0.472321
0.000000 0.261505 0.292908
0.000000 0.267151 0.302429
0.083496 0.280518 0.333435
0.196167 0.291473 0.416016
0.466431 0.236115 0.478394
0.683624 0.069061 0.518555
0.806824 0.000000 0.494812
0.916168 0.000000 0.475220
1.000000 0.141876 0.468109
0.000000 0.365051 0.389282
0.000000 0.369171 0.393585
0.031128 0.381439 0.410889
0.288971 0.377686 0.421173
0.476654 0.353149 0.480957
0.645142 0.321686 0.489044
0.806396 0.273956 0.477173
0.971771 0.169403 0.449707
1.000000 0.309631 0.463989
0.000000 0.476715 0.471985
0.000000 0.480011 0.472290
0.008148 0.490753 0.474365
0.296692 0.487000 0.473724
0.476288 0.476288 0.476288
0.617340 0.468811 0.471130
0.767334 0.451843 0.457703
0.921417 0.422974 0.432159
1.000000 0.447662 0.454926
0.000000 0.591217 0.555054
0.000000 0.593781 0.554413
0.000000 0.602875 0.548676
0.219055 0.609894 0.524750
0.448608 0.600677 0.515320
0.596588 0.598938 0.466522
0.747742 0.589111 0.441711
0.898529 0.573486 0.408722
1.000000 0.577789 0.440613
0.000000 0.706360 0.646973
0.000000 0.708527 0.645050
0.000000 0.716095 0.636688
0.083221 0.728516 0.606506
0.410797 0.724396 0.553894
0.523590 0.735565 0.461884
0.720581 0.720245 0.447235
0.874084 0.710236 0.401306
1.000000 0.704437 0.412231
0.000000 0.822083 0.741791
0.000000 0.823883 0.739899
0.000000 0.830292 0.731049
0.000000 0.842621 0.701324
0.343933 0.846222 0.633301
0.418762 0.863129 0.547150
0.647583 0.854065 0.457764
0.841919 0.836395 0.416351
0.997803 0.822784 0.270569
0.000000 0.931702 0.831848
0.000000 0.933167 0.828796
0.000000 0.938202 0.817841
0.000000 0.947205 0.794891
0.000000 0.959747 0.763824
0.199524 0.972778 0.697021
0.545380 0.960724 0.641357
0.757050 0.944122 0.559937
0.933777 0.924744 0.346588
0.000000 0.183014 0.215820
0.000000 0.191559 0.227783
0.000000 0.217865 0.266357
0.000000 0.255035 0.340912
0.172699 0.264679 0.527924
0.551666 0.139832 0.578888
0.720245 0.000000 0.593567
0.841034 0.000000 0.593323
0.961792 0.000000 0.593231
0.000000 0.211060 0.245911
0.000000 0.218262 0.257172
0.000000 0.241089 0.293884
0.000000 0.274292 0.365143
0.195129 0.279877 0.539459
0.557892 0.170380 0.583344
0.738678 0.000000 0.606079
0.857330 0.000000 0.600586
0.976105 0.000000 0.596863
0.000000 0.285919 0.324219
0.000000 0.290985 0.333008
0.000000 0.307220 0.365112
0.082550 0.328430 0.424713
0.258209 0.328949 0.559906
0.574890 0.251160 0.594452
0.798889 0.000000 0.644165
0.911346 0.000000 0.621246
1.000000 0.136475 0.601227
0.000000 0.381195 0.418427
0.000000 0.384918 0.423767
0.000000 0.397247 0.443695
0.217407 0.403137 0.467865
0.335693 0.405273 0.563873
0.592010 0.356384 0.602844
0.795929 0.275696 0.635651
0.961823 0.172852 0.628601
1.000000 0.307465 0.598175
0.000000 0.486633 0.512390
0.000000 0.489563 0.515137
0.000000 0.499420 0.525085
0.195251 0.507050 0.535797
0.413300 0.499298 0.546570
0.599548 0.474884 0.603241
0.761932 0.451355 0.609406
0.916473 0.421661 0.600708
1.000000 0.446228 0.592285
0.000000 0.598358 0.592529
0.000000 0.600830 0.592834
0.000000 0.609314 0.592621
0.188568 0.616302 0.595520
0.425079 0.608612 0.595032
0.597839 0.597839 0.597839
0.737579 0.591125 0.593323
0.872986 0.582855 0.587891
0.999817 0.576874 0.581696
0.000000 0.712463 0.673859
0.000000 0.714478 0.673615
0.000000 0.721375 0.672119
0.004242 0.734467 0.657471
0.364746 0.731628 0.645569
0.571411 0.721863 0.636169
0.717773 0.720154 0.588470
0.866974 0.711029 0.570312
0.999329 0.703857 0.561829
0.000000 0.827118 0.764343
0.000000 0.828827 0.763214
0.000000 0.834839 0.758789
0.000000 0.845795 0.744812
0.287964 0.852509 0.703278
0.532227 0.845306 0.671082
0.649231 0.853027 0.586670
0.836639 0.836578 0.564880
0.988708 0.822662 0.510162
0.000000 0.935150 0.851501
0.000000 0.936432 0.849945
0.000000 0.941010 0.843750
0.000000 0.949249 0.828796
0.000000 0.960541 0.812073
0.124481 0.975159 0.758545
0.526917 0.963440 0.698700
0.751862 0.943604 0.649323
0.933228 0.925995 0.403442
0.000000 0.227203 0.266083
0.000000 0.233948 0.275513
0.000000 0.255646 0.306396
0.000000 0.288910 0.360382
0.004639 0.326355 0.462463
0.281525 0.304352 0.711334
0.664276 0.175934 0.696564
0.841431 0.000000 0.714020
0.962097 0.000000 0.713745
0.000000 0.249847 0.290405
0.000000 0.255859 0.299561
0.000000 0.275421 0.329315
0.000000 0.305847 0.381989
0.015747 0.340363 0.480499
0.296265 0.318329 0.714264
0.669037 0.201111 0.699982
0.856323 0.000000 0.724823
0.975555 0.000000 0.720703
0.000000 0.314392 0.358734
0.000000 0.318970 0.366272
0.000000 0.333801 0.393829
0.000000 0.357971 0.441559
0.114990 0.382324 0.523712
0.343445 0.361053 0.724976
0.685883 0.268127 0.711517
0.905640 0.000000 0.759247
1.000000 0.128174 0.732330
0.000000 0.401520 0.447327
0.000000 0.404938 0.453247
0.000000 0.416382 0.472900
0.136139 0.429230 0.506378
0.229187 0.445251 0.568787
0.406128 0.430359 0.723999
0.704193 0.363800 0.721954
0.948975 0.179718 0.784882
1.000000 0.304108 0.730560
0.000000 0.501007 0.542786
0.000000 0.503693 0.546539
0.000000 0.512817 0.559357
0.070770 0.526215 0.581757
0.343597 0.524414 0.598206
0.468628 0.520935 0.701202
0.716492 0.476318 0.726257
0.908661 0.421631 0.752197
1.000000 0.443909 0.727051
0.000000 0.607788 0.634277
0.000000 0.610016 0.636139
0.000000 0.617676 0.642059
0.007111 0.630524 0.656219
0.331055 0.630280 0.659332
0.535095 0.620758 0.669312
0.720459 0.596619 0.724243
0.871399 0.581543 0.726990
0.999512 0.575226 0.720062
0.000000 0.719666 0.712738
0.000000 0.721588 0.713013
0.000000 0.728271 0.713257
0.000000 0.739716 0.716003
0.333069 0.739532 0.715057
0.550018 0.729828 0.716064
0.719025 0.719025 0.719025
0.854523 0.713928 0.716003
0.989410 0.706024 0.709106
0.000000 0.833435 0.793610
0.000000 0.835052 0.793549
0.000000 0.840576 0.792786
0.000000 0.850830 0.786285
0.210693 0.860931 0.765778
0.488251 0.852509 0.764496
0.678894 0.842682 0.748993
0.833435 0.835907 0.700531
0.977539 0.822815 0.681335
0.000000 0.939514 0.874756
0.000000 0.940704 0.874176
0.000000 0.944916 0.870972
0.000000 0.952393 0.862427
0.000000 0.962616 0.855286
0.000000 0.976532 0.834106
0.502411 0.966064 0.772858
0.746704 0.944427 0.717407
0.926300 0.922272 0.605560
0.000000 0.271332 0.316315
0.000000 0.276855 0.324005
0.000000 0.295074 0.349609
0.000000 0.324066 0.393494
0.000000 0.360809 0.463348
0.071411 0.394012 0.591949
0.415344 0.343323 0.848724
0.776733 0.212067 0.814056
0.962494 0.000000 0.834442
0.000000 0.290100 0.336426
0.000000 0.295166 0.344055
0.000000 0.311981 0.368896
0.000000 0.339111 0.411987
0.000000 0.373962 0.479584
0.100647 0.404205 0.604370
0.424957 0.355347 0.851135
0.780487 0.233215 0.816772
0.974884 0.000000 0.843811
0.000000 0.346069 0.396118
0.000000 0.350159 0.402618
0.000000 0.363647 0.425964
0.000000 0.386200 0.464996
0.000000 0.415466 0.531219
0.174042 0.436920 0.641357
0.456299 0.393982 0.857819
0.794769 0.291534 0.826721
1.000000 0.115936 0.862396
0.000000 0.425415 0.478180
0.000000 0.428558 0.483612
0.000000 0.439117 0.503052
0.020050 0.456207 0.538849
0.123535 0.476166 0.592590
0.265137 0.490387 0.681366
0.506744 0.453827 0.865845
0.811676 0.378632 0.837219
1.000000 0.299469 0.861755
0.000000 0.518951 0.570984
0.000000 0.521515 0.574615
0.000000 0.530090 0.587738
0.000000 0.544342 0.615753
0.268005 0.550537 0.638397
0.364319 0.561554 0.710541
0.554688 0.535767 0.870056
0.826965 0.483307 0.844482
1.000000 0.440643 0.860382
0.000000 0.620972 0.666138
0.000000 0.623047 0.668793
0.000000 0.630157 0.677582
0.000000 0.642426 0.694122
0.247009 0.649994 0.708405
0.461487 0.646393 0.725891
0.598602 0.637909 0.831879
0.836121 0.598694 0.846008
0.999146 0.572723 0.857056
0.000000 0.728851 0.754547
0.000000 0.730621 0.755920
0.000000 0.736725 0.760498
0.000000 0.747253 0.770203
0.196472 0.756866 0.780701
0.449219 0.754059 0.782837
0.629669 0.746277 0.811066
0.840210 0.718292 0.843994
0.987335 0.704041 0.845520
0.000000 0.840637 0.832642
0.000000 0.842194 0.832825
0.000000 0.847565 0.833191
0.000000 0.857422 0.832825
0.192505 0.865051 0.836639
0.464020 0.859375 0.833557
0.645203 0.851807 0.835999
0.833527 0.833527 0.833527
0.963928 0.823669 0.825409
0.000000 0.944580 0.903961
0.000000 0.945709 0.903778
0.000000 0.949554 0.902740
0.000000 0.956451 0.897980
0.000000 0.965759 0.896362
0.000000 0.977875 0.890717
0.228607 0.987000 0.859772
0.763611 0.936615 0.833099
0.917389 0.917297 0.777283
0.000000 0.315308 0.366333
0.000000 0.320007 0.372833
0.000000 0.335480 0.394562
0.000000 0.360901 0.431580
0.000000 0.394623 0.487030
0.000000 0.432526 0.575928
0.173950 0.457001 0.728088
0.542053 0.394592 0.937592
0.889038 0.248138 0.931396
0.000000 0.331238 0.383392
0.000000 0.335602 0.389954
0.000000 0.350189 0.411072
0.000000 0.374237 0.447723
0.000000 0.406525 0.502045
0.000000 0.442993 0.589172
0.190613 0.465149 0.738129
0.548645 0.406006 0.936127
0.892212 0.266052 0.933716
0.000000 0.380157 0.435822
0.000000 0.383850 0.441528
0.000000 0.396057 0.461670
0.000000 0.416779 0.495148
0.000000 0.444702 0.548492
0.007690 0.476746 0.632507
0.243011 0.491516 0.770599
0.572205 0.441956 0.931396
0.904144 0.317657 0.942139
0.000000 0.452301 0.511322
0.000000 0.455231 0.516205
0.000000 0.465118 0.533600
0.000000 0.481781 0.565399
0.000000 0.505188 0.612396
0.094330 0.529907 0.688202
0.297089 0.540222 0.805634
0.599945 0.502350 0.924072
0.916748 0.400177 0.948853
0.000000 0.539948 0.600067
0.000000 0.542267 0.604218
0.000000 0.550293 0.618134
0.000000 0.564117 0.642395
0.000000 0.583405 0.682953
0.014801 0.605713 0.754272
0.286804 0.614044 0.857178
0.619659 0.581573 0.932098
0.921936 0.505737 0.950378
0.000000 0.637329 0.694611
0.000000 0.639282 0.697388
0.000000 0.646027 0.707062
0.000000 0.657654 0.724792
0.000000 0.674042 0.756073
0.000000 0.693848 0.811768
0.244293 0.703430 0.913269
0.646729 0.671783 0.940887
0.929688 0.615875 0.952789
0.000000 0.741150 0.788422
0.000000 0.742828 0.790131
0.000000 0.748596 0.796539
0.000000 0.758514 0.809265
0.000000 0.772614 0.832886
0.000000 0.790741 0.869598
0.098206 0.807434 0.948059
0.673645 0.770416 0.950958
0.939514 0.725403 0.954651
0.000000 0.849548 0.874237
0.000000 0.851013 0.875305
0.000000 0.856140 0.879059
0.000000 0.864014 0.886292
0.000000 0.875275 0.902191
0.000000 0.890198 0.925873
0.000000 0.907532 0.966095
0.678589 0.871307 0.950043
0.940857 0.828644 0.947021
0.000000 0.949982 0.940979
0.000000 0.951019 0.940948
0.000000 0.954620 0.940460
0.000000 0.960907 0.938660
0.000000 0.969299 0.941528
0.000000 0.979492 0.949463
0.170349 0.987152 0.955475
0.699554 0.947113 0.928436
0.911713 0.911713 0.911713
