cube滤镜(3D LUT)/Larimar.cube
# Created by: Lutify.me
# Copyright: (c) Copyright Lutify.me 2015
# Website: https://lutify.me
#LUT size
LUT_3D_SIZE 5
#LUT data points
0.000000 0.000000 0.000000
0.229706 0.000000 0.002747
0.475952 0.000000 0.012238
0.718536 0.000000 0.030151
0.960175 0.000000 0.055817
0.000000 0.221771 0.183624
0.234558 0.228302 0.000000
0.483246 0.224701 0.000000
0.726715 0.220215 0.000000
0.969788 0.213257 0.000000
0.000000 0.461365 0.390259
0.000000 0.478302 0.365479
0.485260 0.473572 0.000000
0.731689 0.469788 0.000000
0.973816 0.466553 0.000000
0.000000 0.697296 0.593689
0.000000 0.707184 0.582764
0.007141 0.744354 0.470337
0.732086 0.715088 0.000000
0.979126 0.710846 0.000000
0.000000 0.926849 0.791626
0.000000 0.932953 0.783691
0.000000 0.953735 0.746368
0.317810 0.984283 0.522034
0.943481 0.921936 0.000000
0.000000 0.048981 0.063324
0.209656 0.030914 0.221527
0.476593 0.000000 0.228058
0.718933 0.000000 0.231262
0.960480 0.000000 0.237061
0.000000 0.230011 0.227448
0.229767 0.229767 0.229767
0.539337 0.177917 0.185455
0.817780 0.000000 0.053558
1.000000 0.147125 0.170868
0.000000 0.464661 0.412964
0.125244 0.478821 0.357819
0.480896 0.476654 0.182953
0.766022 0.456055 0.000000
1.000000 0.448975 0.124207
0.000000 0.699127 0.608795
0.000000 0.710663 0.576813
0.162964 0.743011 0.466553
0.731781 0.718170 0.000000
0.994568 0.706696 0.000000
0.000000 0.927826 0.802368
0.000000 0.934967 0.781403
0.000000 0.956146 0.736176
0.429688 0.974884 0.551025
0.943604 0.922974 0.000000
0.000000 0.138733 0.165405
0.000000 0.182281 0.232513
0.438721 0.103577 0.460876
0.719818 0.000000 0.472565
0.961304 0.000000 0.473267
0.000000 0.261505 0.292908
0.083496 0.280518 0.333435
0.466431 0.236115 0.478394
0.806824 0.000000 0.494812
1.000000 0.141876 0.468109
0.000000 0.476715 0.471985
0.008148 0.490753 0.474365
0.476288 0.476288 0.476288
0.767334 0.451843 0.457703
1.000000 0.447662 0.454926
0.000000 0.706360 0.646973
0.000000 0.716095 0.636688
0.410797 0.724396 0.553894
0.720581 0.720245 0.447235
1.000000 0.704437 0.412231
0.000000 0.931702 0.831848
0.000000 0.938202 0.817841
0.000000 0.959747 0.763824
0.545380 0.960724 0.641357
0.933777 0.924744 0.346588
0.000000 0.227203 0.266083
0.000000 0.255646 0.306396
0.004639 0.326355 0.462463
0.664276 0.175934 0.696564
0.962097 0.000000 0.713745
0.000000 0.314392 0.358734
0.000000 0.333801 0.393829
0.114990 0.382324 0.523712
0.685883 0.268127 0.711517
1.000000 0.128174 0.732330
0.000000 0.501007 0.542786
0.000000 0.512817 0.559357
0.343597 0.524414 0.598206
0.716492 0.476318 0.726257
1.000000 0.443909 0.727051
0.000000 0.719666 0.712738
0.000000 0.728271 0.713257
0.333069 0.739532 0.715057
0.719025 0.719025 0.719025
0.989410 0.706024 0.709106
0.000000 0.939514 0.874756
0.000000 0.944916 0.870972
0.000000 0.962616 0.855286
0.502411 0.966064 0.772858
0.926300 0.922272 0.605560
0.000000 0.315308 0.366333
0.000000 0.335480 0.394562
0.000000 0.394623 0.487030
0.173950 0.457001 0.728088
0.889038 0.248138 0.931396
0.000000 0.380157 0.435822
0.000000 0.396057 0.461670
0.000000 0.444702 0.548492
0.243011 0.491516 0.770599
0.904144 0.317657 0.942139
0.000000 0.539948 0.600067
0.000000 0.550293 0.618134
0.000000 0.583405 0.682953
0.286804 0.614044 0.857178
0.921936 0.505737 0.950378
0.000000 0.741150 0.788422
0.000000 0.748596 0.796539
0.000000 0.772614 0.832886
0.098206 0.807434 0.948059
0.939514 0.725403 0.954651
0.000000 0.949982 0.940979
0.000000 0.954620 0.940460
0.000000 0.969299 0.941528
0.170349 0.987152 0.955475
0.911713 0.911713 0.911713
