cube滤镜(3D LUT)/Lava.cube
# Created by: Lutify.me
# Copyright: (c) Copyright Lutify.me 2015
# Website: https://lutify.me
#LUT size
LUT_3D_SIZE 9
#LUT data points
0.000000 0.000000 0.000000
0.022644 0.008087 0.011841
0.205841 0.031403 0.022766
0.368713 0.050995 0.033813
0.512878 0.087646 0.042847
0.626770 0.115509 0.050507
0.738708 0.146759 0.053833
0.879700 0.173096 0.061188
0.938660 0.187836 0.065002
0.018829 0.083252 0.045868
0.004700 0.056885 0.034912
0.201477 0.090240 0.015259
0.382904 0.121643 0.026733
0.505951 0.144684 0.036987
0.614319 0.167358 0.044128
0.727112 0.189117 0.051239
0.875946 0.214996 0.061249
0.938690 0.225952 0.065033
0.103882 0.228577 0.128601
0.099121 0.228607 0.119324
0.128815 0.152832 0.080200
0.351746 0.202423 0.032837
0.509369 0.209839 0.020264
0.616119 0.224792 0.031769
0.728516 0.246063 0.041046
0.871185 0.268219 0.050079
0.938660 0.280548 0.056458
0.208740 0.404816 0.230560
0.208740 0.404816 0.230560
0.126770 0.398132 0.202362
0.330597 0.272247 0.131317
0.512848 0.328430 0.096069
0.638336 0.362854 0.011078
0.737762 0.349274 0.008118
0.868256 0.349915 0.024841
0.938690 0.358612 0.032349
0.304779 0.568939 0.323944
0.306091 0.570190 0.325226
0.263062 0.569275 0.321564
0.455139 0.543365 0.132843
0.512909 0.401428 0.179596
0.647766 0.445526 0.157623
0.759155 0.509796 0.067566
0.878296 0.508392 0.001007
0.938690 0.500671 0.000519
0.375824 0.695679 0.393036
0.375824 0.695679 0.393036
0.357574 0.694489 0.393188
0.337830 0.679504 0.332581
0.645569 0.656158 0.249603
0.645966 0.514557 0.235443
0.755859 0.547272 0.215027
0.882996 0.624878 0.117462
0.934814 0.638000 0.061829
0.432098 0.809937 0.446899
0.432098 0.809937 0.446899
0.425110 0.812775 0.452911
0.179810 0.802338 0.437408
0.617004 0.772461 0.183655
0.769897 0.750671 0.328552
0.754456 0.615112 0.295776
0.871155 0.642914 0.270996
0.926178 0.678650 0.238831
0.493378 0.930847 0.507355
0.495483 0.933197 0.509399
0.487274 0.934204 0.510773
0.358002 0.929626 0.513123
0.522430 0.903381 0.403961
0.764282 0.890076 0.197540
0.884979 0.859131 0.403961
0.871155 0.712677 0.366211
0.911774 0.705139 0.363251
0.523224 0.943787 0.536377
0.523224 0.943787 0.536377
0.517151 0.943817 0.536407
0.415436 0.944702 0.540741
0.459076 0.944336 0.467133
0.740051 0.941986 0.201660
0.905090 0.936859 0.408569
0.922821 0.813690 0.419647
0.915619 0.750824 0.396362
0.006317 0.048340 0.098358
0.007629 0.050171 0.104401
0.132935 0.011475 0.095520
0.339172 0.029755 0.035675
0.522400 0.033081 0.042755
0.645966 0.051361 0.054596
0.759186 0.093475 0.059021
0.883026 0.128784 0.065491
0.938690 0.140594 0.069275
0.005341 0.088959 0.109955
0.010590 0.096039 0.116974
0.196014 0.100220 0.078552
0.368713 0.133575 0.068115
0.513245 0.165192 0.065857
0.624969 0.187531 0.060669
0.737762 0.212769 0.056000
0.876892 0.238739 0.047394
0.938690 0.255615 0.046356
0.065033 0.220764 0.088196
0.065582 0.222168 0.088654
0.121063 0.191681 0.115509
0.368256 0.207642 0.076630
0.506775 0.219971 0.059021
0.615692 0.241394 0.057007
0.729889 0.262909 0.047485
0.871643 0.287506 0.033447
0.938690 0.298401 0.033966
0.186218 0.401520 0.172394
0.186249 0.401550 0.173401
0.140564 0.401886 0.200287
0.332886 0.311493 0.170166
0.516327 0.359924 0.111725
0.626282 0.350189 0.073425
0.727570 0.346680 0.060883
0.871613 0.361389 0.054352
0.938660 0.370880 0.050018
0.288635 0.563965 0.285492
0.288635 0.565643 0.287323
0.278442 0.566620 0.311951
0.390381 0.548553 0.186005
0.516296 0.437164 0.214111
0.651398 0.483887 0.171051
0.751251 0.514923 0.091461
0.874481 0.498627 0.070831
0.938690 0.490875 0.063965
0.361603 0.692657 0.360321
0.359802 0.690887 0.360321
0.358917 0.695831 0.384033
0.224182 0.687592 0.364563
0.624115 0.659882 0.243652
0.645966 0.544769 0.264526
0.759644 0.581909 0.228363
0.882080 0.638428 0.118011
0.938660 0.641418 0.088318
0.420715 0.807220 0.421204
0.421143 0.806763 0.421204
0.421600 0.810028 0.443115
0.252747 0.808624 0.445801
0.573792 0.775604 0.248291
0.760559 0.760284 0.335754
0.760559 0.641205 0.325958
0.877319 0.673248 0.282898
0.927094 0.704102 0.241150
0.482910 0.933289 0.484406
0.482910 0.928101 0.483978
0.484222 0.930908 0.503143
0.381104 0.929932 0.509521
0.459930 0.913269 0.436340
0.730835 0.891296 0.171844
0.883026 0.874084 0.414764
0.871613 0.733917 0.390198
0.915619 0.729919 0.386841
0.509796 0.943909 0.513153
0.509796 0.943909 0.513153
0.516296 0.943848 0.530060
0.423340 0.944641 0.537231
0.392151 0.944885 0.486450
0.698120 0.942352 0.290344
0.885956 0.937012 0.390533
0.922821 0.835052 0.439423
0.915619 0.772308 0.419708
0.043945 0.132141 0.209839
0.036316 0.108398 0.219543
0.126709 0.009399 0.242615
0.340515 0.017883 0.222778
0.523254 0.038452 0.144501
0.659058 0.050232 0.072632
0.772247 0.057861 0.057861
0.889252 0.043488 0.065430
0.938690 0.073517 0.065033
0.040649 0.176086 0.230042
0.040649 0.168610 0.225250
0.117462 0.080292 0.239807
0.337402 0.076904 0.212738
0.521088 0.071136 0.130798
0.654510 0.086487 0.076385
0.759644 0.130341 0.064911
0.886414 0.180450 0.067078
0.938660 0.196136 0.067108
0.006470 0.222839 0.241882
0.006470 0.224274 0.242798
0.135986 0.233063 0.251953
0.367401 0.227814 0.179352
0.514587 0.258179 0.174622
0.626740 0.281769 0.172699
0.740570 0.306793 0.173737
0.876373 0.329895 0.170624
0.938690 0.343628 0.168182
0.117981 0.394714 0.226990
0.115356 0.394714 0.231781
0.109650 0.390900 0.255890
0.337860 0.359650 0.268494
0.511078 0.354645 0.180084
0.613892 0.348083 0.153870
0.726654 0.362152 0.153412
0.870636 0.384155 0.151245
0.938660 0.394867 0.149170
0.239532 0.558380 0.128510
0.240875 0.560059 0.125854
0.248932 0.564270 0.156891
0.275665 0.561066 0.196289
0.518066 0.471802 0.300446
0.648224 0.513702 0.235443
0.739624 0.504028 0.178711
0.871155 0.489319 0.154266
0.938660 0.487885 0.150146
0.320221 0.685455 0.215271
0.320251 0.686371 0.216736
0.334686 0.692444 0.277740
0.131378 0.694122 0.329376
0.580841 0.663788 0.250153
0.649567 0.575104 0.342468
0.763336 0.616333 0.296143
0.881592 0.640167 0.197571
0.938690 0.631866 0.182465
0.383789 0.799255 0.314240
0.383820 0.799744 0.314728
0.398773 0.804626 0.358704
0.272858 0.807526 0.401703
0.504211 0.784454 0.284149
0.738251 0.766907 0.369965
0.760071 0.664062 0.387238
0.878754 0.702271 0.341919
0.931000 0.732513 0.286133
0.451660 0.925568 0.399353
0.452057 0.925995 0.398895
0.467316 0.930573 0.434998
0.380219 0.929901 0.471619
0.370911 0.921021 0.448242
0.687592 0.896362 0.193787
0.867310 0.879883 0.439850
0.878296 0.758392 0.446198
0.918030 0.754456 0.437683
0.482452 0.944122 0.434448
0.479919 0.944153 0.432312
0.496399 0.944031 0.466858
0.419800 0.944641 0.501099
0.290924 0.945709 0.492401
0.651794 0.942719 0.320557
0.859192 0.937225 0.391602
0.926666 0.857391 0.483307
0.919464 0.793884 0.469299
0.094391 0.235291 0.351013
0.074677 0.175781 0.355164
0.070404 0.055634 0.389893
0.337372 0.005463 0.400269
0.524994 0.016327 0.392181
0.659027 0.036255 0.340576
0.771301 0.049286 0.276917
0.887329 0.061127 0.204285
0.938690 0.062347 0.174103
0.090149 0.279755 0.368713
0.091736 0.269104 0.361664
0.093353 0.153656 0.372223
0.338287 0.079529 0.400696
0.525421 0.077423 0.385681
0.658142 0.071045 0.322784
0.773224 0.070099 0.256958
0.888763 0.068085 0.187744
0.938660 0.069763 0.158661
0.071503 0.312775 0.389008
0.066650 0.318207 0.386444
0.161346 0.315216 0.365967
0.312958 0.228241 0.391357
0.525452 0.216003 0.362061
0.658142 0.215393 0.298859
0.768494 0.217773 0.241974
0.886414 0.245270 0.213501
0.938660 0.258820 0.207733
0.003082 0.387482 0.395691
0.003082 0.387482 0.395691
0.162842 0.391754 0.408234
0.331146 0.398163 0.409851
0.512878 0.376190 0.328888
0.626740 0.397034 0.323944
0.738708 0.420715 0.326141
0.876404 0.445801 0.324127
0.938690 0.455078 0.323608
0.127777 0.550781 0.395508
0.124176 0.550323 0.399414
0.103851 0.550110 0.392242
0.386475 0.533325 0.490326
0.515442 0.527527 0.449188
0.628967 0.503632 0.334625
0.726654 0.488770 0.302368
0.871582 0.503296 0.300262
0.938690 0.512970 0.299744
0.232300 0.676849 0.372803
0.231842 0.676392 0.373718
0.243744 0.679413 0.358215
0.129364 0.688354 0.290436
0.510315 0.673218 0.317291
0.653137 0.606415 0.450562
0.761047 0.642029 0.388977
0.873535 0.627594 0.324127
0.938690 0.621857 0.308746
0.308350 0.790192 0.328796
0.307922 0.790680 0.330597
0.327484 0.793701 0.297485
0.222717 0.800568 0.187866
0.422882 0.795197 0.175873
0.701324 0.769043 0.424469
0.762909 0.690216 0.482513
0.881134 0.735199 0.428131
0.934814 0.753418 0.380554
0.383789 0.914856 0.239532
0.383331 0.912964 0.240936
0.406677 0.919800 0.190308
0.347748 0.925934 0.257202
0.323395 0.921906 0.330444
0.624542 0.904846 0.173187
0.843048 0.886597 0.490387
0.879242 0.782227 0.524109
0.921387 0.783264 0.514404
0.415863 0.944672 0.196045
0.415863 0.944672 0.198517
0.440369 0.944489 0.185120
0.385071 0.944916 0.306976
0.258392 0.945984 0.382660
0.583923 0.943298 0.288086
0.828796 0.941254 0.430267
0.927124 0.876587 0.554810
0.919434 0.819275 0.542908
0.143158 0.334198 0.483398
0.118988 0.256744 0.481445
0.079529 0.142059 0.503510
0.336060 0.008728 0.547333
0.526733 0.003937 0.548340
0.659027 0.006561 0.545074
0.771301 0.024536 0.519928
0.890656 0.041840 0.469116
0.934814 0.047943 0.439301
0.133453 0.381927 0.502228
0.144653 0.370453 0.496155
0.138580 0.289948 0.493683
0.337830 0.080048 0.547729
0.524994 0.076385 0.546631
0.658112 0.076874 0.544678
0.771301 0.074371 0.509247
0.889740 0.073395 0.451630
0.934814 0.071442 0.419128
0.111206 0.418610 0.526245
0.121063 0.420654 0.518036
0.208771 0.420380 0.508392
0.284515 0.236115 0.528168
0.524139 0.217438 0.544037
0.657715 0.214874 0.537018
0.772247 0.213470 0.490967
0.889252 0.216827 0.425049
0.934814 0.217865 0.403992
0.075745 0.457489 0.540527
0.074707 0.463959 0.541840
0.185242 0.473694 0.537506
0.337830 0.458740 0.490692
0.428986 0.407776 0.514252
0.657715 0.385925 0.515289
0.771301 0.386292 0.465851
0.889740 0.383575 0.409119
0.938660 0.387054 0.391388
0.000641 0.539917 0.541656
0.001129 0.539124 0.539551
0.129852 0.544800 0.544800
0.408875 0.545013 0.560791
0.518066 0.550140 0.555237
0.629028 0.527435 0.496002
0.738708 0.539764 0.486176
0.878754 0.565460 0.487091
0.938690 0.575684 0.488739
0.091736 0.669556 0.548523
0.093842 0.669525 0.546783
0.062347 0.669800 0.548767
0.301056 0.671417 0.544647
0.562012 0.653351 0.633667
0.653625 0.657013 0.593933
0.739624 0.632629 0.495911
0.872070 0.626312 0.475647
0.938690 0.630127 0.471710
0.196045 0.780518 0.539917
0.198029 0.778717 0.539093
0.195068 0.783295 0.536591
0.180786 0.786652 0.524353
0.432953 0.791504 0.470764
0.650024 0.777710 0.497498
0.767578 0.718475 0.583069
0.884003 0.754730 0.524475
0.938690 0.753357 0.504059
0.287720 0.902924 0.522644
0.289551 0.904755 0.521332
0.306091 0.908447 0.515228
0.213593 0.916260 0.481110
0.361206 0.922546 0.413513
0.572021 0.913300 0.375702
0.805176 0.888824 0.546021
0.882568 0.808990 0.615814
0.924713 0.812317 0.603302
0.326599 0.945435 0.509094
0.326599 0.945435 0.512115
0.347260 0.945251 0.494476
0.289551 0.945709 0.452301
0.295563 0.945679 0.366608
0.543732 0.943634 0.312469
0.775055 0.941711 0.479004
0.931000 0.906067 0.632812
0.923309 0.844849 0.627625
0.182312 0.418030 0.595703
0.162811 0.341156 0.587189
0.142639 0.285797 0.599457
0.305664 0.050995 0.659424
0.523224 0.003937 0.662476
0.659027 0.002808 0.663544
0.772217 0.001862 0.663910
0.890686 0.017120 0.649750
0.934814 0.024841 0.631439
0.169373 0.470825 0.616058
0.186249 0.454468 0.605988
0.176849 0.372406 0.594025
0.221283 0.117279 0.640381
0.523224 0.074829 0.662476
0.655884 0.074249 0.660065
0.771301 0.073822 0.663055
0.889252 0.074432 0.642303
0.934784 0.078278 0.626648
0.145721 0.505524 0.633179
0.168854 0.508301 0.628632
0.246582 0.504669 0.619293
0.245667 0.369171 0.605499
0.522797 0.214539 0.661163
0.659027 0.216309 0.661346
0.772247 0.213928 0.659119
0.890686 0.217285 0.630524
0.934784 0.216431 0.607971
0.107544 0.541138 0.651855
0.127777 0.546478 0.649017
0.233795 0.557159 0.643372
0.386444 0.558044 0.629456
0.498993 0.394165 0.654724
0.656769 0.384583 0.661377
0.773193 0.385803 0.651581
0.889252 0.386597 0.607086
0.934814 0.387543 0.581299
0.060699 0.586792 0.663239
0.060181 0.590240 0.662781
0.180298 0.596161 0.660034
0.380676 0.607819 0.654419
0.513275 0.595551 0.617126
0.578644 0.562408 0.634857
0.772247 0.540314 0.634979
0.887848 0.539337 0.583801
0.934814 0.541107 0.564148
0.000000 0.662048 0.658539
0.000000 0.662048 0.658539
0.132935 0.669220 0.665710
0.341919 0.667480 0.663971
0.572479 0.664246 0.673584
0.651398 0.665436 0.665436
0.741516 0.651886 0.630859
0.872589 0.672913 0.628052
0.938690 0.682556 0.629669
0.073090 0.776031 0.663544
0.073090 0.778351 0.665771
0.086426 0.777313 0.666077
0.314331 0.774048 0.664215
0.492889 0.776703 0.657867
0.635681 0.775543 0.657135
0.774597 0.751984 0.681702
0.875916 0.748840 0.628845
0.938690 0.747437 0.621857
0.188721 0.895782 0.658203
0.187195 0.897644 0.661713
0.182770 0.897217 0.659119
0.207764 0.901276 0.654083
0.428131 0.906036 0.630402
0.574219 0.910400 0.587280
0.758728 0.897675 0.607727
0.884491 0.834900 0.697693
0.930511 0.844788 0.684814
0.233246 0.946198 0.657837
0.233246 0.946198 0.657837
0.239502 0.946167 0.654266
0.109650 0.947205 0.646118
0.389526 0.944916 0.613831
0.549835 0.943604 0.564362
0.720642 0.942169 0.557770
0.928101 0.927246 0.702271
0.927094 0.866699 0.707703
0.215485 0.493835 0.691620
0.204315 0.423401 0.677948
0.184265 0.365784 0.686584
0.159332 0.105804 0.735291
0.520630 0.003937 0.769592
0.659027 0.002808 0.768463
0.771332 0.001923 0.766663
0.890198 0.000885 0.766083
0.934814 0.000549 0.765289
0.205322 0.547577 0.711853
0.224152 0.532074 0.703156
0.215973 0.451660 0.687195
0.157318 0.248016 0.700165
0.519379 0.075928 0.769653
0.659027 0.074738 0.768005
0.771301 0.072784 0.766632
0.890198 0.075470 0.768799
0.934814 0.071442 0.763000
0.182312 0.585358 0.729675
0.208740 0.584290 0.723969
0.279846 0.576843 0.712616
0.267273 0.472107 0.692535
0.487701 0.222504 0.761658
0.659027 0.216309 0.768921
0.773224 0.211548 0.768463
0.888763 0.212982 0.765656
0.934814 0.214050 0.764343
0.148193 0.616241 0.747589
0.179352 0.624237 0.743744
0.278473 0.629944 0.736572
0.414154 0.631409 0.723663
0.404907 0.469727 0.713379
0.657684 0.383698 0.767548
0.771301 0.382782 0.766632
0.886871 0.383575 0.762421
0.934784 0.384918 0.750183
0.099670 0.650146 0.761230
0.128815 0.657379 0.760529
0.242371 0.664825 0.753662
0.416321 0.677979 0.748566
0.557220 0.680817 0.736481
0.637482 0.545715 0.761292
0.771301 0.540314 0.766632
0.889252 0.538910 0.751495
0.934814 0.538971 0.730682
0.053680 0.693878 0.769806
0.056946 0.697418 0.771179
0.180267 0.701752 0.769684
0.374084 0.706879 0.763062
0.550262 0.718048 0.757935
0.664001 0.719330 0.745148
0.764771 0.664490 0.765778
0.888336 0.660797 0.732880
0.938660 0.662537 0.708954
0.000000 0.767487 0.764740
0.000000 0.768372 0.765656
0.132935 0.775543 0.772827
0.338745 0.775238 0.772491
0.525024 0.773224 0.769592
0.665405 0.771149 0.768890
0.760071 0.775848 0.774933
0.878754 0.770752 0.749756
0.938660 0.785400 0.752411
0.074707 0.893921 0.772858
0.077362 0.896240 0.772369
0.077332 0.894806 0.772797
0.312958 0.894287 0.770874
0.498535 0.896027 0.765656
0.623627 0.898773 0.759613
0.736877 0.901581 0.733215
0.890228 0.860992 0.780792
0.934814 0.874634 0.769836
0.127777 0.947083 0.771973
0.130890 0.947052 0.769165
0.089111 0.947388 0.770447
0.278931 0.945801 0.767914
0.470398 0.944244 0.760925
0.599731 0.943176 0.749817
0.714661 0.942200 0.711700
0.908936 0.936829 0.773743
0.931000 0.895294 0.793793
0.257019 0.584351 0.805817
0.246582 0.514435 0.787933
0.218903 0.432770 0.784515
0.157837 0.269501 0.801117
0.503296 0.024109 0.889404
0.659027 0.002808 0.884857
0.770844 0.001892 0.886719
0.887329 0.000916 0.886688
0.938690 0.000519 0.889587
0.246582 0.632324 0.820679
0.264923 0.619171 0.815918
0.260254 0.544556 0.793793
0.224670 0.416351 0.793182
0.426819 0.110321 0.871826
0.657227 0.074249 0.884888
0.770844 0.072784 0.883453
0.887360 0.072357 0.886719
0.938690 0.075653 0.889587
0.234222 0.673279 0.840759
0.257935 0.668213 0.832642
0.321594 0.659760 0.820526
0.310669 0.578308 0.801666
0.291412 0.276703 0.829590
0.654510 0.215424 0.887238
0.772247 0.214447 0.884857
0.890686 0.214417 0.889984
0.938690 0.208221 0.886780
0.205841 0.702911 0.854950
0.241852 0.706146 0.849548
0.330170 0.713531 0.845062
0.446869 0.709869 0.831116
0.424194 0.602264 0.807190
0.618286 0.391846 0.878174
0.771332 0.383667 0.884430
0.888794 0.381836 0.884857
0.938690 0.381409 0.888184
0.168854 0.727478 0.867859
0.209229 0.738007 0.869385
0.310638 0.743530 0.859192
0.459503 0.756866 0.853333
0.581696 0.755402 0.838867
0.554138 0.613312 0.826050
0.772247 0.541199 0.885315
0.889252 0.540619 0.885315
0.938690 0.539795 0.887726
0.116425 0.759735 0.882355
0.150757 0.765320 0.879700
0.264435 0.773102 0.876892
0.435547 0.784088 0.870331
0.590057 0.796600 0.863464
0.690338 0.799011 0.853760
0.737305 0.666473 0.875793
0.890686 0.661652 0.886688
0.938660 0.661224 0.888641
0.061829 0.804688 0.893066
0.069336 0.806915 0.892548
0.186707 0.807770 0.885468
0.384216 0.816315 0.886658
0.560242 0.825989 0.881439
0.681213 0.833344 0.873901
0.783997 0.833923 0.865601
0.890686 0.766571 0.886200
0.935333 0.768005 0.879303
0.000000 0.885773 0.882050
0.000000 0.888611 0.884827
0.129364 0.892975 0.889252
0.338745 0.892670 0.888885
0.523712 0.889709 0.885986
0.659058 0.891907 0.888123
0.774109 0.890015 0.886230
0.880676 0.886749 0.886261
0.935364 0.890076 0.879333
0.002258 0.942108 0.887085
0.002258 0.942108 0.887543
0.131958 0.947052 0.892029
0.337372 0.945312 0.888885
0.519806 0.943848 0.886047
0.652740 0.942719 0.884918
0.761047 0.941833 0.884491
0.873016 0.940887 0.869049
0.934814 0.925781 0.892883
0.275177 0.620819 0.852051
0.264435 0.553864 0.834015
0.234711 0.465546 0.830048
0.196075 0.354614 0.843872
0.452087 0.060455 0.931152
0.655396 0.002838 0.942688
0.767609 0.001923 0.941772
0.886902 0.000946 0.940796
0.934814 0.000549 0.940399
0.267761 0.673004 0.870300
0.282593 0.655212 0.862701
0.281708 0.589722 0.844086
0.242340 0.465057 0.836029
0.336029 0.139465 0.906769
0.655396 0.074249 0.940826
0.770386 0.073822 0.941742
0.887878 0.071838 0.940796
0.934784 0.071930 0.940369
0.256531 0.711914 0.885864
0.278931 0.707214 0.881439
0.341919 0.699524 0.870178
0.329285 0.619934 0.850220
0.276123 0.357056 0.856689
0.641052 0.217407 0.937622
0.768494 0.215393 0.941742
0.890228 0.214417 0.940765
0.934784 0.213074 0.940369
0.238983 0.740509 0.903320
0.271027 0.743866 0.899323
0.355377 0.746796 0.891113
0.463409 0.744568 0.876678
0.440338 0.649963 0.854919
0.544556 0.400726 0.911621
0.773682 0.385376 0.941711
0.890228 0.381805 0.940765
0.934814 0.381439 0.940399
0.202881 0.765839 0.918213
0.243774 0.772827 0.914124
0.339203 0.779388 0.907715
0.476868 0.789276 0.898590
0.596649 0.790100 0.886749
0.569824 0.677582 0.870117
0.765717 0.542053 0.937103
0.887329 0.538513 0.940765
0.934814 0.538147 0.940399
0.152283 0.793793 0.929443
0.191193 0.798096 0.927734
0.301117 0.804993 0.923035
0.457336 0.818481 0.917023
0.603302 0.829803 0.906921
0.699982 0.829956 0.897186
0.686707 0.684631 0.902435
0.887878 0.661682 0.940796
0.934784 0.661255 0.940369
0.086975 0.829437 0.939850
0.115326 0.831970 0.939636
0.232819 0.838440 0.935852
0.414154 0.846710 0.931976
0.578186 0.857941 0.925415
0.697205 0.868164 0.920685
0.791016 0.868286 0.908600
0.890228 0.768829 0.940765
0.934784 0.768005 0.940369
0.008942 0.904327 0.944275
0.012238 0.901459 0.944244
0.144165 0.899872 0.943146
0.352631 0.899597 0.941406
0.536316 0.903198 0.939880
0.669403 0.902100 0.938782
0.782135 0.909149 0.934570
0.887878 0.908264 0.929932
0.934814 0.889618 0.940399
0.000000 0.939850 0.939850
0.000000 0.939850 0.939850
0.132904 0.946991 0.946991
0.338776 0.945343 0.945343
0.526733 0.943787 0.943787
0.659027 0.942657 0.942657
0.774139 0.941742 0.941742
0.887329 0.940765 0.940765
0.938660 0.940338 0.940338
