cube滤镜(3D LUT)/Lava.cube
# Created by: Lutify.me
# Copyright: (c) Copyright Lutify.me 2015
# Website: https://lutify.me
#LUT size
LUT_3D_SIZE 33
#LUT data points
0.000000 0.000000 0.000000
0.001251 0.001251 0.001251
0.003723 0.003723 0.003723
0.006348 0.006348 0.006348
0.022644 0.008087 0.011841
0.051331 0.011444 0.012146
0.102020 0.019562 0.016052
0.154968 0.024261 0.019012
0.205841 0.031403 0.022766
0.242554 0.035217 0.023529
0.286804 0.040405 0.027496
0.327637 0.047180 0.029968
0.368713 0.050995 0.033813
0.406891 0.059113 0.035126
0.446686 0.069611 0.039093
0.478790 0.079559 0.041107
0.512878 0.087646 0.042847
0.541870 0.095673 0.044586
0.571198 0.103638 0.046631
0.600311 0.109161 0.046387
0.626770 0.115509 0.050507
0.654968 0.123383 0.050262
0.679840 0.131195 0.050018
0.708710 0.139038 0.051025
0.738708 0.146759 0.053833
0.770844 0.150452 0.054474
0.805603 0.158020 0.057587
0.842194 0.165619 0.057953
0.879700 0.173096 0.061188
0.913574 0.180573 0.061310
0.938690 0.187836 0.065033
0.938660 0.187836 0.065002
0.938660 0.187836 0.065002
0.000000 0.000000 0.000000
0.000000 0.004150 0.004150
0.002502 0.006653 0.006775
0.007538 0.015778 0.007538
0.031616 0.020630 0.011749
0.075043 0.024109 0.011963
0.128693 0.035645 0.015839
0.173981 0.043640 0.018982
0.231262 0.052277 0.022583
0.265991 0.057343 0.023346
0.304932 0.064240 0.027344
0.341766 0.072296 0.029846
0.376892 0.077728 0.031036
0.411957 0.084198 0.035065
0.446259 0.092224 0.037201
0.479004 0.100220 0.038818
0.507721 0.104156 0.040863
0.538666 0.112152 0.042633
0.568115 0.120056 0.044373
0.593475 0.123962 0.046448
0.623322 0.131683 0.046204
0.650116 0.138092 0.050262
0.676361 0.143372 0.050079
0.705170 0.149811 0.053955
0.736084 0.154724 0.053864
0.767273 0.162354 0.054504
0.802094 0.169891 0.057587
0.842163 0.177307 0.061340
0.879608 0.184662 0.061218
0.910248 0.192230 0.065063
0.938690 0.195526 0.065033
0.938660 0.195526 0.065002
0.938660 0.195526 0.065002
0.002502 0.018951 0.010864
0.001282 0.013947 0.009796
0.002502 0.011139 0.011139
0.003845 0.016113 0.012360
0.017944 0.028900 0.012421
0.059479 0.036621 0.011688
0.128326 0.044952 0.015015
0.184875 0.056946 0.018738
0.235687 0.068420 0.022522
0.270996 0.073334 0.023285
0.305450 0.081146 0.026276
0.345612 0.086334 0.029816
0.380646 0.093201 0.031036
0.415314 0.100922 0.033539
0.448181 0.108917 0.034790
0.476959 0.112915 0.038818
0.507629 0.120575 0.040710
0.536926 0.124603 0.042633
0.562683 0.132477 0.042450
0.591797 0.136200 0.046478
0.616302 0.142242 0.046265
0.644440 0.147675 0.050323
0.673737 0.155151 0.050110
0.701355 0.159058 0.051331
0.735016 0.166626 0.053864
0.763824 0.173340 0.054810
0.801117 0.181396 0.057617
0.838196 0.188843 0.061554
0.872070 0.192566 0.061279
0.913025 0.203186 0.065216
0.938690 0.207031 0.065033
0.938690 0.207031 0.065033
0.938690 0.207031 0.065033
0.007416 0.052795 0.032104
0.006256 0.047974 0.027039
0.004944 0.042023 0.021942
0.002594 0.031952 0.023804
0.003540 0.029053 0.020538
0.030121 0.045349 0.016541
0.097412 0.057526 0.012177
0.168854 0.069122 0.014954
0.227753 0.077942 0.018616
0.269623 0.085510 0.022491
0.308899 0.093567 0.023010
0.345612 0.101501 0.027008
0.381683 0.109467 0.029816
0.415344 0.113617 0.030762
0.448608 0.121094 0.034790
0.478821 0.125244 0.037231
0.505951 0.132660 0.038605
0.533264 0.136810 0.040833
0.562561 0.144196 0.042419
0.588959 0.150238 0.044342
0.616119 0.154053 0.046265
0.640930 0.159637 0.047943
0.668945 0.163300 0.050110
0.697693 0.170898 0.051117
0.730377 0.177002 0.053894
0.763031 0.184601 0.054535
0.795349 0.189392 0.057648
0.837250 0.196747 0.061554
0.875061 0.204071 0.061249
0.913239 0.211334 0.065216
0.938690 0.218048 0.065033
0.938690 0.218048 0.065033
0.938690 0.218048 0.065033
0.018829 0.083252 0.045868
0.019226 0.083649 0.046265
0.014679 0.079285 0.041595
0.007416 0.073761 0.036713
0.004700 0.056885 0.034912
0.007172 0.057098 0.033203
0.056671 0.070953 0.020447
0.134583 0.082397 0.019012
0.201477 0.090240 0.015259
0.258575 0.098053 0.018372
0.301788 0.105652 0.022247
0.346710 0.113770 0.025482
0.382904 0.121643 0.026733
0.415314 0.125824 0.030731
0.448181 0.133148 0.033417
0.480225 0.138763 0.034515
0.505951 0.144684 0.036987
0.535309 0.150726 0.038361
0.562195 0.156067 0.042450
0.590393 0.162079 0.042206
0.614319 0.167358 0.044128
0.640564 0.173584 0.046051
0.670105 0.178528 0.047699
0.697693 0.182159 0.049896
0.727112 0.189117 0.051239
0.761230 0.194397 0.053619
0.793610 0.200500 0.057648
0.831329 0.208282 0.058044
0.875946 0.214996 0.061249
0.913605 0.222229 0.065216
0.938660 0.226166 0.065002
0.938690 0.225952 0.065033
0.938690 0.225952 0.065033
0.039703 0.116180 0.066162
0.039703 0.116180 0.066162
0.039703 0.119385 0.062134
0.031647 0.112305 0.050201
0.015106 0.104065 0.042267
0.007141 0.084625 0.038696
0.028809 0.083160 0.041046
0.099396 0.095520 0.032928
0.166870 0.106628 0.022827
0.230835 0.114685 0.014862
0.287415 0.118286 0.015198
0.339417 0.125977 0.019104
0.376923 0.131165 0.023102
0.414429 0.139008 0.026428
0.449280 0.145721 0.030457
0.478821 0.152893 0.033173
0.507141 0.157867 0.034302
0.533813 0.162262 0.036743
0.563660 0.167786 0.038116
0.590393 0.173767 0.040344
0.614441 0.178986 0.041992
0.640594 0.185150 0.043945
0.668976 0.190063 0.045837
0.697693 0.194244 0.047485
0.728882 0.203339 0.049652
0.760223 0.208130 0.053650
0.794189 0.214935 0.053375
0.835175 0.222839 0.057312
0.870422 0.226837 0.058258
0.912994 0.233704 0.060913
0.938660 0.240326 0.064972
0.938660 0.240326 0.065002
0.938660 0.240326 0.065002
0.057526 0.149170 0.083496
0.057495 0.148499 0.083466
0.056946 0.148407 0.082947
0.053162 0.148804 0.071167
0.044464 0.147980 0.050476
0.026886 0.132660 0.036743
0.021820 0.104828 0.053101
0.080048 0.103546 0.054199
0.133423 0.119324 0.049713
0.199432 0.134552 0.032104
0.266571 0.138794 0.015778
0.321594 0.142914 0.014252
0.369995 0.147278 0.018097
0.411041 0.156647 0.021210
0.446259 0.161011 0.025116
0.478271 0.166504 0.028992
0.507660 0.172241 0.030823
0.536713 0.177887 0.033997
0.564209 0.181641 0.036499
0.588959 0.186920 0.037903
0.616119 0.194397 0.038513
0.640564 0.198700 0.041779
0.670135 0.205414 0.043701
0.697693 0.208893 0.045593
0.727356 0.215240 0.047211
0.759644 0.219666 0.049377
0.793610 0.226898 0.053375
0.831421 0.234039 0.053741
0.869293 0.241211 0.057068
0.913208 0.248199 0.060913
0.938660 0.252289 0.060699
0.938690 0.254333 0.060730
0.938690 0.255157 0.060730
0.078674 0.187561 0.104065
0.082031 0.189789 0.107330
0.082062 0.190674 0.107361
0.074799 0.184601 0.096558
0.073090 0.189758 0.085968
0.061005 0.182739 0.076141
0.044220 0.159668 0.058624
0.079224 0.132233 0.054993
0.121552 0.127777 0.068878
0.172302 0.142303 0.061218
0.240784 0.161346 0.044006
0.303131 0.170288 0.021271
0.362701 0.175873 0.014587
0.407532 0.174622 0.017029
0.443512 0.180664 0.018494
0.478516 0.185181 0.022552
0.506897 0.186890 0.026611
0.536194 0.193329 0.029724
0.562988 0.197418 0.032318
0.589050 0.202301 0.033600
0.616119 0.208221 0.035950
0.640594 0.211914 0.037506
0.668976 0.216705 0.039551
0.697693 0.223999 0.041321
0.728668 0.229492 0.045349
0.763336 0.234589 0.046936
0.797363 0.241791 0.049042
0.831390 0.248047 0.050385
0.870880 0.253448 0.053650
0.909790 0.259186 0.056671
0.938690 0.266876 0.057434
0.938690 0.266876 0.057434
0.938690 0.266876 0.057434
0.103882 0.228577 0.128601
0.102966 0.227753 0.127686
0.103088 0.227844 0.127808
0.102783 0.228210 0.126923
0.099121 0.228607 0.119324
0.080048 0.228394 0.110748
0.051575 0.217255 0.087982
0.109741 0.190277 0.053711
0.128815 0.152832 0.080200
0.168365 0.151215 0.082001
0.217194 0.163940 0.073334
0.284149 0.188263 0.056244
0.351746 0.202423 0.032837
0.399292 0.207245 0.017914
0.442108 0.205353 0.013245
0.476990 0.211090 0.016357
0.509369 0.209839 0.020264
0.537567 0.211517 0.024170
0.563751 0.215179 0.026245
0.589508 0.220367 0.029297
0.616119 0.224792 0.031769
0.640564 0.228271 0.033173
0.668976 0.233398 0.035370
0.697693 0.238953 0.037018
0.728516 0.246063 0.041046
0.760468 0.249481 0.042786
0.794312 0.253510 0.044800
0.834595 0.263519 0.048737
0.871185 0.268219 0.050079
0.907623 0.276581 0.052429
0.938660 0.280548 0.056427
0.938660 0.280548 0.056458
0.938660 0.280548 0.056458
0.127350 0.271820 0.151398
0.127350 0.271820 0.151398
0.127350 0.271820 0.151398
0.127350 0.271820 0.151398
0.126678 0.270630 0.146759
0.114685 0.268799 0.139374
0.093048 0.266968 0.130554
0.121948 0.256805 0.103973
0.164703 0.219269 0.083069
0.163940 0.173431 0.090240
0.215027 0.175842 0.091095
0.271027 0.193512 0.085388
0.331207 0.214569 0.069611
0.391907 0.232208 0.043518
0.440796 0.243530 0.026337
0.480682 0.242035 0.012939
0.515564 0.242676 0.011749
0.545227 0.243256 0.015625
0.569641 0.244110 0.017731
0.593903 0.242371 0.021851
0.617310 0.246185 0.024780
0.641937 0.247284 0.027252
0.668976 0.251862 0.029846
0.697693 0.256409 0.032715
0.726654 0.260803 0.034760
0.760437 0.267853 0.037689
0.795349 0.273804 0.040466
0.834045 0.280151 0.044464
0.870300 0.285461 0.045929
0.911438 0.294495 0.049347
0.938690 0.295166 0.051941
0.938690 0.298462 0.049255
0.938690 0.297546 0.049133
0.155548 0.314789 0.178833
0.152771 0.312317 0.176117
0.155548 0.314789 0.178833
0.155548 0.314789 0.177948
0.154266 0.314789 0.174133
0.147491 0.314850 0.170349
0.112183 0.311523 0.166748
0.067535 0.311218 0.151306
0.190430 0.300659 0.098969
0.220459 0.249634 0.105286
0.223907 0.206879 0.106262
0.266235 0.205353 0.103088
0.324097 0.222229 0.097107
0.382629 0.245300 0.083008
0.436218 0.267181 0.060913
0.482300 0.279877 0.037445
0.515625 0.281281 0.020752
0.548492 0.280731 0.008057
0.577087 0.279694 0.009186
0.599213 0.277985 0.012115
0.623199 0.274414 0.016052
0.647888 0.275360 0.018677
0.672607 0.276337 0.021332
0.697693 0.279816 0.025421
0.726654 0.281616 0.029510
0.759674 0.287781 0.030212
0.795502 0.291809 0.034058
0.834045 0.298096 0.037903
0.871399 0.305450 0.041199
0.913605 0.309753 0.043823
0.938690 0.315308 0.044952
0.938690 0.315308 0.044952
0.938690 0.315308 0.044952
0.181793 0.360260 0.204346
0.181793 0.360260 0.204346
0.181793 0.360260 0.204346
0.181793 0.360260 0.204346
0.181793 0.360260 0.201782
0.178436 0.359650 0.200500
0.157562 0.359253 0.197510
0.115143 0.356873 0.189178
0.175201 0.349396 0.153839
0.267639 0.332855 0.099518
0.273682 0.282043 0.119690
0.276245 0.239349 0.118134
0.317169 0.235229 0.113617
0.375916 0.252869 0.108978
0.427826 0.276489 0.094940
0.476776 0.298767 0.077484
0.516876 0.313599 0.054077
0.550110 0.320923 0.032532
0.582458 0.322174 0.013977
0.607056 0.321198 0.005829
0.631317 0.317413 0.004517
0.653748 0.314850 0.008667
0.678741 0.313507 0.011292
0.702728 0.310852 0.015289
0.730377 0.310608 0.019226
0.760925 0.312378 0.023132
0.795593 0.315552 0.025543
0.832764 0.320007 0.029449
0.869598 0.326324 0.033295
0.913574 0.329803 0.037109
0.938690 0.336426 0.039307
0.938690 0.336426 0.039307
0.938690 0.336426 0.039307
0.208740 0.404816 0.230560
0.208740 0.404816 0.230560
0.208740 0.404816 0.230560
0.208740 0.404816 0.230560
0.208740 0.404816 0.230560
0.206299 0.404846 0.228180
0.195312 0.403625 0.226837
0.153625 0.401794 0.220367
0.126770 0.398132 0.202362
0.257385 0.389862 0.143433
0.323425 0.364594 0.122406
0.326569 0.313904 0.133911
0.330597 0.272247 0.131317
0.368011 0.266815 0.125336
0.423096 0.282745 0.118469
0.474396 0.308533 0.108643
0.512848 0.328430 0.096069
0.555206 0.349091 0.071228
0.587433 0.359131 0.045715
0.612457 0.363068 0.027618
0.638336 0.362854 0.011078
0.660858 0.359192 0.004028
0.684631 0.355408 0.004211
0.709961 0.351685 0.003998
0.737762 0.349274 0.008118
0.765686 0.347687 0.012177
0.799744 0.345215 0.016235
0.831390 0.348480 0.020935
0.868256 0.349915 0.024841
0.913574 0.354309 0.028595
0.938660 0.357513 0.032318
0.938660 0.357269 0.032318
0.938690 0.358612 0.032349
0.235168 0.448700 0.256256
0.235168 0.448700 0.256256
0.235168 0.452789 0.256256
0.235168 0.448700 0.256256
0.235168 0.448700 0.256256
0.233551 0.449249 0.254669
0.228271 0.449554 0.254120
0.192200 0.445618 0.249939
0.139221 0.442657 0.242401
0.222595 0.438507 0.199768
0.334351 0.428772 0.092010
0.378326 0.397949 0.138947
0.378418 0.348755 0.149323
0.378693 0.306580 0.141388
0.415436 0.299011 0.138763
0.461487 0.312714 0.132782
0.512207 0.339722 0.125946
0.554932 0.360474 0.108521
0.589722 0.379944 0.089508
0.620117 0.395996 0.069092
0.644623 0.401215 0.041046
0.667938 0.403809 0.021484
0.691833 0.400177 0.010651
0.714569 0.397583 0.003723
0.741516 0.394012 0.002136
0.769348 0.390411 0.003662
0.801849 0.385345 0.004181
0.836212 0.384552 0.008118
0.870056 0.382690 0.013733
0.913574 0.384094 0.017578
0.938660 0.383575 0.023834
0.938660 0.383759 0.023682
0.938660 0.383575 0.023834
0.262848 0.495605 0.283173
0.259094 0.488831 0.279510
0.260498 0.491364 0.280884
0.259094 0.488831 0.279510
0.259094 0.488831 0.279510
0.261200 0.492645 0.281586
0.252960 0.488861 0.279541
0.231750 0.490997 0.278137
0.186707 0.487732 0.272949
0.163544 0.482239 0.252625
0.296478 0.475342 0.192627
0.399231 0.465179 0.137268
0.427704 0.429291 0.161896
0.426178 0.384125 0.163025
0.425751 0.338104 0.152893
0.461792 0.332581 0.150452
0.504425 0.346130 0.146423
0.545013 0.364410 0.138245
0.588287 0.391235 0.124542
0.618561 0.410400 0.105774
0.648224 0.425751 0.083069
0.673859 0.436401 0.059631
0.699036 0.443787 0.039368
0.721832 0.441589 0.020081
0.747284 0.436951 0.005859
0.776245 0.437531 0.001862
0.806580 0.431152 0.001617
0.840607 0.429260 0.001343
0.874237 0.425201 0.002930
0.910156 0.418457 0.003052
0.938660 0.418427 0.010742
0.938660 0.418182 0.011017
0.938660 0.423126 0.008545
0.281128 0.528870 0.300964
0.282776 0.531830 0.302551
0.281128 0.528870 0.300964
0.282501 0.531372 0.302277
0.281128 0.528870 0.300964
0.283691 0.531708 0.303436
0.278107 0.528900 0.300995
0.265991 0.531525 0.303802
0.219147 0.531097 0.299774
0.128571 0.527344 0.290558
0.262634 0.518799 0.245605
0.388947 0.508270 0.151672
0.462433 0.499939 0.159119
0.472076 0.459900 0.180206
0.464935 0.408691 0.174072
0.472107 0.372864 0.168335
0.502655 0.365417 0.164124
0.544861 0.375061 0.161804
0.582916 0.395111 0.153992
0.618225 0.417267 0.141815
0.650726 0.438202 0.124176
0.676697 0.457153 0.100861
0.702606 0.468353 0.076172
0.728973 0.475677 0.053101
0.754639 0.478149 0.030640
0.784119 0.480469 0.011108
0.810730 0.472778 0.003082
0.839874 0.469238 0.001343
0.879242 0.468597 0.001007
0.911774 0.458923 0.000732
0.938660 0.458679 0.000488
0.938660 0.458679 0.000488
0.938690 0.460541 0.000519
0.304779 0.568939 0.323944
0.302887 0.567230 0.322113
0.302887 0.567230 0.322113
0.306213 0.570312 0.325348
0.306091 0.570190 0.325226
0.303497 0.567780 0.322693
0.302460 0.569580 0.324585
0.291626 0.570007 0.325012
0.263062 0.569275 0.321564
0.189911 0.564728 0.317871
0.221344 0.558716 0.289673
0.358856 0.552063 0.222839
0.455139 0.543365 0.132843
0.508606 0.528137 0.179871
0.517395 0.490082 0.195007
0.509460 0.442261 0.189301
0.512909 0.401428 0.179596
0.538452 0.392639 0.177521
0.577484 0.403687 0.175079
0.611237 0.422089 0.167236
0.647766 0.445526 0.157623
0.678497 0.465424 0.143494
0.705444 0.485352 0.122314
0.731628 0.499146 0.095764
0.759155 0.509796 0.067566
0.787750 0.516266 0.042999
0.816223 0.514801 0.017181
0.846039 0.513855 0.004944
0.878296 0.508392 0.001007
0.913208 0.505310 0.000702
0.938690 0.500671 0.000519
0.938690 0.500671 0.000519
0.938690 0.500671 0.000519
0.326324 0.606140 0.344910
0.326202 0.604279 0.343140
0.326111 0.604065 0.343018
0.326355 0.606140 0.344910
0.324860 0.603302 0.343475
0.324402 0.602448 0.343018
0.322723 0.603210 0.344269
0.315094 0.603607 0.344238
0.290466 0.604584 0.343292
0.234344 0.600708 0.339325
0.171204 0.596069 0.323517
0.326477 0.588196 0.270844
0.437653 0.577148 0.179108
0.512390 0.573425 0.146362
0.549774 0.553314 0.205383
0.553711 0.511963 0.208160
0.545319 0.467041 0.200592
0.548584 0.431427 0.192657
0.576324 0.424530 0.192657
0.608032 0.432770 0.188721
0.641022 0.450470 0.182587
0.674988 0.471710 0.171021
0.705444 0.492035 0.155090
0.736511 0.513702 0.135986
0.760925 0.529144 0.108917
0.793365 0.543091 0.081818
0.819672 0.548981 0.054504
0.849030 0.549042 0.028870
0.882996 0.546387 0.007996
0.913574 0.545868 0.000702
0.938690 0.542145 0.000519
0.938690 0.540558 0.000519
0.938690 0.542572 0.000519
0.344116 0.638306 0.362213
0.342438 0.635162 0.360565
0.344116 0.638306 0.362213
0.342224 0.634918 0.360352
0.342102 0.634827 0.360229
0.344086 0.635223 0.360657
0.341217 0.635254 0.362213
0.336487 0.638367 0.362274
0.315704 0.634827 0.361359
0.272644 0.633881 0.359253
0.152344 0.634003 0.353455
0.274414 0.624634 0.316284
0.415466 0.614685 0.232178
0.507202 0.607758 0.110138
0.562469 0.599457 0.186554
0.588928 0.580811 0.223206
0.586761 0.537170 0.221222
0.581299 0.491821 0.213501
0.582794 0.459747 0.205872
0.609467 0.451172 0.205658
0.639496 0.459290 0.201538
0.669434 0.475861 0.196075
0.702484 0.496460 0.185394
0.730865 0.518097 0.170593
0.762909 0.539093 0.153839
0.789642 0.554993 0.123932
0.820007 0.569580 0.095062
0.853058 0.579712 0.063843
0.880890 0.578918 0.037109
0.912231 0.580170 0.011780
0.938690 0.576111 0.004303
0.938690 0.576111 0.004303
0.938660 0.578003 0.004272
0.358215 0.666412 0.375916
0.359680 0.667816 0.377319
0.359680 0.667816 0.377319
0.359680 0.666046 0.377319
0.359711 0.667389 0.377350
0.359680 0.666290 0.377319
0.358917 0.667847 0.379456
0.354126 0.667877 0.379486
0.337280 0.667145 0.378754
0.300598 0.666199 0.376373
0.221680 0.665436 0.373657
0.235718 0.658600 0.350647
0.379761 0.646423 0.292053
0.489624 0.637970 0.190369
0.562592 0.636078 0.154846
0.607025 0.629364 0.225800
0.623627 0.602905 0.243073
0.619904 0.562622 0.235931
0.614441 0.520233 0.228271
0.615906 0.486115 0.220734
0.637604 0.480896 0.218994
0.665833 0.487274 0.216492
0.697784 0.502441 0.207733
0.727600 0.522369 0.201050
0.759521 0.541840 0.185913
0.791840 0.566498 0.166870
0.820190 0.584503 0.138916
0.850769 0.599182 0.107910
0.881989 0.606598 0.076233
0.914429 0.608734 0.045715
0.934814 0.612000 0.026581
0.934814 0.612000 0.026581
0.934814 0.612000 0.026581
0.375824 0.695679 0.393036
0.375824 0.695679 0.393036
0.375824 0.695679 0.393036
0.375824 0.695679 0.393036
0.375824 0.695679 0.393036
0.375275 0.695099 0.392487
0.375824 0.695679 0.393036
0.369476 0.695740 0.393097
0.357574 0.694489 0.393188
0.327240 0.696075 0.393433
0.258575 0.691986 0.391602
0.163483 0.689270 0.375214
0.337830 0.679504 0.332581
0.463501 0.671509 0.253387
0.547180 0.665833 0.138794
0.609344 0.660461 0.202271
0.645569 0.656158 0.249603
0.653748 0.623444 0.257599
0.648254 0.588165 0.252625
0.644531 0.550842 0.242889
0.645966 0.514557 0.235443
0.665924 0.507568 0.231506
0.694458 0.512665 0.231293
0.723450 0.528687 0.223785
0.755859 0.547272 0.215027
0.788239 0.570618 0.198608
0.821686 0.590607 0.180756
0.850647 0.609344 0.152344
0.882996 0.624878 0.117462
0.913239 0.633698 0.084717
0.934814 0.638000 0.064545
0.934814 0.638000 0.064545
0.934814 0.638000 0.061829
0.389771 0.723877 0.406586
0.389771 0.723877 0.406586
0.389771 0.723877 0.406586
0.389771 0.723877 0.406586
0.389282 0.723419 0.406128
0.389771 0.723877 0.406586
0.389771 0.723877 0.406586
0.384674 0.723907 0.407806
0.373810 0.723999 0.407898
0.349762 0.724182 0.408081
0.287994 0.722229 0.407410
0.132141 0.720001 0.397278
0.295197 0.711578 0.361847
0.439423 0.700928 0.300323
0.532837 0.692719 0.205688
0.596344 0.689850 0.158844
0.645752 0.687622 0.231232
0.679047 0.678253 0.271088
0.678284 0.645050 0.272034
0.676422 0.609344 0.268188
0.671692 0.572205 0.257446
0.673065 0.540985 0.250031
0.696869 0.532806 0.246124
0.720795 0.539276 0.245911
0.755096 0.554749 0.238464
0.782135 0.571838 0.227448
0.818634 0.594635 0.212128
0.851746 0.614868 0.192719
0.879700 0.632233 0.166382
0.910706 0.649689 0.132141
0.934814 0.656250 0.106049
0.934814 0.656250 0.106018
0.934814 0.656250 0.106018
0.403564 0.752289 0.420013
0.405914 0.754669 0.422302
0.403564 0.752289 0.420013
0.403564 0.752289 0.420013
0.403564 0.752289 0.420013
0.403564 0.752289 0.420013
0.405365 0.754089 0.422821
0.400818 0.752319 0.423492
0.392822 0.752411 0.423584
0.369843 0.752594 0.423767
0.323120 0.749359 0.422852
0.224762 0.747772 0.415802
0.262634 0.740326 0.391785
0.419342 0.731873 0.334473
0.516754 0.722351 0.259064
0.584686 0.717407 0.164124
0.641052 0.714081 0.192017
0.683838 0.711517 0.260498
0.705933 0.698761 0.288239
0.707672 0.666809 0.289917
0.701782 0.629883 0.282501
0.698090 0.595825 0.271851
0.700653 0.566528 0.264526
0.720886 0.559479 0.260620
0.749847 0.565643 0.260376
0.778351 0.578583 0.253052
0.811768 0.595184 0.242096
0.848633 0.618835 0.226929
0.875427 0.638000 0.207275
0.912018 0.658447 0.174316
0.931000 0.669067 0.151733
0.931000 0.669067 0.151703
0.931000 0.669067 0.151703
0.419952 0.783630 0.435944
0.417419 0.781036 0.433472
0.417419 0.781036 0.433472
0.418396 0.782043 0.434418
0.417419 0.781036 0.433472
0.418396 0.781006 0.433441
0.418091 0.781036 0.436890
0.417419 0.783905 0.436890
0.406158 0.781128 0.436981
0.388794 0.778625 0.437134
0.349274 0.777893 0.437439
0.264923 0.776245 0.433502
0.207642 0.773132 0.416077
0.365875 0.760956 0.373901
0.489105 0.752747 0.311340
0.569672 0.746857 0.221588
0.633881 0.743713 0.152649
0.682800 0.739685 0.236298
0.718811 0.739227 0.288971
0.736725 0.720428 0.307465
0.734222 0.686462 0.304016
0.730621 0.653839 0.296906
0.727051 0.619476 0.287140
0.727173 0.592377 0.278870
0.749847 0.583679 0.276062
0.781311 0.591675 0.274963
0.808350 0.602356 0.267487
0.841614 0.621674 0.256134
0.877533 0.641968 0.238861
0.907654 0.662079 0.219208
0.927124 0.675110 0.198425
0.927124 0.675110 0.203979
0.927124 0.675110 0.198425
0.432098 0.809937 0.446899
0.432098 0.809937 0.446899
0.434448 0.813354 0.450043
0.432098 0.810852 0.447754
0.432098 0.809937 0.446899
0.434174 0.813049 0.449768
0.434662 0.812897 0.451111
0.431976 0.810730 0.450287
0.425110 0.812775 0.452911
0.407013 0.809418 0.451477
0.374268 0.806702 0.450775
0.305145 0.807281 0.451355
0.179810 0.802338 0.437408
0.324707 0.794769 0.404816
0.461029 0.785522 0.354675
0.549927 0.778534 0.282135
0.617004 0.772461 0.183655
0.672913 0.768372 0.167114
0.712585 0.768036 0.258148
0.751617 0.768127 0.310181
0.769897 0.750671 0.328552
0.763458 0.709625 0.322449
0.761505 0.680237 0.317902
0.752655 0.643341 0.304810
0.754456 0.615112 0.295776
0.781311 0.608948 0.295654
0.810577 0.615356 0.289185
0.841614 0.629059 0.282288
0.871155 0.642914 0.270996
0.904602 0.665619 0.256348
0.926178 0.678650 0.238831
0.926178 0.678650 0.241638
0.926178 0.678650 0.238831
0.448395 0.841888 0.463593
0.449158 0.842621 0.463623
0.448395 0.838959 0.463593
0.448395 0.838959 0.463593
0.449127 0.840271 0.463593
0.448395 0.838959 0.463593
0.448425 0.841217 0.465637
0.445648 0.839783 0.464355
0.438843 0.841980 0.467102
0.424194 0.839172 0.467224
0.395111 0.837708 0.467468
0.336914 0.836182 0.466431
0.229462 0.833374 0.458496
0.279358 0.828522 0.433746
0.422516 0.819336 0.390533
0.523438 0.810425 0.333557
0.599884 0.803345 0.251251
0.660248 0.802032 0.162964
0.705597 0.796936 0.212006
0.749054 0.798615 0.291962
0.783264 0.791382 0.333374
0.795837 0.772583 0.345886
0.789978 0.735840 0.340057
0.788544 0.702454 0.335297
0.782227 0.667511 0.322174
0.785858 0.640533 0.312256
0.807404 0.632599 0.313324
0.834869 0.637177 0.307678
0.870300 0.652435 0.299805
0.900909 0.669220 0.288391
0.922455 0.679443 0.275543
0.922455 0.679443 0.276337
0.922455 0.679443 0.275513
0.462097 0.868256 0.476929
0.464813 0.871155 0.479584
0.462708 0.868896 0.477509
0.465576 0.871948 0.480316
0.464478 0.870758 0.479218
0.462738 0.868256 0.476929
0.463379 0.868927 0.480347
0.462097 0.870453 0.480347
0.454071 0.869263 0.480438
0.443176 0.872101 0.483887
0.418915 0.869263 0.481323
0.371338 0.868988 0.483307
0.277527 0.865112 0.476959
0.219604 0.861298 0.458466
0.386658 0.852509 0.422760
0.501709 0.844818 0.374939
0.578400 0.835602 0.313080
0.644196 0.833160 0.217468
0.697449 0.828308 0.106628
0.741638 0.827148 0.245911
0.782104 0.825989 0.315887
0.812958 0.818237 0.354126
0.823090 0.795349 0.363068
0.822021 0.762512 0.359680
0.819061 0.727753 0.353210
