cube滤镜(3D LUT)/Lava.cube
# Created by: Lutify.me
# Copyright: (c) Copyright Lutify.me 2015
# Website: https://lutify.me
#LUT size
LUT_3D_SIZE 5
#LUT data points
0.000000 0.000000 0.000000
0.205841 0.031403 0.022766
0.512878 0.087646 0.042847
0.738708 0.146759 0.053833
0.938660 0.187836 0.065002
0.103882 0.228577 0.128601
0.128815 0.152832 0.080200
0.509369 0.209839 0.020264
0.728516 0.246063 0.041046
0.938660 0.280548 0.056458
0.304779 0.568939 0.323944
0.263062 0.569275 0.321564
0.512909 0.401428 0.179596
0.759155 0.509796 0.067566
0.938690 0.500671 0.000519
0.432098 0.809937 0.446899
0.425110 0.812775 0.452911
0.617004 0.772461 0.183655
0.754456 0.615112 0.295776
0.926178 0.678650 0.238831
0.523224 0.943787 0.536377
0.517151 0.943817 0.536407
0.459076 0.944336 0.467133
0.905090 0.936859 0.408569
0.915619 0.750824 0.396362
0.043945 0.132141 0.209839
0.126709 0.009399 0.242615
0.523254 0.038452 0.144501
0.772247 0.057861 0.057861
0.938690 0.073517 0.065033
0.006470 0.222839 0.241882
0.135986 0.233063 0.251953
0.514587 0.258179 0.174622
0.740570 0.306793 0.173737
0.938690 0.343628 0.168182
0.239532 0.558380 0.128510
0.248932 0.564270 0.156891
0.518066 0.471802 0.300446
0.739624 0.504028 0.178711
0.938660 0.487885 0.150146
0.383789 0.799255 0.314240
0.398773 0.804626 0.358704
0.504211 0.784454 0.284149
0.760071 0.664062 0.387238
0.931000 0.732513 0.286133
0.482452 0.944122 0.434448
0.496399 0.944031 0.466858
0.290924 0.945709 0.492401
0.859192 0.937225 0.391602
0.919464 0.793884 0.469299
0.143158 0.334198 0.483398
0.079529 0.142059 0.503510
0.526733 0.003937 0.548340
0.771301 0.024536 0.519928
0.934814 0.047943 0.439301
0.111206 0.418610 0.526245
0.208771 0.420380 0.508392
0.524139 0.217438 0.544037
0.772247 0.213470 0.490967
0.934814 0.217865 0.403992
0.000641 0.539917 0.541656
0.129852 0.544800 0.544800
0.518066 0.550140 0.555237
0.738708 0.539764 0.486176
0.938690 0.575684 0.488739
0.196045 0.780518 0.539917
0.195068 0.783295 0.536591
0.432953 0.791504 0.470764
0.767578 0.718475 0.583069
0.938690 0.753357 0.504059
0.326599 0.945435 0.509094
0.347260 0.945251 0.494476
0.295563 0.945679 0.366608
0.775055 0.941711 0.479004
0.923309 0.844849 0.627625
0.215485 0.493835 0.691620
0.184265 0.365784 0.686584
0.520630 0.003937 0.769592
0.771332 0.001923 0.766663
0.934814 0.000549 0.765289
0.182312 0.585358 0.729675
0.279846 0.576843 0.712616
0.487701 0.222504 0.761658
0.773224 0.211548 0.768463
0.934814 0.214050 0.764343
0.099670 0.650146 0.761230
0.242371 0.664825 0.753662
0.557220 0.680817 0.736481
0.771301 0.540314 0.766632
0.934814 0.538971 0.730682
0.000000 0.767487 0.764740
0.132935 0.775543 0.772827
0.525024 0.773224 0.769592
0.760071 0.775848 0.774933
0.938660 0.785400 0.752411
0.127777 0.947083 0.771973
0.089111 0.947388 0.770447
0.470398 0.944244 0.760925
0.714661 0.942200 0.711700
0.931000 0.895294 0.793793
0.275177 0.620819 0.852051
0.234711 0.465546 0.830048
0.452087 0.060455 0.931152
0.767609 0.001923 0.941772
0.934814 0.000549 0.940399
0.256531 0.711914 0.885864
0.341919 0.699524 0.870178
0.276123 0.357056 0.856689
0.768494 0.215393 0.941742
0.934784 0.213074 0.940369
0.202881 0.765839 0.918213
0.339203 0.779388 0.907715
0.596649 0.790100 0.886749
0.765717 0.542053 0.937103
0.934814 0.538147 0.940399
0.086975 0.829437 0.939850
0.232819 0.838440 0.935852
0.578186 0.857941 0.925415
0.791016 0.868286 0.908600
0.934784 0.768005 0.940369
0.000000 0.939850 0.939850
0.132904 0.946991 0.946991
0.526733 0.943787 0.943787
0.774139 0.941742 0.941742
0.938660 0.940338 0.940338
