cube滤镜(3D LUT)/Lepidolite.cube
# Created by: Lutify.me
# Copyright: (c) Copyright Lutify.me 2015
# Website: https://lutify.me
#LUT size
LUT_3D_SIZE 9
#LUT data points
0.000000 0.000000 0.000000
0.113312 0.002960 0.000000
0.230164 0.010529 0.000000
0.347046 0.023987 0.000000
0.463928 0.043976 0.000000
0.580780 0.066284 0.000000
0.697662 0.088562 0.000000
0.814545 0.110870 0.000000
0.931396 0.133148 0.000000
0.000000 0.111786 0.101196
0.117798 0.117584 0.000000
0.239410 0.116486 0.000000
0.354218 0.120850 0.000000
0.470978 0.126465 0.000000
0.586823 0.136047 0.000000
0.702606 0.148529 0.000000
0.818665 0.162842 0.000000
0.934937 0.178619 0.000000
0.000000 0.227631 0.209656
0.000000 0.238770 0.201996
0.237793 0.237457 0.000000
0.363892 0.234375 0.000000
0.478638 0.236664 0.000000
0.592987 0.241364 0.000000
0.709778 0.245850 0.000000
0.826569 0.251801 0.000000
0.942688 0.260223 0.000000
0.000000 0.343445 0.318115
0.000000 0.350220 0.316162
0.026825 0.368134 0.278290
0.357819 0.357300 0.000000
0.486542 0.353424 0.000000
0.603943 0.353607 0.000000
0.717804 0.356964 0.000000
0.831757 0.362000 0.000000
0.948547 0.366028 0.000000
0.000000 0.459290 0.426575
0.000000 0.464050 0.425201
0.000000 0.476135 0.418427
0.146454 0.496094 0.325073
0.477814 0.477173 0.000000
0.606934 0.473419 0.000000
0.728394 0.471588 0.000000
0.843292 0.473450 0.000000
0.956940 0.477325 0.000000
0.000000 0.575134 0.535065
0.000000 0.578735 0.533661
0.000000 0.587708 0.531128
0.000000 0.604858 0.507355
0.243591 0.625153 0.339142
0.597839 0.597015 0.000000
0.727234 0.593323 0.000000
0.851288 0.589539 0.000000
0.962952 0.587341 0.000000
0.000000 0.690948 0.643524
0.000000 0.693756 0.642212
0.000000 0.700684 0.640594
0.000000 0.713196 0.633270
0.028992 0.733490 0.582031
0.333893 0.751282 0.318298
0.712158 0.711212 0.000000
0.837067 0.704315 0.000000
0.956665 0.695648 0.000000
0.000000 0.797028 0.742859
0.000000 0.799072 0.741638
0.000000 0.804169 0.739624
0.000000 0.813080 0.734894
0.000000 0.827087 0.714905
0.181488 0.844513 0.632355
0.486603 0.849274 0.355621
0.809570 0.808502 0.000000
0.925842 0.796600 0.000000
0.000000 0.886963 0.827057
0.000000 0.888336 0.825806
0.000000 0.891754 0.823090
0.000000 0.897614 0.818939
0.000000 0.906464 0.808258
0.000000 0.919922 0.768188
0.283783 0.930725 0.651001
0.602203 0.920105 0.381989
0.879150 0.877991 0.000000
0.000000 0.015198 0.018127
0.081909 0.026062 0.096222
0.238312 0.000000 0.112610
0.358734 0.000000 0.103912
0.478760 0.000000 0.094879
0.598938 0.000000 0.078583
0.719147 0.000061 0.051666
0.838379 0.005951 0.012848
0.952881 0.047607 0.000000
0.000000 0.117645 0.117645
0.097382 0.122925 0.118988
0.237396 0.121155 0.076569
0.368286 0.110718 0.051331
0.495758 0.096130 0.000000
0.606445 0.106934 0.000000
0.718658 0.121429 0.000000
0.832062 0.138153 0.000000
0.946289 0.156281 0.000000
0.000000 0.230469 0.218140
0.058868 0.238312 0.203247
0.231262 0.239563 0.112915
0.379303 0.229767 0.007721
0.496094 0.227600 0.000000
0.610626 0.228424 0.000000
0.724579 0.232330 0.000000
0.838409 0.239136 0.000000
0.952515 0.248291 0.000000
0.000000 0.345154 0.324066
0.000000 0.352539 0.314758
0.107269 0.366272 0.273621
0.353485 0.359497 0.080902
0.495544 0.351562 0.000000
0.614136 0.349762 0.000000
0.728546 0.351288 0.000000
0.844025 0.353394 0.000000
0.960083 0.356293 0.000000
0.000000 0.460449 0.431091
0.000000 0.465698 0.424133
0.000000 0.478088 0.413086
0.180847 0.495300 0.316132
0.475159 0.479370 0.010071
0.612915 0.472473 0.000000
0.735260 0.469513 0.000000
0.850494 0.470428 0.000000
0.964325 0.473389 0.000000
0.000000 0.575958 0.538666
0.000000 0.579926 0.533722
0.000000 0.589172 0.527771
0.007538 0.606171 0.503052
0.262024 0.624573 0.336823
0.596313 0.598602 0.000000
0.731110 0.592987 0.000000
0.856171 0.588287 0.000000
0.968079 0.585480 0.000000
0.000000 0.691589 0.646576
0.000000 0.694641 0.642731
0.000000 0.701782 0.638580
0.000000 0.714630 0.626892
0.083130 0.733307 0.578033
0.346680 0.750305 0.328400
0.711243 0.712311 0.000000
0.839569 0.704163 0.000000
0.960236 0.694763 0.000000
0.000000 0.797455 0.745453
0.000000 0.799713 0.742157
0.000000 0.804901 0.738495
0.000000 0.814117 0.730225
0.000000 0.827911 0.712341
0.213959 0.843842 0.627075
0.494141 0.848358 0.365051
0.808990 0.809174 0.000000
0.927399 0.796509 0.000000
0.000000 0.887177 0.829254
0.000000 0.888733 0.826233
0.000000 0.892212 0.822632
0.000000 0.898346 0.815308
0.000000 0.907196 0.804138
0.000000 0.920441 0.766235
0.300720 0.930176 0.646240
0.606598 0.919403 0.389557
0.878754 0.878418 0.000000
0.000000 0.052307 0.060455
0.000000 0.082672 0.097382
0.176971 0.079315 0.201233
0.358246 0.000000 0.233582
0.478882 0.000000 0.226624
0.599365 0.000000 0.216949
0.719360 0.000000 0.209595
0.839417 0.000000 0.200104
0.959534 0.000000 0.186462
0.000000 0.132507 0.142670
0.019928 0.146881 0.157227
0.139862 0.163208 0.201324
0.391479 0.075409 0.225861
0.529022 0.000000 0.199768
0.638641 0.000000 0.179962
0.751343 0.000000 0.161438
0.866089 0.000000 0.140381
0.982208 0.000000 0.112457
0.000000 0.237549 0.237549
0.003998 0.246613 0.244385
0.203186 0.246490 0.239807
0.355377 0.243530 0.178223
0.477631 0.243164 0.167267
0.605927 0.236115 0.150665
0.749329 0.207489 0.059143
0.869049 0.200317 0.000000
0.979309 0.209869 0.000000
0.000000 0.349731 0.335388
0.000000 0.356049 0.336884
0.174438 0.362213 0.306885
0.342499 0.361786 0.236572
0.500153 0.351166 0.162750
0.631744 0.342926 0.088501
0.753021 0.337799 0.009460
0.868103 0.336426 0.000000
0.981781 0.338013 0.000000
0.000000 0.463593 0.439941
0.000000 0.468384 0.437653
0.115112 0.477356 0.415131
0.232666 0.491882 0.342529
0.466217 0.481049 0.225433
0.621857 0.470917 0.120117
0.753448 0.463623 0.000000
0.870087 0.461548 0.000000
0.984406 0.461884 0.000000
0.000000 0.578308 0.545898
0.000000 0.582153 0.541901
0.000000 0.592041 0.528107
0.144043 0.604919 0.496124
0.301086 0.621918 0.358582
0.589264 0.600830 0.193451
0.740387 0.591919 0.041901
0.869049 0.584808 0.000000
0.981476 0.580322 0.000000
0.000000 0.693359 0.652496
0.000000 0.696350 0.649139
0.000000 0.704163 0.637482
0.000000 0.716980 0.625488
0.198944 0.730927 0.574066
0.378113 0.747803 0.349701
0.705231 0.714783 0.142029
0.846497 0.703522 0.000000
0.969360 0.692474 0.000000
0.000000 0.798706 0.750183
0.000000 0.800903 0.747192
0.000000 0.806641 0.737457
0.000000 0.815704 0.730194
0.000000 0.829987 0.705383
0.273865 0.842102 0.617859
0.512085 0.846191 0.388275
0.804504 0.811584 0.042664
0.931854 0.796082 0.000000
0.000000 0.887939 0.832947
0.000000 0.889435 0.830200
0.000000 0.893341 0.821960
0.000000 0.899353 0.815491
0.000000 0.908630 0.798553
0.045349 0.921082 0.759796
0.338715 0.928925 0.632812
0.619324 0.917358 0.407227
0.875366 0.880127 0.000000
0.000000 0.096313 0.107788
0.000000 0.117065 0.132111
0.000977 0.157227 0.187347
0.272003 0.134399 0.306244
0.478180 0.000000 0.353699
0.598907 0.000000 0.347778
0.719421 0.000000 0.340363
0.839996 0.000000 0.329895
0.959991 0.000000 0.323090
0.000000 0.156464 0.170410
0.000000 0.170166 0.185669
0.019348 0.198700 0.224518
0.219360 0.205322 0.317566
0.515686 0.022095 0.363647
0.635559 0.000000 0.345306
0.749908 0.000000 0.328125
0.865387 0.000000 0.314362
0.981689 0.000000 0.303223
0.000000 0.250183 0.263306
0.000000 0.258728 0.271973
0.116486 0.271729 0.281281
0.236084 0.285614 0.312225
0.485626 0.236969 0.319244
0.653778 0.182831 0.304352
0.805420 0.084930 0.263702
0.928650 0.000000 0.223236
1.000000 0.163116 0.254272
0.000000 0.357422 0.357422
0.000000 0.363220 0.362427
0.130890 0.370972 0.365631
0.309021 0.370056 0.360626
0.464966 0.367065 0.306793
0.596771 0.365875 0.259308
0.718048 0.365051 0.257690
0.845001 0.359375 0.244781
0.992554 0.330353 0.185699
0.000000 0.469299 0.453888
0.000000 0.473541 0.456635
0.005554 0.484711 0.455231
0.285217 0.485535 0.419678
0.452759 0.484497 0.354706
0.615692 0.473694 0.296295
0.749603 0.467255 0.236847
0.873199 0.462494 0.199402
0.996521 0.456421 0.160278
0.000000 0.582611 0.556702
0.000000 0.586029 0.556976
0.000000 0.594910 0.553894
0.245026 0.600647 0.516876
0.342163 0.617676 0.426819
0.578156 0.602844 0.354919
0.741760 0.591217 0.280060
0.882080 0.581299 0.155212
0.999390 0.573059 0.117523
0.000000 0.696625 0.661682
0.000000 0.699493 0.659607
0.000000 0.706604 0.655212
0.167389 0.715912 0.626434
0.285065 0.727112 0.585754
0.411926 0.744751 0.401947
0.694794 0.716339 0.334442
0.849182 0.702789 0.234772
0.985748 0.687866 0.032043
0.000000 0.800934 0.757782
0.000000 0.803101 0.755219
0.000000 0.808624 0.747650
0.000000 0.818604 0.729248
0.172272 0.828552 0.701935
0.339966 0.838715 0.624176
0.541199 0.842529 0.424530
0.795776 0.812531 0.293213
0.935394 0.795319 0.173065
0.000000 0.889313 0.838989
0.000000 0.890778 0.836548
0.000000 0.894562 0.829132
0.000000 0.901276 0.814270
0.000000 0.910553 0.796112
0.210602 0.918518 0.751526
0.384857 0.925415 0.646301
0.636230 0.914520 0.438080
0.868195 0.881104 0.235291
0.000000 0.140289 0.155121
0.000000 0.155426 0.172699
0.000000 0.188080 0.212219
0.027954 0.230957 0.281647
0.367065 0.189423 0.411255
0.598389 0.000000 0.472687
0.718750 0.000000 0.468994
0.839417 0.000000 0.462341
0.959991 0.000000 0.453949
0.000000 0.186707 0.203735
0.000000 0.198212 0.216553
0.000000 0.224243 0.249207
0.059479 0.259308 0.304810
0.325897 0.247803 0.412781
0.620331 0.047852 0.483978
0.747131 0.000000 0.472382
0.863708 0.000000 0.459351
0.981079 0.000000 0.445923
0.000000 0.269012 0.287659
0.000000 0.276794 0.296204
0.033813 0.294159 0.314392
0.123352 0.318207 0.348419
0.309906 0.321198 0.430359
0.595184 0.243317 0.455292
0.792450 0.103119 0.462067
0.923645 0.000000 0.436707
1.000000 0.158752 0.426056
0.000000 0.369080 0.383972
0.000000 0.374573 0.389282
0.003082 0.387939 0.402435
0.219971 0.396179 0.403839
0.332794 0.409760 0.426849
0.581940 0.372681 0.422607
0.766113 0.328827 0.403503
0.916016 0.287964 0.376129
0.990997 0.329773 0.398132
0.000000 0.477325 0.477325
0.000000 0.481384 0.480865
0.000000 0.491608 0.488617
0.264404 0.492493 0.485352
0.414825 0.493622 0.481445
0.573059 0.490875 0.429230
0.716187 0.487885 0.356750
0.836334 0.488251 0.350922
0.987854 0.462128 0.384033
0.000000 0.588989 0.572571
0.000000 0.592133 0.575043
0.000000 0.600220 0.579376
0.154449 0.610443 0.571228
0.402069 0.607147 0.539795
0.555664 0.608826 0.477539
0.730316 0.596436 0.415436
0.868195 0.588593 0.345764
0.990570 0.577087 0.360168
0.000000 0.701630 0.673676
0.000000 0.704254 0.674011
0.000000 0.710815 0.674835
0.010162 0.722656 0.668701
0.355988 0.722412 0.618500
0.444885 0.738647 0.522766
0.683167 0.718201 0.472504
0.848846 0.701935 0.400360
0.984100 0.687805 0.319794
0.000000 0.804443 0.767609
0.000000 0.806335 0.767517
0.000000 0.811218 0.765961
0.000000 0.820496 0.754822
0.296692 0.823517 0.717896
0.397858 0.833771 0.661591
0.535339 0.844513 0.481323
0.787598 0.812561 0.446716
0.935699 0.793213 0.367798
0.000000 0.891388 0.846985
0.000000 0.892822 0.844818
0.000000 0.896301 0.840363
0.000000 0.902313 0.832336
0.204163 0.907745 0.796814
0.314514 0.913483 0.764832
0.442902 0.919800 0.670410
0.653717 0.909576 0.522278
0.855804 0.881622 0.408356
0.000000 0.184265 0.202423
0.000000 0.195892 0.215912
0.000000 0.222412 0.247192
0.000000 0.261780 0.298706
0.106628 0.301117 0.382690
0.462128 0.244476 0.516266
0.718231 0.000000 0.592926
0.838593 0.000000 0.589813
0.959442 0.000000 0.582947
0.000000 0.221130 0.241180
0.000000 0.230774 0.251892
0.000000 0.253235 0.279053
0.000000 0.287964 0.324219
0.114594 0.324402 0.391113
0.432617 0.291138 0.514801
0.733978 0.052216 0.602966
0.861267 0.000000 0.595703
0.979462 0.000000 0.583588
0.000000 0.292816 0.315216
0.000000 0.299896 0.323120
0.000000 0.316986 0.342010
0.014130 0.343872 0.378479
0.155548 0.372101 0.423065
0.383362 0.365784 0.538879
0.705658 0.254517 0.579803
0.916992 0.000000 0.602692
1.000000 0.151154 0.575836
0.000000 0.385376 0.407715
0.000000 0.390533 0.413208
0.000000 0.403259 0.426666
0.144745 0.418427 0.439331
0.223083 0.440765 0.471252
0.387665 0.449615 0.517609
0.670349 0.395905 0.545990
0.898010 0.301697 0.563202
0.988586 0.330200 0.553467
0.000000 0.488403 0.504486
0.000000 0.492310 0.508179
0.000000 0.502045 0.517303
0.122681 0.514923 0.527985
0.332397 0.519104 0.525055
0.436371 0.532776 0.545471
0.686859 0.500336 0.523132
0.893463 0.453308 0.486145
0.985687 0.461823 0.546631
0.000000 0.597198 0.597229
0.000000 0.600281 0.599884
0.000000 0.607971 0.606476
0.107666 0.618896 0.612518
0.385437 0.614197 0.604980
0.520660 0.617188 0.602264
0.678680 0.615143 0.548157
0.827942 0.608337 0.480957
0.973663 0.585114 0.522919
0.000000 0.708282 0.691071
0.000000 0.710693 0.693085
0.000000 0.716797 0.698059
0.000000 0.727264 0.701080
0.286194 0.731842 0.679871
0.512848 0.723907 0.656647
0.647675 0.726624 0.593079
0.832581 0.708130 0.519379
0.976746 0.688995 0.494751
0.000000 0.809204 0.780029
0.000000 0.811005 0.780548
0.000000 0.815552 0.781891
0.000000 0.823669 0.781433
0.187866 0.831635 0.766541
0.449951 0.828430 0.711700
0.542328 0.840210 0.618866
0.773773 0.814301 0.569458
0.937744 0.790649 0.497803
0.000000 0.894348 0.856476
0.000000 0.895569 0.856171
0.000000 0.898651 0.855103
0.000000 0.904083 0.852173
0.034424 0.912720 0.833893
0.331604 0.912720 0.797180
0.464569 0.916199 0.726990
0.663605 0.904724 0.624817
0.843781 0.880859 0.552429
0.000000 0.228241 0.249756
0.000000 0.237549 0.260498
0.000000 0.259399 0.286072
0.000000 0.293610 0.327515
0.000000 0.336548 0.389038
0.185272 0.368622 0.492035
0.557190 0.299530 0.621277
0.836548 0.009247 0.713135
0.958557 0.000000 0.709778
0.000000 0.258301 0.281372
0.000000 0.266449 0.290405
0.000000 0.285767 0.313416
0.000000 0.316650 0.351532
0.000000 0.356415 0.408386
0.180511 0.389801 0.487305
0.533936 0.337952 0.619110
0.845062 0.077454 0.719482
0.977142 0.000000 0.716797
0.000000 0.320679 0.346283
0.000000 0.327057 0.353363
0.000000 0.342529 0.370636
0.000000 0.367828 0.402832
0.020660 0.401276 0.449280
0.204559 0.430145 0.507233
0.466064 0.414520 0.634186
0.817566 0.268036 0.700287
1.000000 0.138611 0.718750
0.000000 0.405701 0.432739
0.000000 0.410522 0.438080
0.000000 0.422424 0.451080
0.042053 0.441528 0.471466
0.135712 0.465363 0.504028
0.251190 0.490540 0.542694
0.480743 0.479401 0.656982
0.789093 0.403564 0.674805
0.983398 0.332916 0.696167
0.000000 0.503235 0.528442
0.000000 0.506958 0.532379
0.000000 0.516235 0.541962
0.002625 0.532227 0.558380
0.244568 0.543427 0.563324
0.321106 0.564575 0.593201
0.485535 0.571564 0.630524
0.757843 0.531158 0.639313
0.982117 0.461487 0.691498
0.000000 0.607941 0.624817
0.000000 0.610901 0.627594
0.000000 0.618347 0.634491
0.000000 0.631378 0.646149
0.242279 0.640442 0.651123
0.443878 0.641907 0.645660
0.540375 0.655487 0.663879
0.787689 0.625793 0.611328
0.969360 0.584503 0.671478
0.000000 0.716370 0.716400
0.000000 0.718567 0.718292
0.000000 0.724121 0.722992
0.000000 0.733948 0.730133
0.252808 0.739227 0.729553
0.498077 0.730194 0.718811
0.619080 0.732147 0.714691
0.801270 0.718689 0.640930
0.960449 0.694855 0.627563
0.000000 0.815002 0.797791
0.000000 0.816681 0.799164
0.000000 0.820892 0.802551
0.000000 0.828308 0.807495
0.065277 0.838593 0.804901
0.390137 0.836914 0.774536
0.593201 0.826660 0.752777
0.737854 0.820251 0.699707
0.932983 0.789703 0.623535
0.000000 0.897980 0.869019
0.000000 0.899048 0.869720
0.000000 0.901855 0.870636
0.000000 0.906860 0.871033
0.000000 0.914795 0.863251
0.224670 0.919373 0.848602
0.443176 0.917786 0.787842
0.654205 0.904419 0.707550
0.843262 0.877533 0.659851
0.000000 0.272217 0.297089
0.000000 0.279877 0.305908
0.000000 0.298248 0.327271
0.000000 0.327881 0.362549
0.000000 0.366821 0.412262
0.008270 0.411499 0.482239
0.263794 0.433960 0.607574
0.652252 0.354584 0.726288
0.952820 0.022278 0.832550
0.000000 0.297302 0.323456
0.000000 0.304230 0.331146
0.000000 0.320953 0.350861
0.000000 0.348297 0.383850
0.000000 0.384827 0.430145
0.015533 0.426941 0.497375
0.259735 0.452301 0.599091
0.632935 0.386993 0.723969
0.953003 0.121124 0.833557
0.000000 0.351776 0.380371
0.000000 0.357452 0.386719
0.000000 0.371429 0.402313
0.000000 0.394623 0.430847
0.000000 0.426361 0.472076
0.066711 0.462677 0.529083
0.259003 0.491516 0.595398
0.581329 0.454559 0.729218
0.930298 0.283508 0.817810
0.000000 0.429443 0.460236
0.000000 0.433929 0.465240
0.000000 0.445038 0.477631
0.000000 0.464050 0.498596
0.014069 0.490021 0.533539
0.149445 0.518219 0.573486
0.297607 0.543396 0.625305
0.549316 0.526001 0.760132
0.912964 0.406677 0.806335
0.000000 0.521362 0.552368
0.000000 0.524902 0.556183
0.000000 0.533752 0.565704
0.000000 0.549072 0.582245
0.167786 0.565521 0.596741
0.242249 0.588287 0.628448
0.348846 0.611206 0.664276
0.538696 0.615173 0.723083
0.936249 0.493896 0.814880
0.000000 0.621765 0.649261
0.000000 0.624634 0.652161
0.000000 0.631805 0.659363
0.000000 0.644348 0.671906
0.138275 0.659119 0.685394
0.339264 0.668915 0.687439
0.422607 0.687195 0.714905
0.577118 0.691864 0.738586
0.929016 0.604340 0.799805
0.000000 0.725708 0.743195
0.000000 0.727844 0.745209
0.000000 0.733246 0.750122
0.000000 0.742737 0.758270
0.056854 0.755524 0.768890
0.342407 0.758942 0.766968
0.516724 0.759308 0.765167
0.631531 0.764557 0.775787
0.920990 0.707886 0.770569
0.000000 0.821747 0.821747
0.000000 0.823364 0.823120
0.000000 0.827423 0.826538
0.000000 0.834473 0.832245
0.044586 0.844208 0.837311
0.385376 0.840088 0.828766
0.578064 0.830902 0.817871
0.721741 0.821716 0.806000
0.919525 0.792389 0.729553
0.000000 0.902191 0.885284
0.000000 0.903229 0.886078
0.000000 0.905823 0.888062
0.000000 0.910370 0.890961
0.000000 0.917053 0.893982
0.135315 0.924225 0.886536
0.347260 0.925262 0.863861
0.661377 0.898468 0.814758
0.834839 0.875793 0.763489
0.000000 0.316223 0.344391
0.000000 0.322662 0.351807
0.000000 0.338318 0.370026
0.000000 0.364197 0.400452
0.000000 0.399170 0.442932
0.000000 0.441010 0.500397
0.061829 0.485413 0.575806
0.344086 0.496918 0.729553
0.747314 0.409637 0.831299
0.000000 0.337494 0.366791
0.000000 0.343475 0.373444
0.000000 0.358063 0.390503
0.000000 0.382294 0.419403
0.000000 0.415436 0.459930
0.000000 0.455505 0.514587
0.083862 0.497620 0.586853
0.339722 0.513580 0.717834
0.730957 0.437408 0.829041
0.000000 0.385345 0.416931
0.000000 0.390442 0.422607
0.000000 0.403046 0.436646
0.000000 0.424194 0.462219
0.000000 0.453583 0.499054
0.000000 0.489960 0.547882
0.128265 0.526886 0.612823
0.329315 0.551361 0.698334
0.690155 0.496765 0.830170
0.000000 0.456177 0.490265
0.000000 0.460327 0.494904
0.000000 0.470673 0.506439
0.000000 0.488373 0.526520
0.000000 0.513245 0.558502
0.000000 0.544708 0.602020
0.171967 0.575745 0.651062
0.347015 0.599701 0.716125
0.624969 0.575439 0.857025
0.000000 0.542450 0.577881
0.000000 0.545807 0.581635
0.000000 0.554199 0.590881
0.000000 0.568756 0.607147
0.000000 0.589417 0.634003
0.000000 0.615875 0.672821
0.153198 0.643524 0.717346
0.363464 0.661041 0.775696
0.658020 0.634430 0.868958
0.000000 0.638458 0.672821
0.000000 0.641205 0.675751
0.000000 0.648071 0.683105
0.000000 0.660095 0.696167
0.000000 0.677307 0.718536
0.000000 0.699219 0.750275
0.112610 0.722015 0.792419
0.374878 0.731964 0.829926
0.712555 0.696198 0.879456
0.000000 0.737549 0.766602
0.000000 0.739624 0.768616
0.000000 0.744812 0.773712
0.000000 0.753937 0.782593
0.000000 0.766876 0.798950
0.000000 0.783630 0.822388
0.142792 0.800598 0.850952
0.390900 0.806274 0.876526
0.725006 0.774323 0.871979
0.000000 0.829742 0.847443
0.000000 0.831299 0.848846
0.000000 0.835175 0.852356
0.000000 0.841919 0.858093
0.000000 0.851593 0.867096
0.000000 0.863770 0.881683
0.155029 0.875031 0.897217
0.454895 0.870178 0.893372
0.750610 0.838318 0.865234
0.000000 0.906769 0.906799
0.000000 0.907745 0.907593
0.000000 0.910217 0.909546
0.000000 0.914520 0.912842
0.000000 0.920807 0.916412
0.128540 0.926941 0.918457
0.313446 0.928070 0.916199
0.625427 0.902893 0.892426
0.813049 0.876831 0.866486
