cube滤镜(3D LUT)/Lepidolite.cube
# Created by: Lutify.me
# Copyright: (c) Copyright Lutify.me 2015
# Website: https://lutify.me
#LUT size
LUT_3D_SIZE 33
#LUT data points
0.000000 0.000000 0.000000
0.026581 0.000488 0.000000
0.054932 0.001068 0.000000
0.084076 0.001892 0.000000
0.113312 0.002960 0.000000
0.142517 0.004364 0.000000
0.171722 0.006073 0.000000
0.200958 0.008118 0.000000
0.230164 0.010529 0.000000
0.259399 0.013306 0.000000
0.288605 0.016449 0.000000
0.317841 0.020020 0.000000
0.347046 0.023987 0.000000
0.376282 0.028351 0.000000
0.405487 0.033203 0.000000
0.434692 0.038452 0.000000
0.463928 0.043976 0.000000
0.493134 0.049561 0.000000
0.522369 0.055115 0.000000
0.551575 0.060699 0.000000
0.580780 0.066284 0.000000
0.610016 0.071838 0.000000
0.639221 0.077423 0.000000
0.668457 0.083008 0.000000
0.697662 0.088562 0.000000
0.726898 0.094147 0.000000
0.756104 0.099701 0.000000
0.785309 0.105286 0.000000
0.814545 0.110870 0.000000
0.843781 0.116425 0.000000
0.872986 0.122009 0.000000
0.902191 0.127563 0.000000
0.931396 0.133148 0.000000
0.000000 0.026031 0.022247
0.028351 0.028259 0.000000
0.059479 0.027588 0.000000
0.088318 0.027924 0.000000
0.116760 0.028900 0.000000
0.145874 0.029785 0.000000
0.175079 0.030914 0.000000
0.204285 0.032349 0.000000
0.233215 0.034485 0.000000
0.262115 0.037170 0.000000
0.291077 0.040222 0.000000
0.320068 0.043518 0.000000
0.349060 0.047089 0.000000
0.378113 0.050873 0.000000
0.407196 0.054810 0.000000
0.436279 0.058929 0.000000
0.465363 0.063202 0.000000
0.494476 0.067596 0.000000
0.523621 0.072113 0.000000
0.552765 0.076721 0.000000
0.581909 0.081421 0.000000
0.611053 0.086182 0.000000
0.640228 0.091003 0.000000
0.669373 0.095886 0.000000
0.698547 0.100830 0.000000
0.727722 0.105835 0.000000
0.756897 0.110870 0.000000
0.786072 0.115936 0.000000
0.815277 0.121033 0.000000
0.844452 0.126190 0.000000
0.873627 0.131348 0.000000
0.902832 0.136566 0.000000
0.932037 0.141754 0.000000
0.000000 0.053955 0.047089
0.003235 0.060669 0.034393
0.057831 0.057709 0.000000
0.089996 0.056763 0.000000
0.119659 0.056641 0.000000
0.148254 0.057343 0.000000
0.176605 0.058533 0.000000
0.205658 0.059570 0.000000
0.234833 0.060730 0.000000
0.264008 0.062134 0.000000
0.293213 0.063751 0.000000
0.322235 0.065887 0.000000
0.351135 0.068481 0.000000
0.380035 0.071350 0.000000
0.408966 0.074432 0.000000
0.437958 0.077698 0.000000
0.466949 0.081146 0.000000
0.495972 0.084747 0.000000
0.524994 0.088501 0.000000
0.554047 0.092377 0.000000
0.583130 0.096405 0.000000
0.612213 0.100525 0.000000
0.641296 0.104736 0.000000
0.670410 0.109070 0.000000
0.699524 0.113464 0.000000
0.728668 0.117950 0.000000
0.757782 0.122498 0.000000
0.786926 0.127136 0.000000
0.816071 0.131836 0.000000
0.845245 0.136566 0.000000
0.874390 0.141357 0.000000
0.903534 0.146179 0.000000
0.932709 0.151062 0.000000
0.000000 0.082825 0.074066
0.000153 0.087891 0.070740
0.013550 0.092773 0.043945
0.087799 0.087646 0.000000
0.120117 0.086700 0.000000
0.150665 0.086151 0.000000
0.179565 0.086517 0.000000
0.208038 0.087372 0.000000
0.236420 0.088623 0.000000
0.265381 0.089661 0.000000
0.294525 0.090759 0.000000
0.323730 0.092010 0.000000
0.352905 0.093475 0.000000
0.382080 0.095123 0.000000
0.411163 0.097137 0.000000
0.440094 0.099548 0.000000
0.468964 0.102264 0.000000
0.497894 0.105164 0.000000
0.526825 0.108215 0.000000
0.555786 0.111450 0.000000
0.584778 0.114807 0.000000
0.613770 0.118317 0.000000
0.642792 0.121948 0.000000
0.671844 0.125671 0.000000
0.700897 0.129517 0.000000
0.729950 0.133484 0.000000
0.759033 0.137512 0.000000
0.788116 0.141632 0.000000
0.817200 0.145844 0.000000
0.846313 0.150146 0.000000
0.875427 0.154510 0.000000
0.904541 0.158936 0.000000
0.933655 0.163422 0.000000
0.000000 0.111786 0.101196
0.000000 0.115631 0.099823
0.000793 0.120300 0.091278
0.027985 0.125336 0.043518
0.117798 0.117584 0.000000
0.150177 0.116669 0.000000
0.181519 0.115814 0.000000
0.210785 0.115906 0.000000
0.239410 0.116486 0.000000
0.267822 0.117462 0.000000
0.296234 0.118683 0.000000
0.325073 0.119781 0.000000
0.354218 0.120850 0.000000
0.383423 0.122009 0.000000
0.412628 0.123322 0.000000
0.441803 0.124817 0.000000
0.470978 0.126465 0.000000
0.500092 0.128357 0.000000
0.529083 0.130646 0.000000
0.557922 0.133270 0.000000
0.586823 0.136047 0.000000
0.615723 0.138977 0.000000
0.644684 0.142029 0.000000
0.673615 0.145233 0.000000
0.702606 0.148529 0.000000
0.731598 0.151947 0.000000
0.760620 0.155487 0.000000
0.789642 0.159119 0.000000
0.818665 0.162842 0.000000
0.847717 0.166656 0.000000
0.876770 0.170563 0.000000
0.905853 0.174561 0.000000
0.934937 0.178619 0.000000
0.000000 0.140747 0.128296
0.000000 0.143829 0.127441
0.000000 0.147400 0.124786
0.004120 0.152771 0.108490
0.056030 0.156830 0.042572
0.147797 0.147552 0.000000
0.180237 0.146637 0.000000
0.212128 0.145630 0.000000
0.241821 0.145447 0.000000
0.270691 0.145782 0.000000
0.299225 0.146515 0.000000
0.327606 0.147552 0.000000
0.356018 0.148773 0.000000
0.384796 0.149933 0.000000
0.413910 0.150940 0.000000
0.443115 0.152039 0.000000
0.472321 0.153290 0.000000
0.501495 0.154633 0.000000
0.530701 0.156128 0.000000
0.559845 0.157806 0.000000
0.589020 0.159637 0.000000
0.618042 0.161774 0.000000
0.646912 0.164337 0.000000
0.675781 0.167023 0.000000
0.704651 0.169861 0.000000
0.733582 0.172791 0.000000
0.762512 0.175842 0.000000
0.791473 0.178986 0.000000
0.820435 0.182251 0.000000
0.849426 0.185638 0.000000
0.878418 0.189087 0.000000
0.907440 0.192657 0.000000
0.936462 0.196289 0.000000
0.000000 0.169708 0.155426
0.000000 0.172241 0.154724
0.000000 0.175140 0.153473
0.000275 0.179504 0.147217
0.020599 0.184631 0.122589
0.094666 0.186279 0.053650
0.177795 0.177521 0.000000
0.210297 0.176605 0.000000
0.242279 0.175598 0.000000
0.272705 0.175079 0.000000
0.301880 0.175201 0.000000
0.330536 0.175751 0.000000
0.359039 0.176544 0.000000
0.387390 0.177643 0.000000
0.415802 0.178894 0.000000
0.444550 0.180054 0.000000
0.473602 0.181091 0.000000
0.502808 0.182129 0.000000
0.532013 0.183289 0.000000
0.561188 0.184570 0.000000
0.590393 0.185944 0.000000
0.619598 0.187439 0.000000
0.648743 0.189148 0.000000
0.677887 0.190979 0.000000
0.706970 0.193024 0.000000
0.735870 0.195435 0.000000
0.764740 0.198059 0.000000
0.793610 0.200806 0.000000
0.822510 0.203644 0.000000
0.851440 0.206573 0.000000
0.880371 0.209625 0.000000
0.909332 0.212769 0.000000
0.938293 0.216003 0.000000
0.000000 0.198669 0.182526
0.000000 0.200806 0.181885
0.000000 0.203247 0.181183
0.000000 0.206787 0.178619
0.001923 0.211853 0.167328
0.044708 0.216400 0.134338
0.131042 0.215637 0.065063
0.207825 0.207489 0.000000
0.240387 0.206573 0.000000
0.272339 0.205597 0.000000
0.303528 0.204803 0.000000
0.332947 0.204742 0.000000
0.361816 0.205078 0.000000
0.390381 0.205719 0.000000
0.418823 0.206604 0.000000
0.447174 0.207733 0.000000
0.475586 0.208984 0.000000
0.504272 0.210175 0.000000
0.533295 0.211212 0.000000
0.562500 0.212250 0.000000
0.591675 0.213348 0.000000
0.620880 0.214569 0.000000
0.650085 0.215881 0.000000
0.679291 0.217285 0.000000
0.708496 0.218781 0.000000
0.737640 0.220490 0.000000
0.766785 0.222290 0.000000
0.795898 0.224274 0.000000
0.824860 0.226562 0.000000
0.853699 0.229126 0.000000
0.882568 0.231781 0.000000
0.911469 0.234558 0.000000
0.940369 0.237427 0.000000
0.000000 0.227631 0.209656
0.000000 0.229492 0.209015
0.000000 0.231567 0.208557
0.000000 0.234558 0.207153
0.000000 0.238770 0.201996
0.004242 0.244507 0.185150
0.069519 0.248444 0.141937
0.165924 0.245026 0.074310
0.237793 0.237457 0.000000
0.270447 0.236511 0.000000
0.302429 0.235596 0.000000
0.334137 0.234589 0.000000
0.363892 0.234375 0.000000
0.392975 0.234528 0.000000
0.421692 0.235016 0.000000
0.450195 0.235748 0.000000
0.478638 0.236664 0.000000
0.506958 0.237823 0.000000
0.535370 0.239105 0.000000
0.564026 0.240295 0.000000
0.592987 0.241364 0.000000
0.622192 0.242340 0.000000
0.651398 0.243439 0.000000
0.680573 0.244598 0.000000
0.709778 0.245850 0.000000
0.738983 0.247192 0.000000
0.768188 0.248627 0.000000
0.797394 0.250122 0.000000
0.826569 0.251801 0.000000
0.855682 0.253632 0.000000
0.884796 0.255554 0.000000
0.913818 0.257690 0.000000
0.942688 0.260223 0.000000
0.000000 0.256592 0.236786
0.000000 0.258209 0.236115
0.000000 0.260040 0.235809
0.000000 0.262634 0.234924
0.000000 0.266174 0.232391
0.000000 0.271057 0.223419
0.024536 0.276428 0.201141
0.092651 0.280823 0.143921
0.199646 0.274506 0.081909
0.267822 0.267426 0.000000
0.300507 0.266479 0.000000
0.332520 0.265564 0.000000
0.364410 0.264496 0.000000
0.394745 0.264038 0.000000
0.424072 0.264069 0.000000
0.452942 0.264404 0.000000
0.481537 0.264984 0.000000
0.510010 0.265778 0.000000
0.538422 0.266724 0.000000
0.566772 0.267914 0.000000
0.595123 0.269196 0.000000
0.623749 0.270416 0.000000
0.652679 0.271515 0.000000
0.681885 0.272491 0.000000
0.711090 0.273529 0.000000
0.740265 0.274628 0.000000
0.769470 0.275848 0.000000
0.798676 0.277130 0.000000
0.827881 0.278503 0.000000
0.857086 0.279938 0.000000
0.886292 0.281464 0.000000
0.915466 0.283112 0.000000
0.944580 0.284943 0.000000
0.000000 0.285553 0.263885
0.000000 0.286987 0.263275
0.000000 0.288574 0.262970
0.000000 0.290863 0.262390
0.000000 0.293976 0.260834
0.000000 0.298065 0.256439
0.003113 0.303436 0.243286
0.053619 0.308319 0.214050
0.113861 0.313446 0.140106
0.232452 0.304108 0.088287
0.297821 0.297363 0.000000
0.330536 0.296448 0.000000
0.362579 0.295532 0.000000
0.394531 0.294495 0.000000
0.425507 0.293762 0.000000
0.455048 0.293640 0.000000
0.484100 0.293854 0.000000
0.512817 0.294312 0.000000
0.541351 0.294983 0.000000
0.569824 0.295807 0.000000
0.598206 0.296814 0.000000
0.626556 0.298004 0.000000
0.654907 0.299316 0.000000
0.683502 0.300537 0.000000
0.712372 0.301666 0.000000
0.741577 0.302612 0.000000
0.770782 0.303619 0.000000
0.799957 0.304718 0.000000
0.829163 0.305878 0.000000
0.858368 0.307129 0.000000
0.887573 0.308441 0.000000
0.916748 0.309814 0.000000
0.945953 0.311279 0.000000
0.000000 0.314484 0.291016
0.000000 0.315796 0.290466
0.000000 0.317230 0.290100
0.000000 0.319275 0.289703
0.000000 0.322021 0.288635
0.000000 0.325562 0.286163
0.000000 0.330231 0.278656
0.007172 0.336029 0.261353
0.081360 0.340363 0.224243
0.136383 0.345978 0.132172
0.264618 0.333801 0.093658
0.327820 0.327332 0.000000
0.360596 0.326385 0.000000
0.392639 0.325500 0.000000
0.424622 0.324493 0.000000
0.456146 0.323547 0.000000
0.485962 0.323303 0.000000
0.515167 0.323395 0.000000
0.544037 0.323700 0.000000
0.572662 0.324249 0.000000
0.601166 0.324951 0.000000
0.629639 0.325836 0.000000
0.658020 0.326904 0.000000
0.686310 0.328125 0.000000
0.714661 0.329437 0.000000
0.743256 0.330658 0.000000
0.772064 0.331818 0.000000
0.801270 0.332733 0.000000
0.830475 0.333740 0.000000
0.859650 0.334808 0.000000
0.888855 0.335938 0.000000
0.918060 0.337128 0.000000
0.947235 0.338409 0.000000
0.000000 0.343445 0.318115
0.000000 0.344604 0.317627
0.000000 0.345917 0.317230
0.000000 0.347748 0.316925
0.000000 0.350220 0.316162
0.000000 0.353394 0.314514
0.000000 0.357391 0.310669
0.000000 0.362640 0.299500
0.026825 0.368134 0.278290
0.106781 0.372498 0.232025
0.174744 0.376038 0.139160
0.296356 0.363525 0.098145
0.357819 0.357300 0.000000
0.390656 0.356354 0.000000
0.422729 0.355469 0.000000
0.454681 0.354492 0.000000
0.486542 0.353424 0.000000
0.516785 0.352997 0.000000
0.546173 0.352966 0.000000
0.575195 0.353149 0.000000
0.603943 0.353607 0.000000
0.632507 0.354218 0.000000
0.660980 0.354980 0.000000
0.689423 0.355896 0.000000
0.717804 0.356964 0.000000
0.746094 0.358215 0.000000
0.774414 0.359558 0.000000
0.803040 0.360779 0.000000
0.831757 0.362000 0.000000
0.860962 0.362885 0.000000
0.890167 0.363861 0.000000
0.919342 0.364899 0.000000
0.948547 0.366028 0.000000
0.000000 0.372406 0.345245
0.000000 0.373474 0.344788
0.000000 0.374664 0.344299
0.000000 0.376312 0.344086
0.000000 0.378540 0.343536
0.000000 0.381409 0.342346
0.000000 0.384979 0.339966
0.000000 0.389465 0.333466
0.004028 0.395050 0.319214
0.059998 0.399994 0.293182
0.132935 0.404480 0.238922
0.216675 0.405151 0.152557
0.327789 0.393311 0.101807
0.387817 0.387268 0.000000
0.420685 0.386292 0.000000
0.452789 0.385437 0.000000
0.484741 0.384491 0.000000
0.516693 0.383392 0.000000
0.547516 0.382721 0.000000
0.577118 0.382568 0.000000
0.606262 0.382690 0.000000
0.635162 0.382996 0.000000
0.663788 0.383514 0.000000
0.692322 0.384216 0.000000
0.720795 0.385010 0.000000
0.749207 0.385956 0.000000
0.777588 0.387054 0.000000
0.805878 0.388306 0.000000
0.834167 0.389679 0.000000
0.862823 0.390869 0.000000
0.891510 0.392120 0.000000
0.920654 0.393036 0.000000
0.949860 0.394012 0.000000
0.000000 0.401367 0.372345
0.000000 0.402313 0.371948
0.000000 0.403442 0.371460
0.000000 0.404938 0.371216
0.000000 0.406982 0.370819
0.000000 0.409576 0.369934
0.000000 0.412811 0.368195
0.000000 0.416748 0.364563
0.000000 0.421753 0.355011
0.010223 0.427551 0.337433
0.092468 0.431915 0.305756
0.157257 0.436707 0.242035
0.255249 0.434387 0.164856
0.358978 0.423157 0.104706
0.417816 0.417236 0.000000
0.450745 0.416260 0.000000
0.482849 0.415405 0.000000
0.514832 0.414459 0.000000
0.546783 0.413422 0.000000
0.578186 0.412476 0.000000
0.608002 0.412231 0.000000
0.637299 0.412262 0.000000
0.666290 0.412476 0.000000
0.695068 0.412903 0.000000
0.723633 0.413483 0.000000
0.752136 0.414215 0.000000
0.780609 0.415039 0.000000
0.809021 0.416016 0.000000
0.837372 0.417145 0.000000
0.865662 0.418396 0.000000
0.893921 0.419800 0.000000
0.922577 0.420990 0.000000
0.951263 0.422211 0.000000
0.000000 0.430328 0.399475
0.000000 0.431213 0.399109
0.000000 0.432220 0.398651
0.000000 0.433624 0.398346
0.000000 0.435486 0.398041
0.000000 0.437866 0.397369
0.000000 0.440796 0.396057
0.000000 0.444366 0.393677
0.000000 0.448761 0.387939
0.000000 0.454193 0.375519
0.027557 0.459869 0.354584
0.120697 0.463928 0.316406
0.180054 0.469086 0.241638
0.291748 0.463745 0.176270
0.390015 0.453003 0.106873
0.447815 0.447205 0.000000
0.480804 0.446198 0.000000
0.512939 0.445374 0.000000
0.544891 0.444427 0.000000
0.576874 0.443420 0.000000
0.608643 0.442352 0.000000
0.638794 0.441925 0.000000
0.668243 0.441864 0.000000
0.697357 0.442017 0.000000
0.726257 0.442322 0.000000
0.754913 0.442810 0.000000
0.783478 0.443451 0.000000
0.811951 0.444214 0.000000
0.840424 0.445099 0.000000
0.868805 0.446106 0.000000
0.897156 0.447235 0.000000
0.925446 0.448517 0.000000
0.953705 0.449890 0.000000
0.000000 0.459290 0.426575
0.000000 0.460114 0.426270
0.000000 0.461029 0.425842
0.000000 0.462341 0.425446
0.000000 0.464050 0.425201
0.000000 0.466248 0.424683
0.000000 0.468933 0.423676
0.000000 0.472198 0.421875
0.000000 0.476135 0.418427
0.000000 0.480957 0.410065
0.004333 0.486664 0.395050
0.062531 0.491791 0.370575
0.146454 0.496094 0.325073
0.201538 0.501678 0.237335
0.326874 0.493195 0.186890
0.420898 0.482880 0.108276
0.477814 0.477173 0.000000
0.510834 0.476166 0.000000
0.542999 0.475311 0.000000
0.574982 0.474426 0.000000
0.606934 0.473419 0.000000
0.638855 0.472290 0.000000
0.669525 0.471680 0.000000
0.699188 0.471497 0.000000
0.728394 0.471588 0.000000
0.757385 0.471802 0.000000
0.786163 0.472198 0.000000
0.814789 0.472748 0.000000
0.843292 0.473450 0.000000
0.871796 0.474243 0.000000
0.900208 0.475159 0.000000
0.928589 0.476166 0.000000
0.956940 0.477325 0.000000
0.000000 0.488251 0.453705
0.000000 0.489014 0.453400
0.000000 0.489868 0.453033
0.000000 0.491089 0.452545
0.000000 0.492676 0.452332
0.000000 0.494690 0.451935
0.000000 0.497192 0.451141
0.000000 0.500214 0.449768
0.000000 0.503784 0.447357
0.000000 0.508057 0.442230
0.000000 0.513306 0.431213
0.013062 0.519135 0.413483
0.100006 0.523621 0.384857
0.170563 0.528351 0.331573
0.221924 0.534424 0.228394
0.361603 0.522614 0.196259
0.451691 0.512787 0.108978
0.507812 0.507141 0.000000
0.540894 0.506134 0.000000
0.573059 0.505280 0.000000
0.605042 0.504395 0.000000
0.636993 0.503387 0.000000
0.668945 0.502319 0.000000
0.700195 0.501434 0.000000
0.730072 0.501190 0.000000
0.759369 0.501190 0.000000
0.788452 0.501343 0.000000
0.817383 0.501617 0.000000
0.846039 0.502106 0.000000
0.874603 0.502716 0.000000
0.903107 0.503448 0.000000
0.931580 0.504272 0.000000
0.960022 0.505188 0.000000
0.000000 0.517212 0.480804
0.000000 0.517914 0.480530
0.000000 0.518707 0.480194
0.000000 0.519836 0.479675
0.000000 0.521332 0.479431
0.000000 0.523193 0.479126
0.000000 0.525513 0.478516
0.000000 0.528320 0.477417
0.000000 0.531616 0.475555
0.000000 0.535492 0.472290
0.000000 0.540192 0.464844
0.000000 0.545776 0.451477
0.026886 0.551575 0.430756
0.131622 0.555511 0.397430
0.193604 0.560822 0.334564
0.253448 0.565643 0.227631
0.396118 0.552002 0.204407
0.482422 0.542725 0.108948
0.537811 0.537109 0.000000
0.570923 0.536072 0.000000
0.603119 0.535217 0.000000
0.635101 0.534332 0.000000
0.667084 0.533386 0.000000
0.699036 0.532318 0.000000
0.730682 0.531281 0.000000
0.760834 0.530884 0.000000
0.790314 0.530792 0.000000
0.819489 0.530884 0.000000
0.848480 0.531097 0.000000
0.877289 0.531494 0.000000
0.905884 0.532013 0.000000
0.934082 0.532471 0.000000
0.962006 0.532898 0.000000
0.000000 0.546173 0.507935
0.000000 0.546814 0.507660
0.000000 0.547546 0.507355
0.000000 0.548615 0.506866
0.000000 0.550018 0.506561
0.000000 0.551788 0.506287
0.000000 0.553925 0.505798
0.000000 0.556549 0.504913
0.000000 0.559601 0.503448
0.000000 0.563202 0.501068
0.000000 0.567383 0.496399
0.000000 0.572449 0.486481
0.003448 0.578308 0.470856
0.060944 0.583588 0.447418
0.159943 0.587524 0.408234
0.219055 0.592957 0.337708
0.296539 0.594971 0.239380
0.429901 0.581482 0.211853
0.513031 0.572632 0.108124
0.567841 0.567078 0.000000
0.600983 0.566040 0.000000
0.633179 0.565186 0.000000
0.665192 0.564301 0.000000
0.697144 0.563354 0.000000
0.729095 0.562317 0.000000
0.760986 0.561218 0.000000
0.791534 0.560638 0.000000
0.821228 0.560455 0.000000
0.850433 0.560425 0.000000
0.879242 0.560425 0.000000
0.907684 0.560394 0.000000
0.935425 0.560303 0.000000
0.962646 0.560089 0.000000
0.000000 0.575134 0.535065
0.000000 0.575714 0.534821
0.000000 0.576416 0.534515
0.000000 0.577423 0.534058
0.000000 0.578735 0.533661
0.000000 0.580383 0.533447
0.000000 0.582397 0.533051
0.000000 0.584839 0.532318
0.000000 0.587708 0.531128
0.000000 0.591034 0.529236
0.000000 0.594879 0.526154
0.000000 0.599457 0.519440
0.000000 0.604858 0.507355
0.015411 0.610718 0.489532
0.104370 0.615356 0.462769
0.186157 0.619629 0.417542
0.243591 0.625153 0.339142
0.338531 0.624054 0.252838
0.463165 0.611023 0.218628
0.543610 0.602570 0.106476
0.597839 0.597015 0.000000
0.631012 0.595978 0.000000
0.663239 0.595154 0.000000
0.695251 0.594269 0.000000
0.727234 0.593323 0.000000
0.759186 0.592316 0.000000
0.790985 0.591095 0.000000
0.821747 0.590088 0.000000
0.851288 0.589539 0.000000
0.879913 0.589020 0.000000
0.907867 0.588348 0.000000
0.935547 0.587799 0.000000
0.962952 0.587341 0.000000
0.000000 0.604095 0.562164
0.000000 0.604645 0.561951
0.000000 0.605316 0.561676
0.000000 0.606232 0.561249
0.000000 0.607483 0.560760
0.000000 0.609039 0.560547
0.000000 0.610931 0.560242
0.000000 0.613220 0.559662
0.000000 0.615906 0.558685
0.000000 0.619019 0.557159
0.000000 0.622589 0.554749
0.000000 0.626740 0.550446
0.000000 0.631653 0.541443
0.000000 0.637360 0.527405
0.025757 0.643219 0.506866
0.139893 0.647217 0.476379
0.210938 0.651855 0.425232
0.266846 0.657501 0.337921
0.378052 0.653259 0.265594
0.495972 0.640625 0.224792
0.574127 0.632538 0.103973
0.627838 0.626984 0.000000
0.661041 0.625946 0.000000
0.693176 0.625000 0.000000
0.725006 0.623962 0.000000
0.756714 0.622803 0.000000
0.788361 0.621582 0.000000
0.819519 0.619904 0.000000
0.850006 0.618164 0.000000
0.878998 0.617035 0.000000
0.907288 0.616150 0.000000
0.935150 0.615387 0.000000
0.962708 0.614716 0.000000
0.000000 0.633026 0.589294
0.000000 0.633575 0.589081
0.000000 0.634186 0.588806
0.000000 0.635071 0.588409
0.000000 0.636261 0.587891
0.000000 0.637726 0.587646
0.000000 0.639496 0.587402
0.000000 0.641632 0.586914
0.000000 0.644165 0.586121
0.000000 0.647095 0.584869
0.000000 0.650452 0.582916
0.000000 0.654266 0.579956
0.000000 0.658752 0.573853
0.000000 0.663971 0.562775
0.000793 0.669952 0.546661
0.055450 0.675415 0.523651
0.170776 0.679138 0.488861
0.234650 0.684174 0.430878
0.289062 0.689972 0.333771
0.415894 0.682526 0.277679
0.528320 0.670074 0.230316
0.604279 0.662109 0.100433
0.657257 0.656403 0.000000
0.690308 0.655151 0.000000
0.722076 0.653900 0.000000
0.753326 0.652374 0.000000
0.784393 0.650787 0.000000
0.815369 0.649078 0.000000
0.846191 0.647278 0.000000
0.876770 0.645416 0.000000
0.905945 0.644012 0.000000
0.934143 0.642914 0.000000
0.961761 0.641968 0.000000
0.000000 0.661987 0.616394
0.000000 0.662506 0.616211
0.000000 0.663086 0.615967
0.000000 0.663910 0.615601
0.000000 0.665039 0.615082
0.000000 0.666412 0.614777
0.000000 0.668091 0.614532
0.000000 0.670135 0.614136
0.000000 0.672516 0.613495
0.000000 0.675262 0.612457
0.000000 0.678436 0.610840
0.000000 0.682007 0.608429
0.000000 0.686096 0.604370
0.000000 0.690887 0.596191
0.000000 0.696411 0.583405
0.017334 0.702209 0.565277
0.106323 0.706909 0.539612
0.198944 0.710724 0.499756
0.257324 0.716125 0.433380
0.310059 0.721863 0.325928
0.451813 0.710938 0.288757
0.559448 0.698486 0.234863
0.633179 0.690399 0.095551
0.685181 0.684265 0.000000
0.717682 0.682587 0.000000
0.749115 0.681061 0.000000
0.780182 0.679504 0.000000
0.811096 0.677856 0.000000
0.841827 0.676086 0.000000
0.872406 0.674164 0.000000
0.902802 0.672119 0.000000
0.931976 0.670349 0.000000
0.959961 0.668915 0.000000
0.000000 0.690948 0.643524
0.000000 0.691406 0.643311
0.000000 0.691956 0.643066
0.000000 0.692749 0.642731
0.000000 0.693756 0.642212
0.000000 0.695068 0.641815
0.000000 0.696625 0.641541
0.000000 0.698486 0.641205
0.000000 0.700684 0.640594
0.000000 0.703247 0.639679
0.000000 0.706177 0.638275
0.000000 0.709473 0.636230
0.000000 0.713196 0.633270
0.000000 0.717499 0.627563
0.000000 0.722504 0.617340
0.000000 0.728058 0.602600
0.028992 0.733490 0.582031
0.145264 0.737183 0.553162
0.224884 0.740967 0.508087
0.278473 0.746460 0.431824
0.333893 0.751282 0.318298
0.485321 0.737366 0.298370
0.588928 0.725220 0.238281
0.660828 0.717407 0.089203
0.712158 0.711212 0.000000
0.744507 0.709442 0.000000
0.775665 0.707825 0.000000
0.806488 0.706116 0.000000
0.837067 0.704315 0.000000
0.867432 0.702362 0.000000
0.897583 0.700226 0.000000
0.927490 0.697937 0.000000
0.956665 0.695648 0.000000
0.000000 0.719330 0.670074
0.000000 0.719727 0.669861
0.000000 0.720215 0.669617
0.000000 0.720917 0.669250
0.000000 0.721832 0.668732
0.000000 0.722992 0.668121
0.000000 0.724365 0.667816
0.000000 0.726044 0.667389
0.000000 0.727966 0.666779
0.000000 0.730255 0.665863
0.000000 0.732819 0.664520
0.000000 0.735748 0.662659
0.000000 0.739044 0.659973
0.000000 0.742767 0.655884
0.000000 0.747101 0.648132
0.000000 0.752075 0.636017
0.000000 0.757660 0.619293
0.052277 0.762787 0.596466
0.178101 0.765961 0.564209
0.248962 0.769958 0.514282
0.301178 0.775574 0.430389
0.370239 0.778198 0.322266
0.517731 0.763458 0.307312
0.617767 0.751526 0.241058
0.687897 0.743835 0.081360
0.738495 0.737488 0.000000
0.770508 0.735535 0.000000
0.801331 0.733704 0.000000
0.831757 0.731781 0.000000
0.861877 0.729706 0.000000
0.891724 0.727478 0.000000
0.921326 0.725067 0.000000
0.950592 0.722443 0.000000
0.000000 0.745575 0.694672
0.000000 0.745972 0.694458
0.000000 0.746429 0.694244
0.000000 0.747070 0.693878
0.000000 0.747955 0.693390
0.000000 0.749054 0.692749
0.000000 0.750366 0.692413
0.000000 0.751953 0.692047
0.000000 0.753784 0.691498
0.000000 0.755920 0.690704
0.000000 0.758331 0.689545
0.000000 0.761108 0.687927
0.000000 0.764191 0.685669
0.000000 0.767639 0.682526
0.000000 0.771545 0.677032
0.000000 0.776093 0.667358
0.000000 0.781219 0.653717
0.017853 0.786682 0.635254
0.103729 0.791107 0.610321
0.207275 0.794250 0.574005
0.271667 0.798462 0.518829
0.324554 0.803772 0.429077
0.412292 0.803162 0.334656
0.549164 0.788696 0.315186
0.645630 0.776947 0.243042
