cube滤镜(3D LUT)/Lepidolite.cube
# Created by: Lutify.me
# Copyright: (c) Copyright Lutify.me 2015
# Website: https://lutify.me
#LUT size
LUT_3D_SIZE 5
#LUT data points
0.000000 0.000000 0.000000
0.230164 0.010529 0.000000
0.463928 0.043976 0.000000
0.697662 0.088562 0.000000
0.931396 0.133148 0.000000
0.000000 0.227631 0.209656
0.237793 0.237457 0.000000
0.478638 0.236664 0.000000
0.709778 0.245850 0.000000
0.942688 0.260223 0.000000
0.000000 0.459290 0.426575
0.000000 0.476135 0.418427
0.477814 0.477173 0.000000
0.728394 0.471588 0.000000
0.956940 0.477325 0.000000
0.000000 0.690948 0.643524
0.000000 0.700684 0.640594
0.028992 0.733490 0.582031
0.712158 0.711212 0.000000
0.956665 0.695648 0.000000
0.000000 0.886963 0.827057
0.000000 0.891754 0.823090
0.000000 0.906464 0.808258
0.283783 0.930725 0.651001
0.879150 0.877991 0.000000
0.000000 0.052307 0.060455
0.176971 0.079315 0.201233
0.478882 0.000000 0.226624
0.719360 0.000000 0.209595
0.959534 0.000000 0.186462
0.000000 0.237549 0.237549
0.203186 0.246490 0.239807
0.477631 0.243164 0.167267
0.749329 0.207489 0.059143
0.979309 0.209869 0.000000
0.000000 0.463593 0.439941
0.115112 0.477356 0.415131
0.466217 0.481049 0.225433
0.753448 0.463623 0.000000
0.984406 0.461884 0.000000
0.000000 0.693359 0.652496
0.000000 0.704163 0.637482
0.198944 0.730927 0.574066
0.705231 0.714783 0.142029
0.969360 0.692474 0.000000
0.000000 0.887939 0.832947
0.000000 0.893341 0.821960
0.000000 0.908630 0.798553
0.338715 0.928925 0.632812
0.875366 0.880127 0.000000
0.000000 0.140289 0.155121
0.000000 0.188080 0.212219
0.367065 0.189423 0.411255
0.718750 0.000000 0.468994
0.959991 0.000000 0.453949
0.000000 0.269012 0.287659
0.033813 0.294159 0.314392
0.309906 0.321198 0.430359
0.792450 0.103119 0.462067
1.000000 0.158752 0.426056
0.000000 0.477325 0.477325
0.000000 0.491608 0.488617
0.414825 0.493622 0.481445
0.716187 0.487885 0.356750
0.987854 0.462128 0.384033
0.000000 0.701630 0.673676
0.000000 0.710815 0.674835
0.355988 0.722412 0.618500
0.683167 0.718201 0.472504
0.984100 0.687805 0.319794
0.000000 0.891388 0.846985
0.000000 0.896301 0.840363
0.204163 0.907745 0.796814
0.442902 0.919800 0.670410
0.855804 0.881622 0.408356
0.000000 0.228241 0.249756
0.000000 0.259399 0.286072
0.000000 0.336548 0.389038
0.557190 0.299530 0.621277
0.958557 0.000000 0.709778
0.000000 0.320679 0.346283
0.000000 0.342529 0.370636
0.020660 0.401276 0.449280
0.466064 0.414520 0.634186
1.000000 0.138611 0.718750
0.000000 0.503235 0.528442
0.000000 0.516235 0.541962
0.244568 0.543427 0.563324
0.485535 0.571564 0.630524
0.982117 0.461487 0.691498
0.000000 0.716370 0.716400
0.000000 0.724121 0.722992
0.252808 0.739227 0.729553
0.619080 0.732147 0.714691
0.960449 0.694855 0.627563
0.000000 0.897980 0.869019
0.000000 0.901855 0.870636
0.000000 0.914795 0.863251
0.443176 0.917786 0.787842
0.843262 0.877533 0.659851
0.000000 0.316223 0.344391
0.000000 0.338318 0.370026
0.000000 0.399170 0.442932
0.061829 0.485413 0.575806
0.747314 0.409637 0.831299
0.000000 0.385345 0.416931
0.000000 0.403046 0.436646
0.000000 0.453583 0.499054
0.128265 0.526886 0.612823
0.690155 0.496765 0.830170
0.000000 0.542450 0.577881
0.000000 0.554199 0.590881
0.000000 0.589417 0.634003
0.153198 0.643524 0.717346
0.658020 0.634430 0.868958
0.000000 0.737549 0.766602
0.000000 0.744812 0.773712
0.000000 0.766876 0.798950
0.142792 0.800598 0.850952
0.725006 0.774323 0.871979
0.000000 0.906769 0.906799
0.000000 0.910217 0.909546
0.000000 0.920807 0.916412
0.313446 0.928070 0.916199
0.813049 0.876831 0.866486
