cube滤镜(3D LUT)/Lollingite.cube
# Created by: Lutify.me
# Copyright: (c) Copyright Lutify.me 2015
# Website: https://lutify.me
#LUT size
LUT_3D_SIZE 33
#LUT data points
0.086090 0.097137 0.110077
0.087372 0.100952 0.112152
0.093842 0.105743 0.113190
0.108276 0.111633 0.114532
0.126373 0.117035 0.115875
0.142517 0.122772 0.116638
0.157959 0.128784 0.116730
0.173950 0.134888 0.117249
0.191681 0.139526 0.117401
0.210907 0.143219 0.117645
0.232086 0.146118 0.118439
0.254852 0.149261 0.119843
0.278503 0.152771 0.122040
0.300690 0.157440 0.125122
0.322357 0.163147 0.129517
0.346466 0.168579 0.136169
0.372528 0.173401 0.144318
0.399292 0.178101 0.152771
0.426849 0.183044 0.161102
0.454956 0.188354 0.169128
0.483215 0.193909 0.177094
0.511139 0.199707 0.185059
0.538208 0.205750 0.192993
0.564575 0.211823 0.200775
0.590332 0.218079 0.208405
0.616028 0.224762 0.215820
0.642578 0.232086 0.222717
0.668854 0.239655 0.229645
0.694366 0.247040 0.236053
0.719635 0.254608 0.242432
0.744690 0.262299 0.248627
0.769531 0.270264 0.254456
0.792908 0.277863 0.259918
0.086517 0.108612 0.110077
0.087372 0.108612 0.112488
0.095001 0.110443 0.112549
0.108002 0.116943 0.115112
0.126343 0.121918 0.117126
0.142761 0.125793 0.117371
0.158234 0.128998 0.116821
0.174530 0.133209 0.117004
0.192413 0.138000 0.117340
0.212006 0.142059 0.117645
0.233307 0.145996 0.118439
0.256104 0.149353 0.119843
0.279846 0.152924 0.122253
0.301788 0.157410 0.125610
0.323486 0.162384 0.130768
0.347504 0.167328 0.137878
0.373291 0.172211 0.145782
0.399963 0.177246 0.153778
0.427612 0.182526 0.161835
0.455627 0.188110 0.169647
0.483917 0.193970 0.177368
0.511932 0.199951 0.185333
0.539001 0.206177 0.192932
0.565674 0.212463 0.200592
0.591919 0.219116 0.208069
0.618164 0.226257 0.214935
0.644714 0.233490 0.221863
0.670776 0.240936 0.228699
0.696320 0.248413 0.235291
0.722015 0.256195 0.241791
0.747040 0.264099 0.247864
0.771393 0.271881 0.253754
0.794800 0.279663 0.259064
0.088593 0.121857 0.110748
0.088623 0.121552 0.113800
0.094238 0.122162 0.115814
0.112213 0.122559 0.110748
0.130066 0.126343 0.113831
0.144501 0.132080 0.115631
0.158844 0.136963 0.116364
0.174957 0.140442 0.117188
0.193420 0.142944 0.117126
0.214203 0.145050 0.117584
0.236298 0.147034 0.118439
0.259491 0.149689 0.120270
0.283264 0.153015 0.122864
0.304688 0.157562 0.126587
0.326721 0.162598 0.132263
0.351318 0.167755 0.139404
0.377197 0.172913 0.146973
0.403809 0.178223 0.154663
0.431244 0.183807 0.162445
0.459229 0.189484 0.170105
0.487305 0.195374 0.177643
0.514954 0.201416 0.185333
0.541931 0.207703 0.192810
0.568512 0.214386 0.200012
0.595001 0.221466 0.207031
0.621307 0.228577 0.214020
0.647614 0.235840 0.220856
0.673798 0.243225 0.227722
0.699463 0.250763 0.234467
0.724762 0.258484 0.240753
0.749786 0.266449 0.246826
0.774445 0.274414 0.252869
0.797760 0.282471 0.258331
0.091461 0.134979 0.110138
0.091827 0.134979 0.112915
0.097626 0.137878 0.115295
0.107635 0.138428 0.116058
0.134094 0.134155 0.111847
0.148865 0.136078 0.111755
0.162720 0.140503 0.112488
0.178741 0.145081 0.113159
0.196747 0.149200 0.114380
0.216705 0.152527 0.115814
0.239258 0.154236 0.117126
0.263611 0.156036 0.118622
0.288971 0.158386 0.121338
0.311768 0.162354 0.125397
0.333923 0.167175 0.131256
0.358582 0.172058 0.138763
0.384613 0.177155 0.146851
0.411285 0.182343 0.154846
0.438568 0.187805 0.162598
0.466187 0.193481 0.170227
0.493958 0.199310 0.177704
0.521423 0.205536 0.184998
0.548370 0.212128 0.192139
0.574890 0.218872 0.199097
0.601044 0.225830 0.206055
0.627045 0.232758 0.213013
0.652893 0.239838 0.219940
0.678864 0.247223 0.226715
0.704468 0.254883 0.233337
0.729401 0.262573 0.239532
0.754395 0.270447 0.245636
0.778870 0.278625 0.251587
0.802399 0.286682 0.257080
0.094666 0.146362 0.109772
0.095062 0.147522 0.110962
0.099335 0.151642 0.109955
0.112976 0.150940 0.112640
0.130798 0.149628 0.118408
0.150513 0.144928 0.112671
0.166504 0.144806 0.110107
0.184967 0.148529 0.109192
0.203979 0.152649 0.109985
0.224365 0.157196 0.111328
0.245483 0.161743 0.112732
0.268280 0.165833 0.114563
0.293243 0.169403 0.117126
0.318909 0.173340 0.121460
0.341827 0.178345 0.126770
0.367218 0.182831 0.134338
0.394470 0.186859 0.143341
0.421600 0.191406 0.152374
0.448883 0.196411 0.161011
0.476471 0.201569 0.169281
0.504150 0.207001 0.177155
0.531250 0.212921 0.184418
0.557922 0.219299 0.191528
0.584015 0.225769 0.198486
0.609863 0.232330 0.205444
0.635742 0.239288 0.212189
0.661560 0.246582 0.218903
0.687164 0.253998 0.225555
0.712402 0.261597 0.232086
0.736938 0.269196 0.238251
0.761292 0.277069 0.244293
0.785217 0.285095 0.250122
0.808411 0.293274 0.255676
0.098480 0.157654 0.108185
0.099213 0.160522 0.106445
0.105133 0.165253 0.104431
0.120911 0.163452 0.112823
0.138092 0.162506 0.119049
0.149231 0.159607 0.123444
0.167419 0.155609 0.112366
0.187622 0.153839 0.109283
0.210571 0.157196 0.107849
0.232727 0.161407 0.107605
0.255676 0.166168 0.108032
0.279144 0.171082 0.109741
0.303131 0.176117 0.113586
0.326569 0.181610 0.118378
0.349670 0.187195 0.124176
0.374756 0.192505 0.131744
0.403107 0.197144 0.140472
0.431610 0.201935 0.149384
0.459991 0.207031 0.158417
0.487946 0.211853 0.167389
0.515594 0.216949 0.175995
0.542755 0.222778 0.183624
0.569489 0.229156 0.190765
0.595978 0.235840 0.197632
0.622040 0.242615 0.204407
0.647888 0.249695 0.211182
0.673401 0.256775 0.217865
0.698547 0.264069 0.224487
0.723450 0.271637 0.230774
0.747345 0.279053 0.237000
0.770996 0.286743 0.242920
0.794312 0.294464 0.248779
0.816925 0.302490 0.254242
0.102600 0.169586 0.105469
0.106384 0.173981 0.104828
0.114380 0.178833 0.105682
0.129150 0.177338 0.113770
0.142639 0.176666 0.118408
0.155640 0.173584 0.126740
0.167450 0.171600 0.125366
0.188568 0.166870 0.114471
0.212524 0.163849 0.110168
0.238342 0.166901 0.107483
0.264740 0.171417 0.104828
0.289825 0.176483 0.106689
0.313293 0.182220 0.111450
0.337921 0.187988 0.118164
0.363037 0.193787 0.125214
0.389130 0.199341 0.133118
0.415833 0.204773 0.141296
0.443237 0.210205 0.149292
0.471039 0.215576 0.157715
0.499329 0.221161 0.166443
0.527374 0.227417 0.174744
0.554871 0.234528 0.182190
0.582214 0.242065 0.189270
0.609192 0.249542 0.196259
0.635620 0.256561 0.203125
0.661652 0.263763 0.209930
0.687469 0.270935 0.216644
0.712585 0.278229 0.223175
0.736755 0.285522 0.229462
0.760468 0.292999 0.235474
0.783264 0.300323 0.241364
0.805756 0.307892 0.246918
0.827759 0.315643 0.252411
0.110016 0.182831 0.107239
0.115173 0.186981 0.107758
0.122620 0.192383 0.109100
0.134399 0.192444 0.115234
0.146515 0.192078 0.119354
0.159943 0.188934 0.126953
0.172424 0.185760 0.135315
0.190338 0.185730 0.125610
0.213440 0.178711 0.118073
0.240631 0.175354 0.111389
0.269257 0.177734 0.105988
0.296997 0.182587 0.105164
0.324371 0.188354 0.111816
0.351196 0.194061 0.119781
0.378326 0.199951 0.127686
0.405579 0.205780 0.136108
0.433350 0.211273 0.144806
0.460815 0.216736 0.153107
0.488861 0.222748 0.161285
0.515869 0.229340 0.168915
0.542603 0.236664 0.175995
0.569580 0.244537 0.182770
0.596222 0.252808 0.189362
0.622345 0.261200 0.195892
0.648987 0.269562 0.202606
0.675476 0.277924 0.209167
0.701477 0.286438 0.215576
0.726746 0.295380 0.221619
0.751129 0.303619 0.227631
0.774902 0.311523 0.233582
0.796997 0.318817 0.239197
0.818970 0.326202 0.244812
0.838593 0.333130 0.249664
0.118530 0.195953 0.111389
0.123383 0.199799 0.112335
0.130310 0.205414 0.113678
0.139404 0.208252 0.117554
0.150146 0.208374 0.121094
0.163635 0.205505 0.127594
0.179016 0.201050 0.136414
0.193787 0.201172 0.138794
0.216553 0.198944 0.127014
0.242157 0.191162 0.120697
0.271973 0.187683 0.111023
0.301544 0.189453 0.106628
0.331146 0.194641 0.110779
0.362671 0.200409 0.120697
0.393372 0.206116 0.130341
0.422516 0.212006 0.139435
0.451111 0.217896 0.148804
0.479767 0.224274 0.157013
0.508087 0.230865 0.164886
0.535339 0.237976 0.172363
0.561218 0.245728 0.179077
0.587219 0.253693 0.185547
0.613281 0.262054 0.191986
0.639008 0.270813 0.198212
0.664368 0.279907 0.204193
0.689728 0.289459 0.209991
0.714966 0.299469 0.215759
0.738647 0.309937 0.221039
0.762726 0.319977 0.226349
0.785736 0.329865 0.231415
0.806854 0.339417 0.236176
0.827026 0.348999 0.240753
0.841248 0.353912 0.244568
0.126709 0.208740 0.116028
0.130981 0.212585 0.117035
0.137115 0.218170 0.118317
0.144257 0.223969 0.120300
0.153809 0.224915 0.123047
0.167267 0.222717 0.128845
0.183411 0.217651 0.136993
0.200653 0.213989 0.142059
0.222107 0.219391 0.139984
0.245087 0.211395 0.130585
0.274017 0.204041 0.122314
0.305908 0.200836 0.112030
0.336243 0.202179 0.111084
0.368713 0.206848 0.119507
0.402985 0.212494 0.130463
0.436829 0.218750 0.141693
0.468628 0.225555 0.151733
0.498444 0.232422 0.160706
0.527161 0.239899 0.168152
0.554413 0.247589 0.175293
0.579803 0.255554 0.181854
0.605011 0.263641 0.188263
0.630157 0.271912 0.194580
0.655334 0.280792 0.200623
0.680115 0.290070 0.206238
0.704559 0.299896 0.211670
0.728607 0.310394 0.216888
0.751770 0.321564 0.221863
0.774078 0.332764 0.226379
0.796631 0.344391 0.230286
0.817200 0.355804 0.233917
0.837158 0.367645 0.236694
0.844330 0.371063 0.238739
0.134003 0.221313 0.120605
0.137787 0.225006 0.121552
0.142731 0.230713 0.123047
0.148926 0.237274 0.124573
0.157898 0.241302 0.125854
0.170990 0.239838 0.130341
0.187683 0.234711 0.137665
0.206055 0.229126 0.144867
0.230072 0.231781 0.140900
0.253723 0.235291 0.140320
0.276520 0.223389 0.136078
0.308563 0.217255 0.124969
0.341553 0.214142 0.115753
0.374115 0.215271 0.117737
0.409119 0.219666 0.128876
0.445007 0.226257 0.140289
0.480316 0.233704 0.151825
0.513672 0.241425 0.161926
0.543762 0.249329 0.170624
0.571594 0.257538 0.177887
0.597260 0.265625 0.184357
0.621552 0.273834 0.190338
0.646088 0.282379 0.196259
0.669922 0.291290 0.202026
0.693054 0.300720 0.207550
0.717407 0.310699 0.212921
0.740906 0.321259 0.217590
0.764343 0.332642 0.222229
0.786346 0.344452 0.226288
0.808228 0.356903 0.229401
0.828644 0.369385 0.232544
0.847534 0.382080 0.234100
0.850128 0.383698 0.234558
0.140594 0.234192 0.125214
0.143219 0.237122 0.125916
0.147522 0.242950 0.127625
0.153320 0.249512 0.129150
0.162170 0.254211 0.130096
0.175354 0.257416 0.132660
0.192535 0.252716 0.138580
0.211884 0.246857 0.146027
0.234589 0.246826 0.146515
0.262573 0.251343 0.140076
0.287506 0.254120 0.143616
0.312317 0.238251 0.140259
0.346375 0.233185 0.126892
0.380493 0.229919 0.121490
0.415771 0.231201 0.125580
0.452515 0.236084 0.137665
0.488434 0.242645 0.149658
0.522705 0.250305 0.160492
0.555023 0.258698 0.170074
0.584778 0.267303 0.178497
0.612091 0.275909 0.185547
0.637421 0.284332 0.191803
0.661072 0.292999 0.197601
0.684204 0.302032 0.202911
0.706421 0.311646 0.208008
0.729309 0.321838 0.212860
0.752441 0.332520 0.217285
0.775116 0.343842 0.221497
0.797302 0.355988 0.225250
0.818939 0.369110 0.227692
0.839569 0.382111 0.230438
0.857544 0.394653 0.231812
0.858185 0.394928 0.231812
0.146606 0.247742 0.130157
0.147888 0.249237 0.130371
0.151917 0.255005 0.132080
0.157532 0.261688 0.133575
0.166504 0.266541 0.134674
0.179932 0.271515 0.136383
0.198273 0.272064 0.140411
0.218445 0.266602 0.146545
0.239197 0.263184 0.151093
0.269287 0.269714 0.144348
0.296478 0.273071 0.142303
0.323761 0.275879 0.150391
0.352142 0.257111 0.141266
0.387848 0.252777 0.129700
0.423950 0.249481 0.129211
0.460419 0.250031 0.134155
0.497192 0.254822 0.145844
0.531281 0.261047 0.157501
0.563080 0.268494 0.167694
0.593384 0.277008 0.176666
0.622345 0.285736 0.184601
0.648865 0.294830 0.191467
0.674561 0.303833 0.197906
0.697479 0.313110 0.203278
0.719696 0.322693 0.207825
0.741364 0.332855 0.212128
0.763641 0.344086 0.216248
0.785431 0.355865 0.219696
0.807007 0.368042 0.223053
0.828430 0.381104 0.225250
0.848358 0.394592 0.227753
0.865051 0.407104 0.229279
0.865265 0.407166 0.229370
0.151978 0.261414 0.134918
0.152618 0.262146 0.135101
0.156189 0.267151 0.136414
0.161926 0.274017 0.138184
0.171051 0.279022 0.139160
0.185669 0.284241 0.140900
0.204834 0.289154 0.143524
0.225891 0.286346 0.148438
0.246765 0.282043 0.153748
0.274078 0.286804 0.151764
0.307861 0.293396 0.146698
0.334808 0.298126 0.149689
0.362549 0.297729 0.155792
0.395447 0.278564 0.142181
0.432953 0.274445 0.136566
0.469971 0.271332 0.138428
0.505371 0.270599 0.142792
0.539612 0.274902 0.153412
0.571381 0.281342 0.163513
0.601044 0.288483 0.173126
0.629944 0.296356 0.181732
0.657196 0.305023 0.189240
0.683075 0.314484 0.195953
0.708344 0.324249 0.201904
0.731445 0.334442 0.206726
0.753082 0.344543 0.210999
0.774139 0.355774 0.214630
0.795471 0.367889 0.217407
0.816040 0.380859 0.220459
0.836334 0.393951 0.222748
0.856079 0.407654 0.224945
0.871094 0.419556 0.226532
0.871277 0.419739 0.226715
0.156860 0.274780 0.139587
0.157471 0.275452 0.139862
0.160370 0.279541 0.140961
0.166626 0.286865 0.142792
0.176758 0.292084 0.143707
0.192535 0.297607 0.145752
0.212311 0.304138 0.148041
0.234314 0.304840 0.151825
0.255920 0.301117 0.156952
0.280670 0.303497 0.158478
0.315002 0.313080 0.153351
0.347595 0.317932 0.154816
0.377899 0.326416 0.159485
0.403870 0.319214 0.158905
0.442169 0.301758 0.147583
0.479279 0.297455 0.146057
0.514771 0.294495 0.148315
0.547485 0.293549 0.151398
0.578400 0.296692 0.159607
0.608276 0.302795 0.168518
0.636719 0.309784 0.177338
0.663910 0.317169 0.185242
0.689941 0.325623 0.192291
0.714996 0.335175 0.198486
0.739288 0.345825 0.203644
0.762787 0.356873 0.208557
0.783630 0.368378 0.212372
0.804382 0.380341 0.215240
0.824371 0.393555 0.217987
0.843536 0.406982 0.220459
0.863770 0.421082 0.223450
0.874237 0.432159 0.225830
0.874298 0.432068 0.225922
0.161194 0.287750 0.144226
0.161774 0.288391 0.144348
0.164825 0.292389 0.145538
0.172028 0.300720 0.147461
0.183899 0.306152 0.148499
0.200409 0.312256 0.150604
0.220856 0.319458 0.153046
0.243347 0.321930 0.156219
0.265930 0.319611 0.160858
0.289368 0.320679 0.163818
0.321350 0.330353 0.160309
0.358246 0.338959 0.160339
0.387207 0.344238 0.164124
0.422302 0.355560 0.169037
0.447937 0.342529 0.165405
0.489044 0.326294 0.156677
0.523651 0.322113 0.156067
0.556641 0.319489 0.158295
0.586578 0.318604 0.161011
0.615204 0.319794 0.165802
0.642914 0.325134 0.173096
0.670044 0.332001 0.180573
0.695221 0.339600 0.187927
0.720337 0.347656 0.194519
0.743835 0.357513 0.200195
0.768066 0.368500 0.204987
0.790863 0.380768 0.209381
0.812103 0.393311 0.213074
0.832977 0.406403 0.216278
0.852112 0.419769 0.220062
0.871185 0.433777 0.224731
0.875275 0.443512 0.226593
0.875275 0.443359 0.226593
0.164856 0.300171 0.148590
0.165680 0.300842 0.148590
0.170502 0.307068 0.150238
0.178986 0.315186 0.151978
0.191895 0.320892 0.153198
0.209015 0.327362 0.155304
0.229889 0.334991 0.157715
0.252655 0.338257 0.160583
0.276001 0.337158 0.164948
0.299072 0.337646 0.168396
0.328613 0.346344 0.166718
0.365570 0.358307 0.165527
0.400970 0.365021 0.169647
0.429291 0.373199 0.173798
0.465973 0.384491 0.178741
0.491943 0.367828 0.174896
0.533081 0.352478 0.166931
0.564636 0.348419 0.166473
0.594910 0.345978 0.168549
0.623108 0.344696 0.171387
0.650055 0.344452 0.173859
0.675964 0.348175 0.178436
0.701660 0.355011 0.184631
0.725769 0.362976 0.190582
0.749176 0.371155 0.196686
0.772644 0.380768 0.201965
0.795624 0.392303 0.206818
0.817841 0.405396 0.211426
0.840332 0.418945 0.216339
0.860504 0.432770 0.221771
0.875488 0.446228 0.226593
0.876251 0.454163 0.227081
0.876251 0.454163 0.227081
0.168732 0.312286 0.152557
0.171173 0.314880 0.153046
0.177979 0.323700 0.155212
0.187042 0.330109 0.156403
0.200470 0.335632 0.157654
0.217896 0.342285 0.159698
0.239014 0.350159 0.162048
0.262268 0.353760 0.164917
0.285645 0.353485 0.168854
0.308746 0.353882 0.172485
0.336334 0.361542 0.172913
0.371857 0.374939 0.170319
0.410004 0.385437 0.174408
0.441925 0.392090 0.179016
0.473846 0.404846 0.184509
0.507202 0.413300 0.188477
0.532104 0.395355 0.184692
0.572601 0.380676 0.178497
0.601959 0.376221 0.177032
0.630035 0.373627 0.179138
0.656982 0.371979 0.181488
0.682831 0.370941 0.183868
0.707672 0.372437 0.186493
0.732056 0.378967 0.191010
0.755432 0.386963 0.196014
0.778412 0.395752 0.201141
0.800781 0.405029 0.206390
0.822937 0.417114 0.211548
0.845276 0.430634 0.217926
0.866302 0.445190 0.224060
0.876404 0.458344 0.227631
0.876587 0.464355 0.228333
0.876587 0.464355 0.228333
0.174988 0.326630 0.156769
0.178864 0.331421 0.157837
0.186279 0.340179 0.160004
0.195557 0.345184 0.160614
0.209259 0.350433 0.162079
0.226959 0.357056 0.164093
0.248291 0.364990 0.166382
0.271790 0.368561 0.169312
0.295349 0.369080 0.173004
0.318390 0.369751 0.176483
0.344727 0.376709 0.177765
0.377747 0.389801 0.175690
0.415924 0.403534 0.178345
0.452881 0.412872 0.184509
0.480255 0.420319 0.188751
0.515961 0.437927 0.195801
0.544403 0.443787 0.198975
0.567505 0.425598 0.195038
0.607605 0.411224 0.191437
0.636627 0.405579 0.188080
0.663177 0.402924 0.189667
0.688538 0.400604 0.191833
0.713654 0.398987 0.194214
0.737335 0.398285 0.196320
0.760834 0.403931 0.200317
0.783936 0.412201 0.204712
0.806335 0.421173 0.209198
0.828278 0.430573 0.214203
0.850464 0.442474 0.220032
0.870819 0.456665 0.226166
0.876953 0.469849 0.229706
0.877045 0.473694 0.230774
0.876984 0.473541 0.230682
0.183624 0.344086 0.161560
0.187805 0.349457 0.162933
0.194611 0.355316 0.164215
0.204407 0.360016 0.164856
0.218384 0.365417 0.166565
0.236237 0.372192 0.168579
0.257660 0.379852 0.170990
0.280914 0.382965 0.173950
0.304413 0.384094 0.177490
0.327545 0.385468 0.181091
0.353119 0.392303 0.182526
0.383392 0.404053 0.181641
0.419891 0.419495 0.182373
0.457947 0.432220 0.188934
0.492615 0.441864 0.194824
0.516266 0.450806 0.199097
0.552612 0.471252 0.207062
0.578491 0.476379 0.210205
0.599884 0.457855 0.205688
0.639984 0.444122 0.204254
0.668274 0.436401 0.200531
0.693817 0.433533 0.200562
0.718323 0.430664 0.202332
0.742126 0.427856 0.204468
0.765564 0.425598 0.206421
0.788300 0.429993 0.209961
0.811340 0.438019 0.214233
0.833282 0.447235 0.218933
0.854950 0.456757 0.223755
0.875031 0.468658 0.229065
0.877228 0.480927 0.232819
0.877411 0.483429 0.233551
0.877502 0.483124 0.233368
0.192352 0.362244 0.166779
0.196716 0.367950 0.168365
0.203003 0.371490 0.168854
0.212952 0.376373 0.169739
0.227234 0.382080 0.171539
0.245178 0.389160 0.173676
0.266449 0.394836 0.176270
0.289337 0.397705 0.179047
0.312775 0.399445 0.182495
0.335999 0.401245 0.186249
0.360718 0.407715 0.187988
0.389069 0.418823 0.188171
0.422791 0.433716 0.187805
0.460297 0.449554 0.192383
0.497009 0.461884 0.199585
0.528198 0.472137 0.205292
0.550201 0.482605 0.209869
0.585388 0.504333 0.218262
0.610565 0.509796 0.221649
0.630676 0.492096 0.216949
0.670410 0.478851 0.216156
0.696747 0.468079 0.213776
0.722443 0.464783 0.212372
0.747253 0.461212 0.212769
0.769684 0.457397 0.214508
0.791992 0.453735 0.216400
0.814850 0.456573 0.219513
0.836914 0.464508 0.224152
0.858154 0.473663 0.228851
0.876740 0.483398 0.233337
0.876984 0.493134 0.235992
0.877014 0.493988 0.236206
0.877319 0.493774 0.236023
0.200226 0.380646 0.172363
0.204651 0.386353 0.173981
0.210846 0.390015 0.174530
0.220673 0.395447 0.175446
0.235199 0.401367 0.177368
0.253296 0.406982 0.179535
0.274170 0.410065 0.182007
0.296997 0.412476 0.184753
0.320618 0.414825 0.188141
0.344238 0.417511 0.191803
0.368103 0.422821 0.193726
0.395569 0.433960 0.194183
0.426575 0.447723 0.193970
0.462585 0.464661 0.196350
0.499481 0.480103 0.203430
0.533661 0.492432 0.210327
0.560699 0.502808 0.215759
0.582153 0.514648 0.220734
0.616425 0.537567 0.229614
0.640533 0.543610 0.233185
0.660065 0.528168 0.229431
0.698639 0.514374 0.227783
0.724243 0.500732 0.226227
0.749817 0.496246 0.224915
0.773895 0.491638 0.223785
0.796143 0.487061 0.224609
0.817657 0.482208 0.226013
0.839386 0.483673 0.228943
0.860687 0.491150 0.233368
0.876892 0.499969 0.237396
0.877106 0.508301 0.239197
0.877563 0.507019 0.238678
0.877563 0.506836 0.238556
0.207764 0.398621 0.178131
0.211975 0.402985 0.179688
0.218170 0.406952 0.180450
0.228180 0.412567 0.181458
0.243042 0.418732 0.183533
0.261108 0.421936 0.185486
0.281738 0.423737 0.187622
0.304443 0.426514 0.190399
0.328308 0.429413 0.193909
0.352203 0.433075 0.197571
0.375732 0.438049 0.199799
0.402527 0.448792 0.200104
0.432159 0.462433 0.199982
0.465149 0.478180 0.201599
0.501648 0.496033 0.206879
0.536621 0.510895 0.214539
0.567963 0.523560 0.221191
0.591553 0.533844 0.226318
0.612274 0.546661 0.231628
0.645599 0.570282 0.240814
0.668915 0.577423 0.244781
0.688354 0.565216 0.242584
0.724487 0.549835 0.239746
0.751038 0.534119 0.237671
0.774231 0.527771 0.237122
0.798187 0.521881 0.235626
0.821320 0.516205 0.234558
0.842468 0.510193 0.235291
0.862976 0.510529 0.237610
0.877289 0.517731 0.241272
0.878113 0.525208 0.242554
0.877930 0.523438 0.242218
0.877899 0.523560 0.242157
0.215057 0.413391 0.183899
0.218536 0.414185 0.185150
0.224854 0.417938 0.185913
0.235138 0.423828 0.186920
0.250275 0.430634 0.189087
0.268341 0.433807 0.191193
0.289307 0.435944 0.193604
0.311920 0.439514 0.196198
0.335907 0.443451 0.199554
0.360199 0.448090 0.203247
0.383942 0.453308 0.206085
0.410095 0.463654 0.206421
0.439240 0.477570 0.206055
0.470123 0.492432 0.207153
0.504242 0.510040 0.211273
0.538879 0.527313 0.217926
0.571075 0.541748 0.225433
0.599701 0.554504 0.231934
0.621033 0.564880 0.236908
0.641083 0.578369 0.242401
0.672943 0.602631 0.251831
0.696198 0.611389 0.256439
0.715240 0.601868 0.255493
0.749542 0.585327 0.252136
0.777924 0.567505 0.248871
0.798248 0.557861 0.247711
0.822235 0.550751 0.246429
0.845001 0.544556 0.244751
0.866089 0.537659 0.244507
0.877960 0.537262 0.245453
0.878326 0.543549 0.246857
0.878143 0.540894 0.246399
0.878082 0.541199 0.246277
0.221710 0.422546 0.189606
0.225098 0.423187 0.190857
0.231628 0.427277 0.191498
0.242157 0.433411 0.192474
0.257416 0.440643 0.194672
0.275696 0.444702 0.196899
0.296814 0.447601 0.199432
0.319458 0.451874 0.202118
0.343567 0.456787 0.205536
0.368347 0.462463 0.209320
0.392548 0.468201 0.212555
0.418243 0.478149 0.213257
0.446899 0.492401 0.212555
0.476715 0.507324 0.212952
0.508209 0.523468 0.216248
0.541565 0.541565 0.221741
0.573364 0.557983 0.229004
0.602997 0.572327 0.236145
0.629791 0.585480 0.242615
0.650116 0.596619 0.247742
0.668610 0.609619 0.253052
0.698700 0.634186 0.262512
0.721619 0.644623 0.267670
0.739319 0.636536 0.267242
0.773651 0.619598 0.264465
0.804291 0.599426 0.259613
0.823669 0.588104 0.258026
0.844604 0.579102 0.256927
0.866150 0.571808 0.255524
0.877258 0.565308 0.253265
0.877441 0.564056 0.252716
0.877319 0.560211 0.251740
0.877319 0.560211 0.251740
0.228607 0.430756 0.195374
0.231995 0.431641 0.196655
0.238586 0.435974 0.197266
0.249359 0.442474 0.198212
0.264832 0.450104 0.200348
0.283264 0.455017 0.202698
0.304230 0.458527 0.205109
0.327179 0.463074 0.208160
0.351532 0.468750 0.211914
0.376709 0.475433 0.215851
0.401428 0.482941 0.219147
0.426880 0.493164 0.220154
0.455322 0.508087 0.219482
0.484863 0.523956 0.219757
0.514435 0.539459 0.222473
0.544617 0.555664 0.226868
0.575470 0.572998 0.232452
0.604950 0.589020 0.239716
0.632843 0.603638 0.246918
0.658417 0.617523 0.253571
0.677734 0.628723 0.258545
0.693878 0.640167 0.263275
0.722992 0.665100 0.272827
0.746857 0.677399 0.278748
0.763428 0.669769 0.278595
0.797363 0.651825 0.276184
0.829437 0.629822 0.270111
0.849335 0.617859 0.268463
0.865540 0.607422 0.267029
0.874054 0.598938 0.264801
0.874786 0.592743 0.262970
0.875427 0.585114 0.260345
0.875488 0.585144 0.260376
0.236267 0.438354 0.201843
0.239410 0.439484 0.202698
0.246094 0.443848 0.203278
0.257233 0.451416 0.204163
0.272858 0.460358 0.206329
0.291473 0.466949 0.208832
0.312439 0.472076 0.211456
0.335388 0.478088 0.214600
0.359955 0.485474 0.218262
0.385590 0.493744 0.222015
0.411224 0.504028 0.225250
0.436127 0.514496 0.226685
0.464081 0.530304 0.227264
0.493439 0.547485 0.228516
0.522247 0.563446 0.231934
0.550171 0.578247 0.236145
0.577423 0.592957 0.240204
0.605103 0.608490 0.244934
0.632568 0.623932 0.250946
0.659515 0.638733 0.258057
0.684296 0.651947 0.264618
0.703369 0.662323 0.269592
0.717499 0.671387 0.273590
0.745880 0.694458 0.282715
0.770905 0.708038 0.289215
