cube滤镜(3D LUT)/Lollingite.cube
# Created by: Lutify.me
# Copyright: (c) Copyright Lutify.me 2015
# Website: https://lutify.me
#LUT size
LUT_3D_SIZE 5
#LUT data points
0.086090 0.097137 0.110077
0.191681 0.139526 0.117401
0.372528 0.173401 0.144318
0.590332 0.218079 0.208405
0.792908 0.277863 0.259918
0.118530 0.195953 0.111389
0.216553 0.198944 0.127014
0.451111 0.217896 0.148804
0.664368 0.279907 0.204193
0.841248 0.353912 0.244568
0.164856 0.300171 0.148590
0.276001 0.337158 0.164948
0.533081 0.352478 0.166931
0.749176 0.371155 0.196686
0.876251 0.454163 0.227081
0.221710 0.422546 0.189606
0.343567 0.456787 0.205536
0.573364 0.557983 0.229004
0.773651 0.619598 0.264465
0.877319 0.560211 0.251740
0.347076 0.697418 0.283844
0.432037 0.742828 0.298706
0.624786 0.771606 0.311707
0.778625 0.799652 0.315765
0.887939 0.810089 0.329132
0.112549 0.150970 0.175354
0.240631 0.163422 0.184052
0.447327 0.188477 0.188080
0.623688 0.227203 0.217194
0.799042 0.278992 0.262360
0.130157 0.198364 0.204773
0.197449 0.223663 0.235077
0.448151 0.231476 0.206970
0.656830 0.250214 0.219208
0.835907 0.318970 0.254181
0.169098 0.340637 0.223175
0.232452 0.373810 0.195923
0.525146 0.392487 0.213898
0.738922 0.401123 0.198303
0.873627 0.482635 0.232758
0.181152 0.380096 0.232239
0.307037 0.472076 0.226898
0.563019 0.566528 0.261200
0.771973 0.624207 0.265472
0.876099 0.573730 0.256805
0.352814 0.709015 0.288239
0.406311 0.753082 0.302032
0.606720 0.789520 0.317719
0.775482 0.814819 0.322968
0.888580 0.821930 0.343201
0.150055 0.215179 0.267639
0.198883 0.217834 0.280060
0.526184 0.245148 0.244873
0.702087 0.275879 0.266876
0.839783 0.332306 0.308380
0.155731 0.232422 0.280426
0.189880 0.269073 0.335175
0.518616 0.283508 0.291992
0.699890 0.305267 0.300812
0.836853 0.355225 0.336304
0.193878 0.348206 0.369324
0.214203 0.402649 0.417389
0.452087 0.454376 0.457123
0.710144 0.473328 0.442719
0.869934 0.492767 0.427765
0.279785 0.584717 0.519196
0.254425 0.536530 0.439819
0.507416 0.573730 0.400177
0.756561 0.655243 0.392975
0.891357 0.640564 0.417358
0.334076 0.773193 0.443512
0.328827 0.780182 0.378143
0.559052 0.866943 0.399414
0.764862 0.834778 0.455780
0.890228 0.837830 0.474670
0.182648 0.283539 0.362640
0.206482 0.280151 0.347717
0.467926 0.321136 0.325195
0.739502 0.337372 0.326721
0.820923 0.396484 0.412201
0.187836 0.294800 0.375275
0.203003 0.317841 0.421173
0.448273 0.342438 0.395782
0.724518 0.372772 0.404297
0.824432 0.432770 0.480194
0.222351 0.368469 0.457062
0.248444 0.415802 0.520905
0.399597 0.460144 0.609680
0.735596 0.485443 0.568787
0.840485 0.546051 0.601013
0.288391 0.522644 0.592896
0.304047 0.562805 0.623383
0.390411 0.619751 0.685242
0.718933 0.693665 0.686157
0.882721 0.699951 0.677551
0.367096 0.757080 0.754883
0.390076 0.816956 0.769836
0.386414 0.842041 0.657684
0.737396 0.869324 0.615570
0.884277 0.854828 0.678986
0.230957 0.372284 0.488922
0.229218 0.368713 0.457977
0.400696 0.389557 0.469055
0.699829 0.432770 0.529541
0.853516 0.491333 0.653961
0.240356 0.382294 0.519165
0.254486 0.398895 0.562897
0.348145 0.385864 0.550018
0.702698 0.429779 0.614746
0.863800 0.503540 0.703888
0.273468 0.442566 0.596619
0.294006 0.476166 0.646637
0.359589 0.491730 0.715912
0.652863 0.492615 0.715759
0.882660 0.560394 0.776855
0.322906 0.536804 0.702026
0.341431 0.573181 0.739838
0.377594 0.590515 0.764160
0.675476 0.669586 0.796021
0.887207 0.689484 0.818970
0.381256 0.669403 0.806976
0.393799 0.706177 0.825867
0.405182 0.741943 0.842987
0.669922 0.801941 0.844666
0.876221 0.870392 0.842896
