cube滤镜(3D LUT)/Lollingite.cube
# Created by: Lutify.me
# Copyright: (c) Copyright Lutify.me 2015
# Website: https://lutify.me
#LUT size
LUT_3D_SIZE 9
#LUT data points
0.086090 0.097137 0.110077
0.126373 0.117035 0.115875
0.191681 0.139526 0.117401
0.278503 0.152771 0.122040
0.372528 0.173401 0.144318
0.483215 0.193909 0.177094
0.590332 0.218079 0.208405
0.694366 0.247040 0.236053
0.792908 0.277863 0.259918
0.094666 0.146362 0.109772
0.130798 0.149628 0.118408
0.203979 0.152649 0.109985
0.293243 0.169403 0.117126
0.394470 0.186859 0.143341
0.504150 0.207001 0.177155
0.609863 0.232330 0.205444
0.712402 0.261597 0.232086
0.808411 0.293274 0.255676
0.118530 0.195953 0.111389
0.150146 0.208374 0.121094
0.216553 0.198944 0.127014
0.331146 0.194641 0.110779
0.451111 0.217896 0.148804
0.561218 0.245728 0.179077
0.664368 0.279907 0.204193
0.762726 0.319977 0.226349
0.841248 0.353912 0.244568
0.146606 0.247742 0.130157
0.166504 0.266541 0.134674
0.239197 0.263184 0.151093
0.352142 0.257111 0.141266
0.497192 0.254822 0.145844
0.622345 0.285736 0.184601
0.719696 0.322693 0.207825
0.807007 0.368042 0.223053
0.865265 0.407166 0.229370
0.164856 0.300171 0.148590
0.191895 0.320892 0.153198
0.276001 0.337158 0.164948
0.400970 0.365021 0.169647
0.533081 0.352478 0.166931
0.650055 0.344452 0.173859
0.749176 0.371155 0.196686
0.840332 0.418945 0.216339
0.876251 0.454163 0.227081
0.192352 0.362244 0.166779
0.227234 0.382080 0.171539
0.312775 0.399445 0.182495
0.422791 0.433716 0.187805
0.550201 0.482605 0.209869
0.670410 0.478851 0.216156
0.769684 0.457397 0.214508
0.858154 0.473663 0.228851
0.877319 0.493774 0.236023
0.221710 0.422546 0.189606
0.257416 0.440643 0.194672
0.343567 0.456787 0.205536
0.446899 0.492401 0.212555
0.573364 0.557983 0.229004
0.668610 0.609619 0.253052
0.773651 0.619598 0.264465
0.866150 0.571808 0.255524
0.877319 0.560211 0.251740
0.262817 0.504395 0.219208
0.298126 0.538361 0.224396
0.376801 0.561127 0.231049
0.484314 0.610138 0.250732
0.592041 0.658386 0.267426
0.683716 0.696259 0.276672
0.763397 0.731873 0.293549
0.870911 0.737091 0.307495
0.881409 0.685181 0.290436
0.347076 0.697418 0.283844
0.360168 0.716431 0.290588
0.432037 0.742828 0.298706
0.528198 0.756927 0.303467
0.624786 0.771606 0.311707
0.703644 0.784729 0.315094
0.778625 0.799652 0.315765
0.855957 0.833252 0.329498
0.887939 0.810089 0.329132
0.096649 0.124207 0.141510
0.146240 0.131104 0.148499
0.212799 0.140808 0.147095
0.299347 0.146393 0.144348
0.383484 0.164978 0.158417
0.487000 0.189117 0.185699
0.590118 0.216003 0.213562
0.690765 0.243774 0.240143
0.785919 0.272034 0.263702
0.103821 0.144226 0.152557
0.131714 0.149323 0.157562
0.200531 0.167114 0.155487
0.301849 0.177887 0.144257
0.406616 0.187622 0.148193
0.508148 0.203644 0.180756
0.609314 0.227386 0.208679
0.709808 0.256409 0.234772
0.806335 0.288147 0.258087
0.119629 0.204071 0.150726
0.130646 0.216858 0.146027
0.218445 0.208191 0.153015
0.332001 0.204224 0.135345
0.440765 0.225494 0.140533
0.545990 0.248810 0.171509
0.649506 0.277466 0.199677
0.748657 0.308685 0.225159
0.840210 0.340424 0.248230
0.138763 0.252197 0.135254
0.152008 0.274658 0.140717
0.237885 0.276154 0.161957
0.358368 0.270538 0.160156
0.507812 0.264099 0.145996
0.618225 0.294159 0.177551
0.708313 0.329254 0.198883
0.793732 0.374237 0.213409
0.856415 0.416260 0.222046
0.157837 0.298828 0.149384
0.182343 0.336395 0.159271
0.270416 0.348938 0.173218
0.402313 0.374939 0.172729
0.537933 0.367340 0.174133
0.656799 0.356537 0.177612
0.754913 0.381866 0.195709
0.835083 0.428558 0.215210
0.876495 0.464020 0.228516
0.167969 0.342316 0.163086
0.218201 0.394897 0.177094
0.303223 0.406738 0.189697
0.419647 0.438873 0.201874
0.554565 0.491760 0.212402
0.671509 0.490875 0.219666
0.772095 0.467346 0.216614
0.862946 0.483093 0.231628
0.877472 0.506104 0.238617
0.198730 0.415955 0.186035
0.247986 0.438843 0.199097
0.332336 0.457306 0.210022
0.442749 0.493469 0.226929
0.574768 0.565033 0.230377
0.669891 0.614319 0.254272
0.771912 0.621155 0.264648
0.868286 0.577606 0.257538
0.877655 0.565826 0.253296
0.248474 0.513702 0.218445
0.293488 0.546356 0.230408
0.369934 0.568909 0.236786
0.472473 0.598206 0.246490
0.590302 0.663818 0.269897
0.683899 0.700897 0.278870
0.762115 0.730804 0.293060
0.871002 0.735107 0.306824
0.880890 0.686584 0.291534
0.354736 0.713135 0.289764
0.360107 0.724060 0.293884
0.423737 0.740173 0.297455
0.517670 0.762726 0.305786
0.618469 0.779114 0.314362
0.701996 0.792480 0.318787
0.777588 0.805573 0.318634
0.852051 0.832336 0.328674
0.888062 0.814819 0.330292
0.112549 0.150970 0.175354
0.138031 0.153198 0.179565
0.240631 0.163422 0.184052
0.333801 0.171570 0.178711
0.447327 0.188477 0.188080
0.545135 0.205200 0.198273
0.623688 0.227203 0.217194
0.712067 0.252197 0.240814
0.799042 0.278992 0.262360
0.114594 0.155640 0.177765
0.137604 0.170105 0.195160
0.234955 0.179443 0.198761
0.337524 0.183136 0.188080
0.452362 0.194336 0.191528
0.559570 0.210663 0.202423
0.630890 0.231171 0.216583
0.715454 0.254425 0.239899
0.802917 0.281128 0.262482
0.130157 0.198364 0.204773
0.137085 0.212006 0.217743
0.197449 0.223663 0.235077
0.322083 0.235352 0.218109
0.448151 0.231476 0.206970
0.561707 0.232971 0.208649
0.656830 0.250214 0.219208
0.742889 0.284271 0.232635
0.835907 0.318970 0.254181
0.159943 0.295959 0.245483
0.154266 0.289062 0.211517
0.181061 0.313293 0.191132
0.347900 0.301605 0.209229
0.493958 0.289429 0.200836
0.604980 0.315582 0.210541
0.694977 0.344788 0.220642
0.782257 0.378571 0.226685
0.863983 0.419922 0.235657
0.169098 0.340637 0.223175
0.162231 0.325592 0.195801
0.232452 0.373810 0.195923
0.381256 0.389069 0.220154
0.525146 0.392487 0.213898
0.650696 0.373962 0.193970
0.738922 0.401123 0.198303
0.817657 0.444489 0.216583
0.873627 0.482635 0.232758
0.176422 0.366913 0.223572
0.168304 0.349182 0.192261
0.273956 0.427246 0.208038
0.404388 0.445892 0.239777
0.558228 0.508636 0.226013
0.667267 0.509216 0.224121
0.764191 0.477722 0.218628
0.851593 0.495575 0.233002
0.877777 0.526215 0.242981
0.181152 0.380096 0.232239
0.183960 0.396393 0.210144
0.307037 0.472076 0.226898
0.429108 0.496613 0.252289
0.563019 0.566528 0.261200
0.674347 0.624847 0.257172
0.771973 0.624207 0.265472
0.862549 0.578247 0.257416
0.876099 0.573730 0.256805
0.202789 0.451477 0.234467
0.220764 0.500336 0.224792
0.349365 0.603149 0.255920
0.462830 0.615234 0.265533
0.576965 0.659821 0.283081
0.680267 0.706665 0.290466
0.764282 0.735413 0.294403
0.871613 0.732758 0.306244
0.881165 0.689880 0.292694
0.352814 0.709015 0.288239
0.362823 0.729919 0.296265
0.406311 0.753082 0.302032
0.502716 0.767517 0.307495
0.606720 0.789520 0.317719
0.695740 0.802948 0.323853
0.775482 0.814819 0.322968
0.847839 0.832794 0.328918
0.888580 0.821930 0.343201
0.131989 0.180359 0.218903
0.145721 0.179901 0.217896
0.216980 0.187866 0.231995
0.369965 0.204315 0.221130
0.481995 0.213928 0.218719
0.592529 0.232239 0.232239
0.681396 0.254425 0.249725
0.764130 0.273285 0.262482
0.836090 0.296570 0.275330
0.133667 0.184235 0.222015
0.144135 0.196014 0.238525
0.196136 0.199951 0.251923
0.371094 0.215820 0.233459
0.485077 0.222900 0.228241
0.595032 0.239136 0.239349
0.683411 0.260406 0.255737
0.766724 0.278046 0.266937
0.840179 0.301788 0.279938
0.142578 0.207092 0.238983
0.150177 0.225220 0.259918
0.184845 0.241882 0.286499
0.359039 0.252838 0.270111
0.482849 0.254700 0.259277
0.591797 0.260742 0.259186
0.681305 0.274323 0.267517
0.770355 0.291168 0.276978
0.843262 0.315460 0.289642
0.159607 0.268372 0.279297
0.165344 0.291138 0.297058
0.179352 0.314728 0.323914
0.302094 0.330902 0.339996
0.464172 0.336212 0.321228
0.587860 0.338470 0.310699
0.686890 0.339935 0.306854
0.782867 0.359497 0.309601
0.865936 0.389923 0.319885
0.192596 0.377960 0.338593
0.202393 0.405975 0.348907
0.196075 0.396790 0.317902
0.301147 0.417358 0.284729
0.503204 0.430542 0.301666
0.633972 0.415985 0.301758
0.728851 0.447449 0.311035
0.812805 0.480530 0.317932
0.883423 0.505676 0.325165
0.222961 0.466064 0.367340
0.208038 0.435913 0.321960
0.200775 0.422028 0.289917
0.360443 0.474304 0.283722
0.530579 0.519867 0.308777
0.652863 0.531097 0.297974
0.760223 0.498444 0.292389
0.842133 0.526642 0.301025
0.886841 0.556274 0.314270
0.221100 0.469788 0.344086
0.209930 0.444855 0.315277
0.214874 0.448761 0.284363
0.396698 0.516632 0.288513
0.539886 0.562500 0.320831
0.672577 0.634674 0.321747
0.767426 0.634979 0.289429
0.857147 0.587891 0.281647
0.883423 0.599091 0.300201
0.240173 0.531860 0.341309
0.232666 0.519592 0.310547
0.236176 0.540924 0.266357
0.427002 0.654663 0.299744
0.561890 0.669647 0.327637
0.670013 0.710632 0.352417
0.768158 0.744751 0.350952
0.868927 0.732544 0.305817
0.881836 0.692841 0.343842
0.311005 0.739960 0.321564
0.329102 0.738922 0.304199
0.364044 0.755768 0.307556
0.486389 0.853180 0.342468
0.601135 0.845978 0.347412
0.690338 0.824707 0.371948
0.771301 0.825134 0.380951
0.847198 0.836700 0.390076
0.890381 0.829834 0.394470
0.150055 0.215179 0.267639
0.154114 0.212616 0.263123
0.198883 0.217834 0.280060
0.341248 0.241791 0.266388
0.526184 0.245148 0.244873
0.623871 0.255981 0.252075
0.702087 0.275879 0.266876
0.778564 0.301331 0.284882
0.839783 0.332306 0.308380
0.151764 0.218719 0.273102
0.155792 0.227661 0.285461
0.192810 0.229370 0.290161
0.337738 0.249878 0.282623
0.524811 0.254150 0.256256
0.621613 0.262512 0.260529
0.703094 0.283752 0.276093
0.781464 0.309448 0.294495
0.838226 0.339874 0.318359
0.155731 0.232422 0.280426
0.162750 0.248627 0.300873
0.189880 0.269073 0.335175
0.304596 0.265686 0.330444
0.518616 0.283508 0.291992
0.613312 0.286896 0.287964
0.699890 0.305267 0.300812
0.781677 0.327881 0.316589
0.836853 0.355225 0.336304
0.169403 0.270874 0.314240
0.179718 0.295532 0.341003
0.193176 0.318207 0.372589
0.279846 0.338623 0.404938
0.496552 0.349792 0.362396
0.608612 0.354858 0.356781
0.698669 0.359711 0.354797
0.783081 0.364166 0.351715
0.840179 0.390228 0.369690
0.193878 0.348206 0.369324
0.201996 0.373962 0.388000
0.214203 0.402649 0.417389
0.271820 0.434448 0.455444
0.452087 0.454376 0.457123
0.597076 0.465179 0.451630
0.710144 0.473328 0.442719
0.801208 0.478027 0.428009
0.869934 0.492767 0.427765
0.230377 0.465759 0.439056
0.241150 0.493744 0.449738
0.254913 0.526245 0.475433
0.263702 0.513428 0.446655
0.462463 0.528625 0.415283
0.634766 0.561188 0.413177
0.741577 0.553955 0.427551
0.826508 0.583740 0.435242
0.888031 0.602966 0.443176
0.279785 0.584717 0.519196
0.271301 0.570007 0.488159
0.254425 0.536530 0.439819
0.280365 0.524200 0.406281
0.507416 0.573730 0.400177
0.649811 0.634644 0.425354
0.756561 0.655243 0.392975
0.853607 0.618225 0.401123
0.891357 0.640564 0.417358
0.291901 0.628967 0.495453
0.277618 0.608002 0.440399
0.270264 0.600098 0.404510
0.293915 0.656555 0.353455
0.525452 0.701782 0.381195
0.654816 0.713898 0.423645
0.761292 0.750549 0.441681
0.861572 0.741943 0.377655
0.886292 0.707184 0.432922
0.334076 0.773193 0.443512
0.330322 0.772461 0.413574
0.328827 0.780182 0.378143
0.344666 0.798126 0.329681
0.559052 0.866943 0.399414
0.675934 0.856720 0.424011
0.764862 0.834778 0.455780
0.850342 0.843536 0.461578
0.890228 0.837830 0.474670
0.165894 0.249634 0.314911
0.164520 0.246490 0.308899
0.199951 0.246094 0.309753
0.327820 0.267700 0.312866
0.491333 0.280396 0.282837
0.655029 0.288086 0.265869
0.729156 0.304443 0.279572
0.789093 0.323853 0.302673
0.830658 0.360779 0.351532
0.168274 0.253174 0.323059
0.171326 0.259949 0.331909
0.197174 0.259644 0.327972
0.307068 0.266724 0.333649
0.484863 0.291229 0.300110
0.652802 0.295288 0.276459
0.725403 0.311401 0.292328
0.787689 0.331879 0.318817
0.827332 0.372131 0.369171
0.169922 0.261139 0.324066
0.175995 0.273468 0.341156
0.192566 0.292389 0.376160
0.267212 0.292114 0.380554
0.469635 0.318359 0.342194
0.642456 0.316895 0.309906
0.713593 0.330750 0.326141
0.782104 0.354370 0.355560
0.823608 0.402008 0.410919
0.184082 0.295441 0.358582
0.194977 0.318695 0.386078
0.205200 0.336090 0.414124
0.274506 0.356384 0.458221
0.453674 0.361481 0.423401
0.630676 0.375549 0.396057
0.707672 0.390564 0.407562
0.784058 0.410126 0.429626
0.830750 0.444611 0.459595
0.203949 0.344269 0.404144
0.217102 0.372681 0.434723
0.231720 0.399414 0.470764
0.282257 0.423218 0.507568
0.417297 0.449799 0.541626
0.617493 0.468109 0.499146
0.713409 0.484863 0.505127
0.795929 0.486511 0.497406
0.843140 0.502747 0.503754
0.237732 0.434875 0.474670
0.244385 0.456787 0.487701
0.257599 0.485718 0.517059
0.278992 0.517212 0.556549
0.405426 0.550293 0.591309
0.598480 0.579468 0.575470
0.716156 0.589905 0.574615
0.814117 0.592163 0.560425
0.879364 0.598083 0.556213
0.271881 0.551056 0.553314
0.280731 0.576813 0.565094
0.294800 0.609863 0.586304
0.306946 0.636414 0.611908
0.378357 0.617737 0.574554
0.620300 0.632996 0.547577
0.750397 0.679657 0.524200
0.840149 0.672119 0.545898
0.892914 0.695923 0.567932
0.323761 0.673798 0.641632
0.332855 0.695068 0.651703
0.328644 0.692902 0.616699
0.316284 0.679657 0.551758
0.379333 0.713287 0.496185
0.636902 0.734802 0.500610
0.752502 0.753296 0.532135
0.853363 0.758514 0.480896
0.886963 0.732758 0.551910
0.375366 0.805054 0.674438
0.366974 0.804504 0.612610
0.359009 0.808441 0.544189
0.354980 0.813965 0.497833
0.399475 0.877197 0.418701
0.649597 0.867096 0.489777
0.759613 0.855927 0.517426
0.849365 0.851532 0.530151
0.883698 0.845642 0.614594
0.182648 0.283539 0.362640
0.180481 0.281342 0.354980
0.206482 0.280151 0.347717
0.288208 0.293243 0.359863
0.467926 0.321136 0.325195
0.624756 0.323029 0.304993
0.739502 0.337372 0.326721
0.793274 0.357635 0.360565
0.820923 0.396484 0.412201
0.186188 0.287994 0.374542
0.188751 0.293610 0.380829
0.203094 0.291229 0.368622
0.269470 0.296478 0.377136
0.458252 0.329926 0.345581
0.616577 0.330414 0.327301
0.734039 0.345917 0.347504
0.789337 0.369385 0.383301
0.820648 0.408356 0.435760
0.187836 0.294800 0.375275
0.193085 0.303955 0.390289
0.203003 0.317841 0.421173
0.260101 0.322052 0.419495
0.448273 0.342438 0.395782
0.599701 0.357544 0.385223
0.724518 0.372772 0.404297
0.784851 0.390869 0.428406
0.824432 0.432770 0.480194
0.201721 0.325500 0.408539
0.212769 0.346619 0.436554
0.218872 0.354919 0.454620
0.265442 0.372681 0.504791
0.395691 0.364746 0.478149
0.595398 0.398743 0.471710
0.725983 0.416229 0.483948
0.787994 0.435455 0.495758
0.835175 0.475769 0.539551
0.222351 0.368469 0.457062
0.235931 0.394623 0.489380
0.248444 0.415802 0.520905
0.279724 0.433502 0.553558
0.399597 0.460144 0.609680
0.587006 0.460815 0.580322
0.735596 0.485443 0.568787
0.801025 0.509674 0.572296
0.840485 0.546051 0.601013
0.251007 0.429504 0.520264
0.265320 0.458954 0.551361
0.278259 0.482697 0.581116
0.293121 0.501465 0.611237
0.402985 0.525787 0.640686
0.566986 0.566620 0.654755
0.732819 0.583618 0.635071
0.803833 0.602234 0.636322
0.855316 0.616943 0.642731
0.288391 0.522644 0.592896
0.293610 0.539917 0.601562
0.304047 0.562805 0.623383
0.317871 0.588501 0.653564
0.390411 0.619751 0.685242
0.556580 0.659607 0.699646
0.718933 0.693665 0.686157
0.815613 0.696991 0.681183
0.882721 0.699951 0.677551
0.329346 0.626312 0.673859
0.334534 0.650269 0.682129
0.341339 0.680023 0.697998
0.348145 0.717377 0.718475
0.363861 0.746033 0.729675
0.501556 0.753357 0.668854
0.739136 0.766754 0.646393
0.841492 0.777435 0.633636
0.890900 0.772278 0.661682
0.367096 0.757080 0.754883
0.376190 0.784271 0.763885
0.390076 0.816956 0.769836
0.392365 0.832825 0.732483
0.386414 0.842041 0.657684
0.524323 0.873047 0.589355
0.737396 0.869324 0.615570
0.836823 0.857941 0.629211
0.884277 0.854828 0.678986
0.204010 0.324280 0.419312
0.201385 0.322601 0.409668
0.215790 0.321136 0.397278
0.275055 0.328705 0.394592
0.443451 0.367157 0.379700
0.593018 0.375214 0.391968
0.707520 0.389313 0.423035
0.799988 0.411041 0.474823
0.831299 0.447815 0.529877
0.208801 0.329102 0.436035
0.210693 0.333160 0.440521
0.213348 0.330536 0.423309
0.264069 0.330658 0.412476
0.439453 0.361206 0.405640
0.586975 0.381378 0.419281
0.706390 0.395935 0.449860
0.803162 0.416779 0.500671
0.835083 0.453857 0.549347
0.210938 0.335114 0.439087
0.215698 0.341888 0.453674
0.224823 0.352661 0.482758
0.260712 0.355194 0.470520
0.386017 0.350128 0.460236
0.582458 0.387390 0.475128
0.706451 0.406708 0.498444
0.811035 0.427612 0.545624
0.842041 0.466827 0.578552
0.223633 0.360382 0.469513
0.234009 0.378204 0.496124
0.236542 0.379089 0.506226
0.260925 0.393768 0.556244
0.358978 0.393341 0.572357
0.564484 0.403656 0.574249
0.709564 0.431488 0.571777
0.822174 0.453949 0.604767
0.847656 0.499481 0.617432
0.246002 0.401642 0.523315
0.260132 0.427094 0.557037
0.270020 0.443054 0.582092
0.277588 0.447968 0.598816
0.372528 0.470215 0.662964
0.515472 0.459229 0.619781
0.710052 0.488403 0.658264
0.831604 0.508301 0.668671
0.855591 0.556580 0.666931
0.272858 0.453491 0.583374
0.286743 0.479858 0.614258
0.297150 0.498474 0.637787
0.305847 0.511841 0.659454
0.380127 0.527069 0.685059
0.532013 0.562683 0.727753
0.704620 0.568787 0.707733
0.830658 0.588409 0.710754
0.865845 0.625244 0.709198
0.304047 0.518066 0.647614
0.316620 0.544220 0.672546
0.325195 0.561096 0.690704
0.332214 0.572601 0.706665
0.385345 0.587219 0.724091
0.529907 0.623413 0.745758
0.698334 0.679443 0.740570
0.824585 0.686340 0.745392
0.870575 0.707001 0.748535
0.340240 0.603668 0.713928
0.345062 0.619324 0.720459
0.351868 0.637604 0.732483
0.360382 0.657654 0.748810
0.377350 0.680328 0.766174
0.509583 0.715454 0.781525
0.687500 0.758636 0.780884
0.812195 0.791901 0.774292
0.888824 0.795166 0.770721
0.378052 0.699158 0.783020
0.382629 0.721375 0.788147
0.388428 0.746338 0.796906
0.394043 0.777191 0.806091
0.395844 0.814606 0.819397
0.473389 0.846924 0.817993
0.659393 0.866455 0.762665
0.822510 0.873016 0.738373
0.883728 0.864594 0.761047
0.230957 0.372284 0.488922
0.227539 0.370636 0.476105
0.229218 0.368713 0.457977
0.274261 0.369446 0.439240
0.400696 0.389557 0.469055
0.583618 0.417175 0.492096
0.699829 0.432770 0.529541
0.805817 0.448151 0.586334
0.853516 0.491333 0.653961
0.237213 0.377960 0.510498
0.238739 0.380615 0.513763
0.232788 0.377533 0.491119
0.271362 0.376495 0.469604
0.374939 0.381897 0.496002
0.583344 0.410583 0.531464
0.704407 0.430878 0.559052
0.810822 0.447998 0.610596
0.857025 0.494934 0.672913
0.240356 0.382294 0.519165
0.245087 0.387299 0.534210
0.254486 0.398895 0.562897
0.274353 0.398956 0.550293
0.348145 0.385864 0.550018
0.544434 0.400482 0.584839
0.702698 0.429779 0.614746
0.815186 0.451385 0.652985
0.863800 0.503540 0.703888
0.248322 0.397919 0.537140
0.258453 0.413727 0.563385
0.260529 0.412415 0.573700
0.277832 0.431335 0.625122
0.351837 0.431854 0.644470
0.483551 0.412994 0.607330
0.681885 0.447052 0.683990
0.813599 0.471558 0.705536
0.869720 0.525635 0.739746
0.273468 0.442566 0.596619
0.286438 0.465088 0.626984
0.294006 0.476166 0.646637
0.293427 0.470062 0.650604
0.359589 0.491730 0.715912
0.474060 0.476440 0.734558
0.652863 0.492615 0.715759
0.806549 0.520721 0.753204
0.882660 0.560394 0.776855
0.297638 0.487885 0.649597
0.310608 0.511536 0.678009
0.319244 0.526245 0.697784
0.324585 0.533325 0.712158
0.368866 0.537079 0.728546
0.500305 0.567200 0.782990
0.654816 0.567078 0.736420
0.806915 0.591156 0.778442
0.885040 0.616913 0.800354
0.322906 0.536804 0.702026
0.333984 0.559082 0.724243
0.341431 0.573181 0.739838
0.346588 0.581635 0.751862
0.377594 0.590515 0.764160
0.499481 0.615967 0.787903
0.675476 0.669586 0.796021
0.808960 0.675598 0.802063
0.887207 0.689484 0.818970
0.349792 0.595001 0.752228
0.358917 0.614746 0.769409
0.366150 0.629730 0.783264
0.370636 0.639526 0.791840
0.383270 0.648987 0.800293
0.500519 0.672089 0.812439
0.670929 0.723114 0.816040
0.806885 0.785461 0.816711
0.884552 0.782471 0.832245
0.381256 0.669403 0.806976
0.388611 0.690369 0.818329
0.393799 0.706177 0.825867
0.399475 0.723663 0.834381
0.405182 0.741943 0.842987
0.484497 0.767853 0.853973
0.669922 0.801941 0.844666
0.789825 0.845947 0.846100
0.876221 0.870392 0.842896
