cube滤镜(3D LUT)/Magnetite.cube
# Created by: Lutify.me
# Copyright: (c) Copyright Lutify.me 2015
# Website: https://lutify.me
#LUT size
LUT_3D_SIZE 9
#LUT data points
0.000000 0.000000 0.007965
0.119476 0.016663 0.020477
0.288696 0.023285 0.010620
0.414429 0.036530 0.007965
0.530975 0.049438 0.005463
0.636475 0.061432 0.003662
0.731537 0.073364 0.002899
0.820709 0.088013 0.003479
0.904053 0.106018 0.007019
0.000000 0.063568 0.021667
0.058563 0.078918 0.025177
0.251099 0.090576 0.011841
0.400635 0.103546 0.007507
0.533417 0.119293 0.004242
0.649170 0.134155 0.002289
0.746521 0.146973 0.001923
0.834412 0.160492 0.002472
0.912689 0.173523 0.003693
0.000000 0.165649 0.043610
0.043365 0.183777 0.057587
0.218048 0.185791 0.028168
0.388611 0.199219 0.011108
0.538574 0.210327 0.004120
0.662750 0.220428 0.001831
0.760681 0.229675 0.001343
0.846069 0.240082 0.002045
0.920837 0.251282 0.003296
0.000000 0.270203 0.064423
0.043182 0.282837 0.077362
0.199280 0.311707 0.067993
0.375458 0.293884 0.030609
0.535828 0.307190 0.012817
0.671295 0.329437 0.005463
0.773560 0.333435 0.002441
0.856934 0.337036 0.002838
0.928406 0.343719 0.004242
0.001648 0.381378 0.090088
0.050812 0.392548 0.100952
0.171936 0.416840 0.105377
0.388428 0.443420 0.079071
0.531494 0.407898 0.035614
0.675262 0.422791 0.019562
0.781891 0.448853 0.019226
0.866302 0.460449 0.019928
0.935028 0.460999 0.018951
0.010101 0.503326 0.119843
0.063751 0.513611 0.128815
0.161011 0.532196 0.136230
0.384491 0.563599 0.116852
0.563293 0.577728 0.096252
0.680054 0.534943 0.050507
0.790924 0.546478 0.042175
0.875977 0.565216 0.045746
0.943481 0.581177 0.050934
0.019806 0.619476 0.143616
0.080414 0.632599 0.154572
0.184753 0.647339 0.156830
0.401031 0.678101 0.144592
0.570251 0.703308 0.136292
0.701477 0.683807 0.104584
0.797119 0.655457 0.075531
0.883575 0.659271 0.070038
0.949829 0.671478 0.074005
0.027435 0.721344 0.159760
0.093414 0.734802 0.168060
0.202026 0.746368 0.167084
0.404114 0.772247 0.160614
0.565369 0.792206 0.151672
0.705872 0.804657 0.137756
0.804718 0.773010 0.110687
0.886963 0.755707 0.094727
0.954163 0.759705 0.093964
0.034088 0.821960 0.179352
0.102112 0.831940 0.182129
0.216644 0.838928 0.181213
0.381317 0.854584 0.174469
0.526947 0.866913 0.164734
0.666687 0.883209 0.156219
0.794556 0.890900 0.141388
0.888153 0.861053 0.119904
0.957428 0.848053 0.111176
0.000000 0.000061 0.107452
0.128906 0.015930 0.112518
0.306519 0.018921 0.093109
0.423828 0.025726 0.076294
0.531555 0.031281 0.072327
0.629120 0.037048 0.069489
0.719421 0.046722 0.068420
0.811951 0.070648 0.069885
0.897522 0.098175 0.072052
0.000000 0.077332 0.118835
0.051971 0.100067 0.128265
0.241028 0.111572 0.102081
0.400269 0.125519 0.086853
0.538391 0.137817 0.072052
0.654968 0.150635 0.068207
0.750122 0.160950 0.067078
0.836426 0.175323 0.068604
0.914398 0.189575 0.070801
0.000000 0.188263 0.141937
0.036194 0.189484 0.139038
0.224152 0.198486 0.110962
0.397675 0.204193 0.080505
0.545044 0.211090 0.069824
0.667755 0.223053 0.066162
0.765137 0.232605 0.064606
0.849365 0.245026 0.065735
0.921448 0.256805 0.068085
0.000000 0.293518 0.158478
0.036804 0.292236 0.152954
0.180237 0.313293 0.153931
0.380249 0.299561 0.094421
0.541382 0.312561 0.074493
0.678040 0.318665 0.064606
0.778564 0.320160 0.062744
0.861755 0.327820 0.063721
0.929108 0.334564 0.066528
0.004669 0.405090 0.179047
0.043152 0.404907 0.175476
0.146515 0.417664 0.184143
0.373138 0.440674 0.144653
0.533295 0.408386 0.094482
0.680420 0.424805 0.076385
0.788696 0.442719 0.073120
0.873322 0.445251 0.072418
0.938080 0.438995 0.071625
0.013611 0.523743 0.201843
0.055359 0.528534 0.203400
0.152954 0.534210 0.207397
0.358337 0.558624 0.188446
0.552643 0.579712 0.161255
0.683319 0.534210 0.107025
0.798187 0.549957 0.099274
0.884979 0.573395 0.105865
0.949341 0.578796 0.106323
0.023071 0.634918 0.217651
0.069336 0.642609 0.224426
0.174683 0.648163 0.227325
0.363678 0.673309 0.219299
0.554749 0.700775 0.200531
0.702209 0.692078 0.170288
0.804413 0.661774 0.136841
0.893066 0.669617 0.133514
0.957245 0.682220 0.137665
0.029938 0.732483 0.232727
0.079376 0.739807 0.235016
0.191223 0.746124 0.238586
0.368225 0.768555 0.230347
0.546387 0.789856 0.216827
0.697235 0.806122 0.203156
0.809509 0.780457 0.174927
0.895172 0.764862 0.159027
0.960297 0.769928 0.159210
0.035522 0.828369 0.249023
0.087158 0.833801 0.248596
0.205566 0.838531 0.257690
0.356781 0.851959 0.243927
0.511902 0.865082 0.230499
0.656708 0.881836 0.221161
0.784332 0.893005 0.208801
0.890320 0.870422 0.185394
0.960907 0.855469 0.176208
0.000000 0.027008 0.214905
0.074860 0.014771 0.199463
0.302582 0.023712 0.188629
0.427948 0.031342 0.180298
0.539825 0.032776 0.171265
0.635620 0.036255 0.154205
0.721313 0.039185 0.138611
0.803925 0.047394 0.138916
0.882477 0.062683 0.138824
0.000000 0.121765 0.229340
0.035370 0.114075 0.227448
0.252136 0.103485 0.187378
0.400818 0.109802 0.174866
0.530121 0.111481 0.154633
0.645447 0.128876 0.135498
0.741974 0.145996 0.133270
0.828705 0.165527 0.133698
0.910583 0.189575 0.136963
0.000000 0.209717 0.243408
0.035156 0.207550 0.243073
0.184357 0.223602 0.231079
0.364075 0.225952 0.198486
0.517487 0.244812 0.187378
0.657715 0.255524 0.170929
0.762329 0.262207 0.160248
0.847626 0.270081 0.150818
0.923584 0.279510 0.137909
0.002686 0.316895 0.265076
0.040192 0.318787 0.265137
0.125580 0.316010 0.256256
0.360809 0.318634 0.212433
0.524200 0.329987 0.192474
0.669922 0.330658 0.167999
0.776733 0.333527 0.152344
0.861298 0.341370 0.141266
0.930634 0.348297 0.134827
0.008301 0.424500 0.281952
0.047577 0.430573 0.283234
0.118134 0.422394 0.271240
0.324951 0.437134 0.257782
0.518005 0.423401 0.201233
0.677368 0.437653 0.153625
0.791077 0.433411 0.137512
0.875580 0.434875 0.136292
0.938629 0.433624 0.136719
0.017151 0.541412 0.302521
0.060364 0.550598 0.305084
0.136261 0.543701 0.291412
0.302917 0.553986 0.291779
0.518402 0.579865 0.256592
0.678162 0.542206 0.176605
0.800446 0.559601 0.165527
0.889709 0.578674 0.170441
0.952240 0.568115 0.164215
0.026215 0.650238 0.316864
0.073761 0.658173 0.316864
0.158234 0.655762 0.307068
0.314941 0.670013 0.313446
0.521729 0.695923 0.288300
0.697479 0.707428 0.244232
0.805634 0.669678 0.202789
0.897949 0.680328 0.200195
0.961304 0.691895 0.204468
0.032501 0.743805 0.322021
0.082550 0.749908 0.317963
0.177307 0.751068 0.317047
0.329163 0.766846 0.322510
0.520325 0.788330 0.303375
0.686951 0.807617 0.270477
0.810974 0.791473 0.242920
0.899902 0.774292 0.224976
0.963684 0.780518 0.227814
0.037048 0.835876 0.332520
0.088928 0.839172 0.322540
0.169922 0.839447 0.323944
0.327057 0.851044 0.341064
0.486969 0.864502 0.324554
0.645813 0.879974 0.289032
0.776489 0.893372 0.275116
0.890381 0.879059 0.252777
0.963196 0.862976 0.242004
0.000000 0.064423 0.318329
0.063080 0.017029 0.284729
0.243866 0.021729 0.274841
0.422485 0.036011 0.267517
0.538422 0.044464 0.259644
0.639465 0.045074 0.253021
0.725708 0.040802 0.247467
0.807404 0.047119 0.243195
0.884277 0.062164 0.220642
0.000000 0.157990 0.330872
0.035889 0.145294 0.329987
0.179932 0.104492 0.284088
0.401154 0.114777 0.266388
0.532898 0.124237 0.256531
0.644684 0.123199 0.246490
0.731476 0.112671 0.231781
0.812408 0.120667 0.208435
0.897003 0.157196 0.200989
0.001221 0.239075 0.342163
0.038605 0.241821 0.347290
0.128265 0.236572 0.339142
0.361664 0.220978 0.285797
0.514343 0.224304 0.262177
0.647827 0.229736 0.241547
0.751282 0.249176 0.234161
0.836060 0.262054 0.229340
0.915131 0.285248 0.232697
0.004456 0.325104 0.354340
0.043457 0.333923 0.363678
0.114380 0.327026 0.356689
0.323151 0.342133 0.335480
0.504517 0.344208 0.294830
0.645935 0.363373 0.281860
0.766327 0.372314 0.264709
0.853790 0.376099 0.254944
0.927643 0.379150 0.245392
0.010498 0.435669 0.377991
0.052551 0.450195 0.388916
0.113800 0.445801 0.380585
0.256531 0.440765 0.359741
0.503906 0.447906 0.313721
0.662140 0.455353 0.289978
0.782867 0.451263 0.264069
0.869293 0.453674 0.255066
0.936218 0.451904 0.244843
0.019196 0.550507 0.398102
0.064941 0.565125 0.406281
0.128662 0.562439 0.396027
0.249481 0.552521 0.381256
0.465149 0.575378 0.371765
0.663483 0.562439 0.309265
0.798126 0.577271 0.273254
0.890900 0.576965 0.252960
0.951355 0.558929 0.240967
0.028229 0.660126 0.413269
0.077606 0.671082 0.416565
0.146851 0.669067 0.403442
0.265961 0.666687 0.396027
0.462189 0.690216 0.400208
0.671295 0.717987 0.367767
0.802521 0.681427 0.297058
0.900024 0.695557 0.276031
0.963531 0.701904 0.276917
0.034851 0.754669 0.420471
0.086731 0.761871 0.418610
0.157410 0.758850 0.402161
0.292328 0.764221 0.408264
0.480957 0.787567 0.408112
0.668518 0.811646 0.384430
0.808594 0.806946 0.331390
0.901672 0.785614 0.296326
0.965576 0.792816 0.300720
0.039368 0.845306 0.432709
0.092651 0.848969 0.424561
0.164062 0.845703 0.411591
0.290161 0.847717 0.415466
0.460968 0.864716 0.419617
0.626373 0.880127 0.398224
0.769958 0.895935 0.359406
0.890656 0.889862 0.324890
0.964111 0.871307 0.310669
0.000214 0.089539 0.413971
0.058533 0.029572 0.375610
0.214630 0.023804 0.359894
0.378632 0.037506 0.356354
0.536194 0.048645 0.347931
0.641022 0.057037 0.340179
0.730133 0.060883 0.336273
0.811401 0.063965 0.334991
0.888519 0.069031 0.328186
0.001495 0.186981 0.428925
0.039154 0.175995 0.432739
0.145691 0.122131 0.389771
0.335938 0.111847 0.355743
0.531158 0.127258 0.348053
0.648712 0.136658 0.338531
0.740082 0.138336 0.331604
0.818787 0.141083 0.326263
0.891266 0.138733 0.309814
0.004242 0.267029 0.439056
0.042999 0.275299 0.450134
0.111176 0.266907 0.447845
0.303406 0.225586 0.389557
0.514771 0.227051 0.355804
0.649109 0.233582 0.340149
0.748627 0.233795 0.329620
0.827362 0.233917 0.316254
0.902832 0.253113 0.300140
0.006805 0.344116 0.447968
0.047333 0.358154 0.462402
0.106598 0.360718 0.464325
0.256439 0.354187 0.447998
0.496582 0.338928 0.391052
0.639648 0.339569 0.355347
0.755005 0.346649 0.333466
0.842438 0.364746 0.330383
0.920074 0.382843 0.329041
0.010956 0.433960 0.460938
0.053741 0.451935 0.477509
0.117279 0.454498 0.478363
0.238708 0.444244 0.464630
0.462524 0.469116 0.445068
0.649506 0.472046 0.396118
0.769379 0.488251 0.385132
0.863464 0.491425 0.370392
0.935028 0.487030 0.353882
0.020844 0.557434 0.492798
0.068451 0.575684 0.506348
0.134583 0.577484 0.502930
0.240173 0.570190 0.490295
0.390045 0.578735 0.475342
0.656189 0.588226 0.424530
0.791351 0.594116 0.404327
0.886139 0.584167 0.381226
0.948700 0.572601 0.364136
0.030518 0.668732 0.510559
0.081177 0.681305 0.517212
0.150665 0.681702 0.509186
0.249237 0.677917 0.496307
0.394135 0.686249 0.498047
0.632629 0.715851 0.481720
0.792847 0.701416 0.428864
0.899872 0.715027 0.411316
0.964294 0.707703 0.393738
0.036560 0.762909 0.517792
0.089508 0.771576 0.519043
0.161072 0.769653 0.505249
0.261963 0.766174 0.489838
0.433136 0.784607 0.506012
0.636536 0.808838 0.491852
0.798584 0.828064 0.467499
0.902069 0.802704 0.426514
0.966064 0.812012 0.425598
0.040894 0.852295 0.528351
0.095398 0.856964 0.523102
0.167358 0.852936 0.507904
0.267212 0.849213 0.496002
0.428223 0.863281 0.507782
0.606049 0.880188 0.493591
0.760590 0.901855 0.475342
0.889801 0.906616 0.451294
0.965668 0.884308 0.414734
0.003998 0.113800 0.508331
0.056732 0.048309 0.471313
0.208405 0.027374 0.445068
0.340637 0.035889 0.438324
0.497650 0.051086 0.437927
0.640411 0.060913 0.429596
0.732788 0.069244 0.423462
0.815704 0.077209 0.424011
0.895813 0.093597 0.421051
0.004791 0.215973 0.525879
0.043976 0.204102 0.532196
0.118927 0.143921 0.499054
0.303406 0.113068 0.447205
0.465973 0.122467 0.438202
0.648193 0.139130 0.431366
0.744781 0.147858 0.424103
0.826172 0.157410 0.422028
0.899567 0.167236 0.413727
0.007721 0.296417 0.535492
0.047913 0.307007 0.549805
0.107513 0.300934 0.553009
0.263000 0.239746 0.499390
0.431671 0.227539 0.459351
0.650543 0.234924 0.434296
0.754486 0.241913 0.426056
0.834595 0.246429 0.421631
0.903168 0.249969 0.406799
0.010345 0.372314 0.544464
0.052216 0.387726 0.560181
0.111542 0.392883 0.565948
0.232880 0.375488 0.550598
0.420532 0.342743 0.499359
0.644653 0.343781 0.451050
0.758179 0.344330 0.432800
0.840607 0.343201 0.423340
0.908905 0.342438 0.400543
0.013336 0.450562 0.553558
0.056976 0.468323 0.570526
0.119263 0.474976 0.576080
0.230316 0.472809 0.570587
0.379333 0.478821 0.562531
0.645752 0.462891 0.490051
0.756989 0.461578 0.459076
0.847046 0.462738 0.440491
0.923615 0.479919 0.434357
0.020386 0.550995 0.572479
0.068146 0.571106 0.589813
0.136230 0.578278 0.594269
0.236176 0.577911 0.591125
0.358093 0.581635 0.589355
0.619812 0.611145 0.561340
0.770569 0.616882 0.528046
0.875916 0.618469 0.506073
0.946991 0.609741 0.485260
0.033234 0.678253 0.607086
0.086029 0.692352 0.617340
0.157837 0.695312 0.615662
0.236084 0.693024 0.608185
0.361267 0.696167 0.605225
0.578583 0.713928 0.591400
0.778534 0.730347 0.561432
0.895874 0.732788 0.536896
0.962433 0.712372 0.512573
0.040070 0.774200 0.616943
0.094360 0.783081 0.620819
0.166138 0.782532 0.613678
0.243439 0.779053 0.601166
0.368347 0.782166 0.596130
0.588837 0.806519 0.596527
0.773102 0.836365 0.583893
0.896820 0.822266 0.548737
0.966187 0.832397 0.548431
0.043732 0.861145 0.623993
0.098419 0.865570 0.621857
0.170776 0.861969 0.609314
0.247955 0.857025 0.595184
0.374207 0.859772 0.590118
0.577087 0.880035 0.589142
0.742432 0.900604 0.572449
0.881195 0.919617 0.561707
0.965729 0.898376 0.529602
0.007507 0.133453 0.598083
0.059875 0.063263 0.559448
0.213379 0.033264 0.525665
0.331726 0.038635 0.518463
0.453796 0.048492 0.516724
0.619415 0.065948 0.516174
0.732544 0.072845 0.511047
0.816803 0.080566 0.507477
0.899994 0.102264 0.508148
0.007721 0.241364 0.617279
0.048920 0.224304 0.623291
0.116211 0.158569 0.590668
0.289368 0.116943 0.534454
0.423309 0.120422 0.521515
0.608612 0.137573 0.518402
0.743866 0.149139 0.513336
0.828949 0.161499 0.508881
0.907257 0.179749 0.507263
0.010864 0.322266 0.626770
0.051758 0.330750 0.640503
0.111450 0.321228 0.643890
0.230743 0.253632 0.599365
0.400024 0.225403 0.548889
0.587311 0.229034 0.523682
0.753815 0.240479 0.515686
0.839508 0.251404 0.511230
0.912781 0.264069 0.505920
0.013733 0.398682 0.635986
0.056458 0.412903 0.650726
0.117126 0.415771 0.656281
0.224640 0.396881 0.644592
0.382172 0.350800 0.599396
0.567505 0.336975 0.550293
0.759155 0.340485 0.519867
0.847229 0.349030 0.514984
0.917114 0.355652 0.508606
0.016968 0.475281 0.645721
0.061707 0.491486 0.661163
0.125946 0.497955 0.666840
0.212982 0.500763 0.667542
0.352753 0.490936 0.655579
0.569122 0.458191 0.591034
0.761627 0.458954 0.544891
0.852783 0.462280 0.535187
0.921021 0.458832 0.522522
0.022308 0.561951 0.660217
0.069885 0.578766 0.675385
0.138489 0.586517 0.681152
0.227539 0.588043 0.681030
0.351532 0.595001 0.681702
0.565338 0.612396 0.661804
0.763306 0.605164 0.610077
0.856323 0.595276 0.583466
0.928284 0.589081 0.561249
0.031952 0.668365 0.682770
0.084595 0.684418 0.696198
0.157867 0.691315 0.699890
0.238312 0.693634 0.699341
0.356720 0.702759 0.704224
0.527557 0.718018 0.701813
0.756561 0.748932 0.678101
0.882782 0.751434 0.652069
0.958832 0.741608 0.629272
0.043427 0.784668 0.711365
0.100128 0.794586 0.718414
0.174042 0.795990 0.716614
0.248383 0.794250 0.710815
0.350433 0.797333 0.708679
0.503754 0.806824 0.707886
0.729309 0.833221 0.689789
0.885559 0.849579 0.671936
0.966125 0.853516 0.662628
0.047485 0.871490 0.717712
0.104279 0.876465 0.719025
0.176758 0.873413 0.710876
0.249908 0.869171 0.700531
0.345856 0.868866 0.692902
0.487762 0.874786 0.687042
0.713013 0.900238 0.670837
0.867767 0.927704 0.663086
0.965668 0.914307 0.634033
0.009796 0.161438 0.686127
0.066254 0.072693 0.638580
0.224945 0.040222 0.602722
0.335846 0.042664 0.596191
0.441711 0.050629 0.593597
0.580078 0.063477 0.592285
0.722229 0.078003 0.592773
0.816925 0.084595 0.591461
0.900970 0.104462 0.589905
0.010345 0.262207 0.701996
0.053101 0.238373 0.706940
0.122742 0.165833 0.667755
0.292419 0.125732 0.614075
0.414520 0.124298 0.600159
0.556488 0.133545 0.595154
0.725403 0.151855 0.594574
0.827759 0.163239 0.593384
0.909058 0.182587 0.590881
0.013885 0.344788 0.712769
0.055176 0.349335 0.723724
0.117004 0.333557 0.725006
0.223572 0.262756 0.681549
0.387939 0.227112 0.630096
0.534149 0.227753 0.608643
0.725952 0.237823 0.596069
0.837463 0.249725 0.594879
0.916290 0.268341 0.592041
0.016937 0.421509 0.721985
0.060364 0.432251 0.733643
0.122192 0.432220 0.738464
0.219238 0.409607 0.726898
0.354431 0.355133 0.684143
0.529053 0.330536 0.633545
0.720551 0.333038 0.601654
0.844757 0.342896 0.596313
0.922791 0.362579 0.596710
0.020782 0.499268 0.733276
0.066254 0.511383 0.744843
0.131622 0.515411 0.748810
0.211212 0.515198 0.749695
0.339722 0.495667 0.734619
0.535095 0.452972 0.675598
0.712463 0.444550 0.627167
0.850952 0.450043 0.609009
0.929260 0.468323 0.613098
0.025452 0.580414 0.745728
0.073364 0.593292 0.757568
0.142303 0.599030 0.761688
0.219666 0.600647 0.762390
0.341034 0.607635 0.764038
0.523407 0.609314 0.746246
0.713196 0.584015 0.686676
0.861115 0.586548 0.655792
0.937592 0.592041 0.652466
0.032959 0.673431 0.763763
0.084595 0.685364 0.774323
0.157196 0.690979 0.777649
0.234955 0.692749 0.777405
0.347992 0.701508 0.782745
0.496277 0.717773 0.786743
0.723907 0.747345 0.766907
0.870178 0.742798 0.734192
0.941254 0.727325 0.710022
0.042053 0.773834 0.782867
0.098541 0.785065 0.792206
0.173157 0.788910 0.793549
0.249176 0.790924 0.793091
0.344971 0.798370 0.797302
0.474884 0.810608 0.804169
0.689117 0.838898 0.795074
0.868866 0.867554 0.777954
0.963440 0.869354 0.764191
0.049774 0.877960 0.803467
0.108795 0.884918 0.808563
0.183014 0.884125 0.805634
0.256836 0.882202 0.801483
0.332916 0.882416 0.798737
0.439728 0.885345 0.796234
0.624756 0.897888 0.784027
0.840698 0.927795 0.758881
0.965759 0.940582 0.747009
0.010193 0.183380 0.765961
0.066010 0.084259 0.716278
0.232544 0.047852 0.674805
0.344604 0.047058 0.668396
0.444000 0.054688 0.664825
0.560944 0.064056 0.664001
0.701263 0.079193 0.664520
0.813599 0.094360 0.668243
0.903168 0.113647 0.669708
0.012878 0.280396 0.781189
0.051697 0.262421 0.787994
0.124878 0.188629 0.751770
0.299866 0.137634 0.689697
0.419525 0.129425 0.673187
0.540771 0.136322 0.667053
0.698975 0.154999 0.666443
0.820618 0.171844 0.669464
0.909729 0.190369 0.671295
0.016327 0.362610 0.791199
0.058319 0.366821 0.800903
0.118530 0.344421 0.799957
0.219269 0.274170 0.759216
0.392426 0.230865 0.701843
0.523834 0.226868 0.681274
0.691040 0.237061 0.667938
0.825897 0.253632 0.670593
0.915497 0.273621 0.672363
0.020233 0.442047 0.802429
0.064026 0.448761 0.810608
0.125000 0.443359 0.812073
0.213470 0.415894 0.800140
0.343689 0.354706 0.755524
0.512268 0.322357 0.704773
0.680389 0.330231 0.679993
0.828583 0.341858 0.671082
0.921143 0.364502 0.675781
0.024231 0.519623 0.813782
0.070099 0.527679 0.821899
0.135681 0.527985 0.822937
0.210815 0.521057 0.820557
0.329834 0.492920 0.803070
0.509857 0.445312 0.747803
0.676697 0.433929 0.702728
0.830261 0.441010 0.680054
0.927032 0.466370 0.689178
0.028534 0.598083 0.824860
0.076141 0.605652 0.832550
0.144501 0.607635 0.833557
0.220276 0.605774 0.831665
0.298218 0.606232 0.832886
0.485321 0.595490 0.814880
0.683777 0.558929 0.748779
0.832458 0.563843 0.716431
0.936707 0.586670 0.724335
0.034515 0.682556 0.839020
0.085022 0.689301 0.845581
0.155823 0.691071 0.846039
0.232391 0.691650 0.845123
0.320007 0.696564 0.848907
0.454803 0.711151 0.856903
0.686096 0.722656 0.829529
0.836945 0.713165 0.791260
0.950409 0.727203 0.786804
0.042175 0.774506 0.856598
0.097504 0.782501 0.863647
0.170837 0.784088 0.863556
0.246185 0.784454 0.862122
0.340149 0.790680 0.865967
0.434082 0.798645 0.871948
0.627716 0.826233 0.876801
0.847107 0.863770 0.858948
0.960052 0.865448 0.844025
0.048828 0.866211 0.871338
0.107208 0.873199 0.877045
0.181610 0.873291 0.875793
0.255768 0.872681 0.873749
0.339935 0.876221 0.875397
0.438660 0.882965 0.879669
0.529236 0.890442 0.884430
0.741669 0.922913 0.882996
0.958374 0.962524 0.864136
