cube滤镜(3D LUT)/Magnetite.cube
# Created by: Lutify.me
# Copyright: (c) Copyright Lutify.me 2015
# Website: https://lutify.me
#LUT size
LUT_3D_SIZE 33
#LUT data points
0.000000 0.000000 0.007965
0.008545 0.002533 0.009399
0.032593 0.009094 0.014648
0.071136 0.014526 0.020386
0.119476 0.016663 0.020477
0.168671 0.017944 0.017120
0.213745 0.019379 0.013794
0.253662 0.021118 0.011810
0.288696 0.023285 0.010620
0.321442 0.026306 0.009827
0.352936 0.029724 0.009216
0.383942 0.033203 0.008606
0.414429 0.036530 0.007965
0.444031 0.039581 0.007355
0.473083 0.042664 0.006744
0.502167 0.046021 0.006104
0.530975 0.049438 0.005463
0.558807 0.052704 0.004913
0.585510 0.055695 0.004456
0.611389 0.058624 0.004028
0.636475 0.061432 0.003662
0.660919 0.064209 0.003357
0.684875 0.067169 0.003113
0.708496 0.070282 0.002960
0.731537 0.073364 0.002899
0.753967 0.076416 0.002899
0.776276 0.079865 0.003021
0.798737 0.083984 0.003265
0.820709 0.088013 0.003479
0.841736 0.091766 0.003876
0.862885 0.096161 0.004517
0.883728 0.100555 0.005310
0.904053 0.106018 0.007019
0.000000 0.011963 0.008789
0.007690 0.014313 0.009827
0.025055 0.019379 0.013245
0.056519 0.025360 0.018829
0.099396 0.029449 0.021088
0.148010 0.031860 0.018555
0.196960 0.033936 0.014893
0.239746 0.035797 0.012329
0.277618 0.038177 0.010712
0.312256 0.041321 0.009644
0.345490 0.045105 0.008911
0.377930 0.049042 0.008240
0.409943 0.052917 0.007629
0.441132 0.056519 0.006958
0.471802 0.060181 0.006348
0.502075 0.063965 0.005707
0.532074 0.067780 0.005096
0.561035 0.071442 0.004578
0.588531 0.074738 0.004059
0.615082 0.077881 0.003632
0.640686 0.080933 0.003296
0.665497 0.083954 0.003021
0.689758 0.087006 0.002808
0.713440 0.090057 0.002655
0.736389 0.093048 0.002625
0.758881 0.096161 0.002686
0.781158 0.099579 0.002777
0.803650 0.103241 0.002899
0.825562 0.106842 0.003082
0.846497 0.110474 0.003326
0.867188 0.113861 0.003601
0.887573 0.117889 0.004211
0.906586 0.122803 0.005829
0.000000 0.024109 0.012726
0.007629 0.026520 0.014435
0.018524 0.029846 0.014160
0.042999 0.036255 0.017548
0.081085 0.043243 0.020203
0.129303 0.047363 0.019318
0.180939 0.049591 0.016022
0.227295 0.051117 0.013000
0.267395 0.053131 0.011108
0.304199 0.056274 0.009857
0.339050 0.060211 0.008942
0.372711 0.064331 0.008148
0.405975 0.068451 0.007355
0.438354 0.072449 0.006622
0.470123 0.076385 0.005920
0.501434 0.080536 0.005310
0.532257 0.084656 0.004669
0.562225 0.088654 0.004120
0.590851 0.092407 0.003632
0.618164 0.095886 0.003235
0.644135 0.099182 0.002930
0.669220 0.102295 0.002686
0.693604 0.105347 0.002472
0.717499 0.108521 0.002350
0.740540 0.111664 0.002350
0.762970 0.114746 0.002380
0.785278 0.118073 0.002502
0.807465 0.121613 0.002625
0.829102 0.125153 0.002808
0.850189 0.128723 0.003052
0.870880 0.132080 0.003326
0.890625 0.135651 0.003845
0.908875 0.139587 0.004791
0.000000 0.040497 0.017090
0.007599 0.043427 0.019684
0.016357 0.048706 0.021912
0.036224 0.051605 0.020081
0.067902 0.059875 0.021637
0.113708 0.066071 0.020508
0.167389 0.067841 0.016876
0.217346 0.068756 0.013550
0.259308 0.070343 0.011444
0.297729 0.073059 0.010071
0.334045 0.076843 0.009064
0.368896 0.080872 0.008240
0.403076 0.084991 0.007416
0.436371 0.088959 0.006592
0.468872 0.092804 0.005768
0.500916 0.096863 0.005005
0.532593 0.101166 0.004364
0.563232 0.105377 0.003784
0.592346 0.109314 0.003357
0.620178 0.113007 0.002899
0.646698 0.116455 0.002594
0.672180 0.119812 0.002350
0.696838 0.123108 0.002197
0.720612 0.126251 0.002106
0.743652 0.129303 0.002106
0.766113 0.132538 0.002197
0.788391 0.135864 0.002258
0.810333 0.139313 0.002411
0.831848 0.142883 0.002655
0.853210 0.146484 0.002899
0.873810 0.149933 0.003174
0.893311 0.152954 0.003448
0.910858 0.156525 0.004150
0.000000 0.063568 0.021667
0.007629 0.066559 0.024506
0.015411 0.071289 0.028229
0.033783 0.079865 0.029572
0.058563 0.078918 0.025177
0.101013 0.084625 0.023102
0.153137 0.089111 0.019165
0.206299 0.090057 0.014496
0.251099 0.090576 0.011841
0.291595 0.092529 0.010254
0.329376 0.095764 0.009186
0.365387 0.099609 0.008331
0.400635 0.103546 0.007507
0.434723 0.107300 0.006653
0.468048 0.111053 0.005798
0.501038 0.115143 0.005005
0.533417 0.119293 0.004242
0.564697 0.123413 0.003540
0.594269 0.127167 0.003021
0.622406 0.130798 0.002686
0.649170 0.134155 0.002289
0.674866 0.137451 0.002106
0.699615 0.140686 0.001953
0.723419 0.143860 0.001953
0.746521 0.146973 0.001923
0.769012 0.150146 0.001984
0.791229 0.153473 0.002106
0.813049 0.156982 0.002289
0.834412 0.160492 0.002472
0.855682 0.164032 0.002686
0.876404 0.167480 0.002991
0.895844 0.170471 0.003296
0.912689 0.173523 0.003693
0.000000 0.088226 0.026917
0.007629 0.091034 0.029633
0.015198 0.095184 0.033844
0.030396 0.103394 0.036743
0.056763 0.112396 0.036224
0.089752 0.106964 0.028564
0.142059 0.108765 0.022430
0.195740 0.112030 0.016998
0.241791 0.114441 0.013184
0.284393 0.115936 0.010712
0.324463 0.118073 0.009308
0.362091 0.121063 0.008423
0.398499 0.124390 0.007538
0.433807 0.127838 0.006653
0.467834 0.131348 0.005798
0.501465 0.135193 0.004974
0.534698 0.139282 0.004181
0.566498 0.143219 0.003479
0.596680 0.146912 0.002899
0.625214 0.150299 0.002411
0.652283 0.153503 0.002106
0.678070 0.156525 0.001862
0.702789 0.159515 0.001740
0.726532 0.162415 0.001709
0.749603 0.165405 0.001740
0.772034 0.168396 0.001801
0.794098 0.171631 0.001953
0.815735 0.175110 0.002167
0.837006 0.178589 0.002319
0.858337 0.182037 0.002625
0.878845 0.185486 0.002869
0.898254 0.188568 0.003204
0.914703 0.191620 0.003632
0.000000 0.113464 0.032349
0.007599 0.115784 0.034729
0.015198 0.119812 0.038971
0.027832 0.126587 0.043335
0.050323 0.136536 0.044739
0.086945 0.143005 0.039917
0.129822 0.133759 0.029327
0.187103 0.132996 0.020752
0.234406 0.135895 0.015900
0.277222 0.140167 0.012756
0.318481 0.143463 0.010254
0.357605 0.145935 0.008698
0.395966 0.148407 0.007599
0.432648 0.150940 0.006714
0.467712 0.153809 0.005829
0.502197 0.157227 0.004974
0.536194 0.160950 0.004150
0.568634 0.164642 0.003418
0.599274 0.168091 0.002838
0.628265 0.171326 0.002319
0.655579 0.174347 0.001923
0.681671 0.177246 0.001678
0.706573 0.180023 0.001526
0.730225 0.182617 0.001526
0.753174 0.185333 0.001556
0.775452 0.188141 0.001678
0.797272 0.191223 0.001801
0.818787 0.194580 0.002014
0.840027 0.197906 0.002197
0.861176 0.201324 0.002472
0.881622 0.204742 0.002777
0.900543 0.207703 0.003082
0.916840 0.210602 0.003571
0.000000 0.139648 0.038177
0.007629 0.141357 0.040070
0.015167 0.144684 0.043732
0.026672 0.150909 0.049103
0.045654 0.159851 0.051666
0.077423 0.169922 0.050720
0.127258 0.171692 0.040985
0.175354 0.159790 0.028473
0.227203 0.158661 0.020599
0.271576 0.161407 0.015778
0.313171 0.166870 0.012909
0.352844 0.171600 0.010681
0.392090 0.174744 0.008514
0.430450 0.177063 0.006927
0.466888 0.179077 0.005859
0.502563 0.181671 0.004974
0.537506 0.184662 0.004120
0.570862 0.187805 0.003387
0.602325 0.191071 0.002808
0.631805 0.194122 0.002258
0.659210 0.196838 0.001862
0.685364 0.199402 0.001617
0.710358 0.201935 0.001404
0.734009 0.204407 0.001343
0.756958 0.206940 0.001373
0.779083 0.209595 0.001526
0.800720 0.212341 0.001648
0.821930 0.215332 0.001831
0.843079 0.218536 0.002106
0.863892 0.221985 0.002350
0.884277 0.225342 0.002686
0.902740 0.228058 0.002991
0.918976 0.230591 0.003357
0.000000 0.165649 0.043610
0.007599 0.166962 0.045258
0.015198 0.169678 0.048279
0.026520 0.175507 0.053711
0.043365 0.183777 0.057587
0.070679 0.193817 0.058807
0.117920 0.202240 0.052429
0.173126 0.196381 0.039551
0.218048 0.185791 0.028168
0.265991 0.185425 0.021088
0.309143 0.188385 0.016388
0.349060 0.193817 0.013519
0.388611 0.199219 0.011108
0.427643 0.202972 0.008698
0.465302 0.205536 0.006622
0.502197 0.207764 0.005127
0.538574 0.210327 0.004120
0.572968 0.212952 0.003357
0.604950 0.215515 0.002747
0.634918 0.218018 0.002197
0.662750 0.220428 0.001831
0.689178 0.222748 0.001556
0.714264 0.225128 0.001373
0.737854 0.227386 0.001312
0.760681 0.229675 0.001343
0.782562 0.231934 0.001434
0.804077 0.234253 0.001587
0.825195 0.237000 0.001801
0.846069 0.240082 0.002045
0.866455 0.243317 0.002319
0.887024 0.246582 0.002686
0.904724 0.249023 0.002991
0.920837 0.251282 0.003296
0.000000 0.191681 0.048737
0.007599 0.192780 0.050323
0.015411 0.195404 0.053314
0.026764 0.200439 0.058197
0.042053 0.208069 0.062866
0.066528 0.217621 0.065216
0.107666 0.226288 0.061218
0.168121 0.230865 0.050995
0.216064 0.220642 0.038574
0.258270 0.212402 0.028595
0.304443 0.212891 0.021881
0.345825 0.215729 0.017395
0.385834 0.220520 0.014099
0.425201 0.225891 0.011261
0.463165 0.230286 0.008789
0.500732 0.233734 0.006439
0.538177 0.236664 0.004578
0.573822 0.239319 0.003418
0.606628 0.241455 0.002716
0.637268 0.243469 0.002197
0.665771 0.245453 0.001801
0.692444 0.247467 0.001526
0.717773 0.249573 0.001343
0.741364 0.251312 0.001312
0.764130 0.253082 0.001343
0.785980 0.255035 0.001434
0.807373 0.257050 0.001587
0.828369 0.259552 0.001801
0.848969 0.262360 0.002045
0.869354 0.265381 0.002350
0.889587 0.268341 0.002686
0.906677 0.270660 0.003021
0.922791 0.272888 0.003357
0.000000 0.217743 0.053741
0.007629 0.218658 0.055237
0.015900 0.221008 0.058105
0.027527 0.225616 0.062744
0.041534 0.232178 0.067352
0.063599 0.241364 0.070679
0.100891 0.250244 0.069000
0.156738 0.256744 0.060028
0.216431 0.258118 0.050201
0.257172 0.245331 0.037872
0.298218 0.239380 0.028931
0.342010 0.240204 0.022766
0.382996 0.242828 0.018127
0.423126 0.247040 0.014404
0.461487 0.252411 0.011688
0.499146 0.257751 0.009125
0.536957 0.262482 0.006744
0.573547 0.266235 0.004761
0.607452 0.268921 0.003296
0.639069 0.270844 0.002350
0.668213 0.272369 0.001770
0.695374 0.273773 0.001526
0.720917 0.275238 0.001343
0.744690 0.276489 0.001312
0.767548 0.277740 0.001343
0.789368 0.279449 0.001465
0.810699 0.281189 0.001648
0.831482 0.283325 0.001831
0.851837 0.285706 0.002136
0.872223 0.288452 0.002441
0.892090 0.291168 0.002808
0.908752 0.293365 0.003082
0.924866 0.295502 0.003418
0.000000 0.243713 0.058746
0.007599 0.244476 0.060150
0.016602 0.246429 0.062897
0.028534 0.251129 0.067688
0.041870 0.256866 0.071960
0.061768 0.265320 0.075928
0.095856 0.274414 0.076202
0.148407 0.281342 0.068451
0.207611 0.286285 0.059845
0.262054 0.285126 0.049927
0.297424 0.270630 0.037537
0.336914 0.266296 0.029510
0.379852 0.267517 0.023621
0.420990 0.269928 0.018768
0.459839 0.273926 0.015167
0.498138 0.279358 0.012238
0.536194 0.285828 0.009735
0.573273 0.291901 0.007538
0.607849 0.296234 0.005585
0.640167 0.299225 0.003998
0.670044 0.301056 0.002838
0.697723 0.302063 0.001984
0.723694 0.302887 0.001556
0.747772 0.303650 0.001373
0.770721 0.304413 0.001373
0.792633 0.305573 0.001495
0.813721 0.306915 0.001709
0.834320 0.308533 0.001892
0.854523 0.310425 0.002197
0.874756 0.312775 0.002533
0.894165 0.315308 0.002838
0.910645 0.317200 0.003174
0.926758 0.319000 0.003479
0.000000 0.270203 0.064423
0.007629 0.270905 0.065857
0.017639 0.272736 0.068604
0.029846 0.277283 0.073212
0.043182 0.282837 0.077362
0.061188 0.290131 0.081421
0.091919 0.299103 0.083160
0.141449 0.306488 0.077820
0.199280 0.311707 0.067993
0.256409 0.316376 0.060699
0.304108 0.311005 0.049744
0.336182 0.296967 0.038147
0.375458 0.293884 0.030609
0.418274 0.295166 0.024597
0.457977 0.297302 0.019806
0.496826 0.301331 0.016022
0.535828 0.307190 0.012817
0.573273 0.314453 0.010590
0.608337 0.321106 0.008698
0.640900 0.326080 0.006989
0.671295 0.329437 0.005463
0.699554 0.331390 0.004211
0.726013 0.332367 0.003235
0.750366 0.332916 0.002747
0.773560 0.333435 0.002441
0.795441 0.334015 0.002319
0.816406 0.334717 0.002350
0.836853 0.335693 0.002563
0.856934 0.337036 0.002838
0.876892 0.338959 0.003204
0.895905 0.341034 0.003571
0.912262 0.342346 0.003937
0.928406 0.343719 0.004242
0.000000 0.297302 0.070648
0.007904 0.297943 0.072052
0.019012 0.299988 0.074890
0.031464 0.304077 0.079102
0.044830 0.309570 0.083038
0.061737 0.316010 0.087097
0.089172 0.324158 0.089661
0.135071 0.331848 0.086792
0.192139 0.337189 0.076996
0.249054 0.343109 0.069244
0.303009 0.346832 0.061951
0.343811 0.337250 0.050140
0.374573 0.324127 0.039185
0.414459 0.321808 0.031738
0.455902 0.322937 0.025787
0.495544 0.325226 0.020844
0.535278 0.329468 0.016632
0.573395 0.335785 0.013702
0.608734 0.343048 0.011810
0.641541 0.349854 0.010223
0.672241 0.355469 0.008881
0.701019 0.359467 0.007629
0.727844 0.362061 0.006622
0.752502 0.363495 0.005951
0.775787 0.364349 0.005463
0.797852 0.364838 0.005096
0.818878 0.365173 0.004852
0.839294 0.365448 0.004822
0.859283 0.366180 0.005005
0.879059 0.367371 0.005280
0.897675 0.368683 0.005585
0.913879 0.369293 0.005798
0.929993 0.370117 0.006073
0.000000 0.324493 0.076843
0.008911 0.325287 0.078369
0.020599 0.327606 0.081329
0.033264 0.331268 0.085083
0.046539 0.336426 0.088715
0.062988 0.342590 0.092682
0.087891 0.349701 0.095642
0.129669 0.357483 0.094727
0.185242 0.363098 0.086670
0.242615 0.368927 0.077148
0.297241 0.376251 0.072052
0.347473 0.377869 0.064026
0.383026 0.364197 0.051086
0.413422 0.351593 0.040222
0.452850 0.349609 0.032928
0.494019 0.350952 0.026886
0.534576 0.353485 0.021393
0.573364 0.358368 0.017578
0.609161 0.364624 0.015137
0.642212 0.371460 0.013428
0.673218 0.378448 0.012238
0.702332 0.384644 0.011353
0.729401 0.389496 0.010712
0.754364 0.392883 0.010254
0.777740 0.395020 0.009888
0.799927 0.396393 0.009521
0.821167 0.397034 0.009125
0.841614 0.397278 0.008881
0.861481 0.397186 0.008698
0.881104 0.397797 0.008820
0.899353 0.398376 0.008911
0.915619 0.398346 0.008911
0.931732 0.398590 0.008972
0.000427 0.352295 0.083160
0.010345 0.353302 0.084930
0.022369 0.355743 0.087952
0.035217 0.359344 0.091492
0.048492 0.364044 0.094666
0.064636 0.369690 0.098267
0.087311 0.375916 0.101288
0.125549 0.383636 0.101959
0.178497 0.389618 0.096344
0.236328 0.395264 0.086090
0.291443 0.402985 0.080170
0.343079 0.409821 0.075592
0.390381 0.408295 0.066254
0.421967 0.391296 0.052246
0.451782 0.379364 0.041626
0.491608 0.378021 0.034149
0.533417 0.379608 0.027588
0.572968 0.382690 0.022522
0.609436 0.387695 0.019287
0.642975 0.393524 0.017059
0.674194 0.399963 0.015503
0.703613 0.406952 0.014679
0.730988 0.413696 0.014496
0.756104 0.419250 0.014618
0.779785 0.423248 0.014618
0.802002 0.426025 0.014465
0.823364 0.427612 0.014099
0.843933 0.428741 0.013885
0.863678 0.428802 0.013580
0.883148 0.429321 0.013550
0.901062 0.429504 0.013428
0.917206 0.429169 0.013245
0.933289 0.428894 0.013092
0.001648 0.381378 0.090088
0.011993 0.382690 0.092224
0.024292 0.384979 0.095093
0.037354 0.388458 0.098389
0.050812 0.392548 0.100952
0.066681 0.397644 0.104156
0.087189 0.403046 0.107025
0.121155 0.410339 0.108673
0.171936 0.416840 0.105377
0.229858 0.422546 0.096161
0.286652 0.429962 0.088104
0.338074 0.438171 0.084625
0.388428 0.443420 0.079071
0.432098 0.438354 0.068542
0.460510 0.419739 0.054077
0.490570 0.408569 0.043488
0.531494 0.407898 0.035614
0.572296 0.409760 0.029297
0.609528 0.413025 0.024780
0.643799 0.417450 0.021606
0.675262 0.422791 0.019562
0.705017 0.429108 0.018402
0.732635 0.435974 0.018127
0.757996 0.442871 0.018616
0.781891 0.448853 0.019226
0.804413 0.453613 0.019745
0.825897 0.456909 0.019897
0.846527 0.459076 0.019928
0.866302 0.460449 0.019928
0.885590 0.461426 0.019897
0.903076 0.461945 0.019775
0.919128 0.461884 0.019562
0.935028 0.460999 0.018951
0.003357 0.411194 0.097229
0.013824 0.412567 0.099487
0.026337 0.414612 0.102173
0.039703 0.418030 0.105225
0.053467 0.421844 0.107452
0.069214 0.426331 0.110107
0.088562 0.431213 0.112732
0.117889 0.437653 0.114960
0.164276 0.444305 0.113556
0.223785 0.450623 0.106415
0.282196 0.458130 0.097260
0.334808 0.466583 0.093079
0.385132 0.474823 0.090149
0.433502 0.478271 0.083862
0.472626 0.469238 0.071716
0.499878 0.449707 0.056244
0.530884 0.438904 0.045135
0.571167 0.438629 0.037537
0.609528 0.440643 0.031799
0.644440 0.443542 0.027527
0.676636 0.447632 0.024628
0.706390 0.452789 0.023010
0.734406 0.458984 0.022369
0.760040 0.465729 0.022827
0.784180 0.472504 0.023804
0.806946 0.478973 0.025055
0.828766 0.484375 0.026093
0.849487 0.488312 0.026825
0.869263 0.490936 0.027252
0.888428 0.492828 0.027435
0.905548 0.494232 0.027679
0.921570 0.494934 0.027588
0.937347 0.493927 0.026733
0.005249 0.441345 0.104401
0.015778 0.442535 0.106506
0.028534 0.444458 0.109100
0.042297 0.447998 0.112213
0.056458 0.451904 0.114136
0.072601 0.456207 0.116516
0.091797 0.460510 0.118835
0.117828 0.465973 0.121094
0.159424 0.472839 0.121460
0.217651 0.479309 0.116394
0.278564 0.487396 0.107452
0.332764 0.495911 0.102142
0.382904 0.504578 0.099701
0.432098 0.512146 0.096710
0.477539 0.513123 0.089264
0.512573 0.499969 0.075073
0.540009 0.480042 0.058502
0.571136 0.469635 0.047089
0.609253 0.469727 0.040161
0.645172 0.471710 0.034943
0.677917 0.474548 0.031189
0.708313 0.478607 0.028900
0.736389 0.483856 0.027924
0.762146 0.489777 0.028107
0.786530 0.496277 0.029083
0.809387 0.502686 0.030426
0.831329 0.508850 0.031769
0.852142 0.514404 0.033234
0.871857 0.518524 0.034332
0.891022 0.521667 0.035004
0.907990 0.524353 0.035828
0.924042 0.526123 0.036224
0.939667 0.525848 0.035522
0.007568 0.472290 0.112091
0.018097 0.473541 0.114227
0.031158 0.475555 0.116852
0.045288 0.478943 0.119873
0.059906 0.482666 0.121307
0.076630 0.486816 0.123444
0.096130 0.490723 0.125427
0.121307 0.495819 0.127747
0.158539 0.502319 0.129150
0.213898 0.509003 0.126099
0.276611 0.516998 0.117615
0.331909 0.525574 0.111511
0.382965 0.534180 0.108643
0.430847 0.542267 0.106445
0.477692 0.548126 0.102478
0.521057 0.546509 0.093414
0.552216 0.529541 0.077637
0.579376 0.510803 0.061615
0.609711 0.501465 0.050751
0.645599 0.501892 0.044373
0.679138 0.503937 0.039917
0.710114 0.506805 0.036682
0.738403 0.510590 0.035034
0.764404 0.515503 0.034668
0.788818 0.520905 0.035187
0.811737 0.526672 0.036285
0.833496 0.532135 0.037384
0.854401 0.537659 0.038818
0.874054 0.542694 0.040314
0.893219 0.547119 0.041626
0.909973 0.551025 0.043030
0.926056 0.554321 0.044128
0.941681 0.555298 0.043945
0.010101 0.503326 0.119843
0.020569 0.505035 0.122406
0.034149 0.507294 0.125244
0.048645 0.510345 0.127777
0.063751 0.513611 0.128815
0.081055 0.517395 0.130402
0.101044 0.521088 0.132050
0.126312 0.526031 0.134277
0.161011 0.532196 0.136230
0.213623 0.538849 0.134491
0.276489 0.546844 0.126984
0.333221 0.555206 0.120239
0.384491 0.563599 0.116852
0.432007 0.571594 0.114807
0.477570 0.578888 0.112488
0.522644 0.582703 0.106842
0.563293 0.577728 0.096252
0.590546 0.558319 0.080139
0.617126 0.542084 0.065887
0.646393 0.534241 0.056061
0.680054 0.534943 0.050507
0.711609 0.536774 0.046448
0.740204 0.539246 0.043762
0.766418 0.542511 0.042511
0.790924 0.546478 0.042175
0.813843 0.551208 0.042725
0.835632 0.556000 0.043610
0.856354 0.560608 0.044495
0.875977 0.565216 0.045746
0.895172 0.569916 0.047150
0.911804 0.574677 0.049011
0.927856 0.578949 0.050537
0.943481 0.581177 0.050934
0.012695 0.533783 0.127014
0.023193 0.536072 0.130127
0.037109 0.538696 0.133209
0.052155 0.541504 0.135376
0.067932 0.544495 0.136108
0.085968 0.548096 0.137268
0.106506 0.551514 0.138550
0.131714 0.556030 0.140442
0.166168 0.562042 0.142426
0.216888 0.568634 0.141357
0.279022 0.576538 0.134918
0.336121 0.584961 0.128387
0.387512 0.593048 0.124603
0.434570 0.600739 0.122528
0.478943 0.608124 0.120758
0.523499 0.614319 0.117493
0.567291 0.616241 0.110565
0.602203 0.606689 0.098816
0.627228 0.587250 0.083282
0.652985 0.573181 0.070679
0.681030 0.566772 0.062164
0.712799 0.567261 0.056976
0.741943 0.568695 0.053406
0.768311 0.570618 0.051178
0.792816 0.573090 0.049896
0.815948 0.576508 0.049591
0.837708 0.580322 0.049957
0.858246 0.584076 0.050507
0.878021 0.587982 0.051300
0.897064 0.592346 0.052551
0.913544 0.596954 0.054291
0.929535 0.601471 0.055969
0.945190 0.604370 0.056610
0.015320 0.563782 0.133698
0.025726 0.566223 0.136932
0.040009 0.569153 0.140259
0.055786 0.572205 0.142609
0.072327 0.575012 0.143005
0.090973 0.578125 0.143555
0.111877 0.581055 0.144409
0.137512 0.585266 0.145874
0.172333 0.591095 0.147736
0.222809 0.597961 0.146942
0.283844 0.605896 0.141449
0.340088 0.614258 0.135712
0.391632 0.622345 0.132080
0.438477 0.629791 0.130005
0.481628 0.636688 0.128265
0.524902 0.643585 0.126068
0.568237 0.648102 0.121246
0.609192 0.647980 0.113861
0.637726 0.633881 0.101227
0.662170 0.616302 0.087006
0.686218 0.603119 0.075439
0.713501 0.597687 0.067810
0.743225 0.597870 0.063019
0.769928 0.598663 0.059875
0.794830 0.599976 0.057709
0.817871 0.602264 0.056732
0.839508 0.604797 0.056396
0.860168 0.607819 0.056580
0.880035 0.611084 0.057037
0.898895 0.614990 0.058075
0.915375 0.619293 0.059692
0.931305 0.623688 0.061432
0.946899 0.626587 0.062073
0.017639 0.592133 0.138977
0.028015 0.595215 0.142700
0.042694 0.598450 0.146362
0.059357 0.601898 0.149170
0.076508 0.604370 0.149200
0.095551 0.606812 0.149078
0.116852 0.609467 0.149445
0.143097 0.613647 0.150818
0.178345 0.619537 0.152588
0.229553 0.626648 0.151764
0.290222 0.634888 0.147125
0.345917 0.643127 0.142151
0.396118 0.650696 0.138794
0.442505 0.657776 0.136688
0.485199 0.664398 0.134827
0.527100 0.671112 0.132965
0.569092 0.676697 0.129639
0.609924 0.679199 0.123749
0.645874 0.675201 0.115479
0.670654 0.659088 0.102875
0.694336 0.643921 0.090576
0.717377 0.631836 0.080078
0.743744 0.627167 0.073181
0.770966 0.627106 0.069305
0.796173 0.627258 0.066101
0.819397 0.628204 0.064178
0.841187 0.629974 0.063354
0.862000 0.632172 0.063049
0.881836 0.634857 0.063354
0.900726 0.638184 0.064087
0.917084 0.641968 0.065460
0.932892 0.645966 0.067078
0.948395 0.649109 0.068115
0.019806 0.619476 0.143616
0.030151 0.622803 0.147552
0.045288 0.626801 0.151917
0.062653 0.630157 0.154633
0.080414 0.632599 0.154572
0.100128 0.634949 0.154053
0.122040 0.637604 0.154144
0.148682 0.641571 0.155243
0.184753 0.647339 0.156830
0.236938 0.654755 0.155914
0.296661 0.663025 0.151825
0.350952 0.670837 0.147766
0.401031 0.678101 0.144592
0.446228 0.684570 0.142395
0.488251 0.690887 0.140594
0.529510 0.697296 0.138702
0.570251 0.703308 0.136292
0.609802 0.706787 0.131622
0.648468 0.707733 0.125366
0.678284 0.699097 0.116119
0.701477 0.683807 0.104584
0.724518 0.670380 0.093872
0.746521 0.659790 0.084961
0.771515 0.656036 0.079376
0.797119 0.655457 0.075531
0.820587 0.655304 0.072784
0.842590 0.655853 0.070923
0.863647 0.657166 0.070038
0.883575 0.659271 0.070038
0.902283 0.661804 0.070465
0.918640 0.665161 0.071655
0.934448 0.668701 0.073090
0.949829 0.671478 0.074005
0.021942 0.646088 0.147827
0.032257 0.649506 0.151642
0.047577 0.653717 0.156372
0.065765 0.657654 0.159607
0.084290 0.660034 0.159271
0.104584 0.662109 0.158325
0.126709 0.664307 0.158020
0.153748 0.667999 0.158783
0.190460 0.673798 0.160217
0.243500 0.681244 0.158997
0.302704 0.689392 0.155273
0.355743 0.696808 0.152100
0.404358 0.703796 0.149628
0.449341 0.710205 0.147583
0.490814 0.716095 0.145599
0.531372 0.722107 0.143677
0.571381 0.728119 0.141510
0.609344 0.732056 0.137909
0.646881 0.733673 0.132019
0.682343 0.732300 0.125427
0.706818 0.720581 0.116394
0.730316 0.707153 0.106079
0.752136 0.694977 0.096619
0.773010 0.685852 0.089417
0.797272 0.683105 0.084808
0.821259 0.682251 0.081238
0.843567 0.681763 0.078491
0.864716 0.681885 0.076782
0.884979 0.683289 0.076294
0.903717 0.685577 0.076721
0.920044 0.688171 0.077484
0.935730 0.690857 0.078339
0.951050 0.693359 0.079132
0.023865 0.671783 0.151550
0.034302 0.675354 0.155182
0.049530 0.679657 0.159912
0.068634 0.683929 0.163483
0.087921 0.686188 0.163208
0.108368 0.687805 0.161652
0.131195 0.689972 0.161163
0.158386 0.693512 0.161804
0.195251 0.699097 0.163025
0.248566 0.706543 0.161713
0.306488 0.714630 0.158783
0.358490 0.721710 0.156281
0.406525 0.728088 0.153931
0.450378 0.733856 0.151733
0.491241 0.739380 0.149750
0.531372 0.744934 0.147614
0.570892 0.750610 0.145386
0.608398 0.755066 0.142426
0.644226 0.756927 0.137451
0.680786 0.758057 0.131775
0.711273 0.753479 0.124817
0.733978 0.741211 0.116364
0.756775 0.729675 0.107697
0.777222 0.718353 0.099335
0.797546 0.709808 0.092529
