cube滤镜(3D LUT)/Magnetite.cube
# Created by: Lutify.me
# Copyright: (c) Copyright Lutify.me 2015
# Website: https://lutify.me
#LUT size
LUT_3D_SIZE 5
#LUT data points
0.000000 0.000000 0.007965
0.288696 0.023285 0.010620
0.530975 0.049438 0.005463
0.731537 0.073364 0.002899
0.904053 0.106018 0.007019
0.000000 0.165649 0.043610
0.218048 0.185791 0.028168
0.538574 0.210327 0.004120
0.760681 0.229675 0.001343
0.920837 0.251282 0.003296
0.001648 0.381378 0.090088
0.171936 0.416840 0.105377
0.531494 0.407898 0.035614
0.781891 0.448853 0.019226
0.935028 0.460999 0.018951
0.019806 0.619476 0.143616
0.184753 0.647339 0.156830
0.570251 0.703308 0.136292
0.797119 0.655457 0.075531
0.949829 0.671478 0.074005
0.034088 0.821960 0.179352
0.216644 0.838928 0.181213
0.526947 0.866913 0.164734
0.794556 0.890900 0.141388
0.957428 0.848053 0.111176
0.000000 0.027008 0.214905
0.302582 0.023712 0.188629
0.539825 0.032776 0.171265
0.721313 0.039185 0.138611
0.882477 0.062683 0.138824
0.000000 0.209717 0.243408
0.184357 0.223602 0.231079
0.517487 0.244812 0.187378
0.762329 0.262207 0.160248
0.923584 0.279510 0.137909
0.008301 0.424500 0.281952
0.118134 0.422394 0.271240
0.518005 0.423401 0.201233
0.791077 0.433411 0.137512
0.938629 0.433624 0.136719
0.026215 0.650238 0.316864
0.158234 0.655762 0.307068
0.521729 0.695923 0.288300
0.805634 0.669678 0.202789
0.961304 0.691895 0.204468
0.037048 0.835876 0.332520
0.169922 0.839447 0.323944
0.486969 0.864502 0.324554
0.776489 0.893372 0.275116
0.963196 0.862976 0.242004
0.000214 0.089539 0.413971
0.214630 0.023804 0.359894
0.536194 0.048645 0.347931
0.730133 0.060883 0.336273
0.888519 0.069031 0.328186
0.004242 0.267029 0.439056
0.111176 0.266907 0.447845
0.514771 0.227051 0.355804
0.748627 0.233795 0.329620
0.902832 0.253113 0.300140
0.010956 0.433960 0.460938
0.117279 0.454498 0.478363
0.462524 0.469116 0.445068
0.769379 0.488251 0.385132
0.935028 0.487030 0.353882
0.030518 0.668732 0.510559
0.150665 0.681702 0.509186
0.394135 0.686249 0.498047
0.792847 0.701416 0.428864
0.964294 0.707703 0.393738
0.040894 0.852295 0.528351
0.167358 0.852936 0.507904
0.428223 0.863281 0.507782
0.760590 0.901855 0.475342
0.965668 0.884308 0.414734
0.007507 0.133453 0.598083
0.213379 0.033264 0.525665
0.453796 0.048492 0.516724
0.732544 0.072845 0.511047
0.899994 0.102264 0.508148
0.010864 0.322266 0.626770
0.111450 0.321228 0.643890
0.400024 0.225403 0.548889
0.753815 0.240479 0.515686
0.912781 0.264069 0.505920
0.016968 0.475281 0.645721
0.125946 0.497955 0.666840
0.352753 0.490936 0.655579
0.761627 0.458954 0.544891
0.921021 0.458832 0.522522
0.031952 0.668365 0.682770
0.157867 0.691315 0.699890
0.356720 0.702759 0.704224
0.756561 0.748932 0.678101
0.958832 0.741608 0.629272
0.047485 0.871490 0.717712
0.176758 0.873413 0.710876
0.345856 0.868866 0.692902
0.713013 0.900238 0.670837
0.965668 0.914307 0.634033
0.010193 0.183380 0.765961
0.232544 0.047852 0.674805
0.444000 0.054688 0.664825
0.701263 0.079193 0.664520
0.903168 0.113647 0.669708
0.016327 0.362610 0.791199
0.118530 0.344421 0.799957
0.392426 0.230865 0.701843
0.691040 0.237061 0.667938
0.915497 0.273621 0.672363
0.024231 0.519623 0.813782
0.135681 0.527985 0.822937
0.329834 0.492920 0.803070
0.676697 0.433929 0.702728
0.927032 0.466370 0.689178
0.034515 0.682556 0.839020
0.155823 0.691071 0.846039
0.320007 0.696564 0.848907
0.686096 0.722656 0.829529
0.950409 0.727203 0.786804
0.048828 0.866211 0.871338
0.181610 0.873291 0.875793
0.339935 0.876221 0.875397
0.529236 0.890442 0.884430
0.958374 0.962524 0.864136
