cube滤镜(3D LUT)/Malachite.cube
# Created by: Lutify.me
# Copyright: (c) Copyright Lutify.me 2015
# Website: https://lutify.me
#LUT size
LUT_3D_SIZE 9
#LUT data points
0.000000 0.000000 0.000000
0.061890 0.005127 0.008575
0.203644 0.062073 0.050964
0.338470 0.109283 0.091797
0.474243 0.158142 0.128387
0.582123 0.194641 0.158295
0.681610 0.227020 0.185608
0.802795 0.266327 0.221161
0.853882 0.284119 0.236237
0.083496 0.109222 0.078644
0.044403 0.086121 0.064453
0.234650 0.110382 0.032227
0.376984 0.146393 0.085205
0.483795 0.175873 0.120941
0.581360 0.205811 0.150482
0.681793 0.237061 0.180573
0.808350 0.278046 0.219391
0.862030 0.295471 0.235260
0.171600 0.214813 0.163666
0.171021 0.213074 0.158539
0.178558 0.160919 0.120636
0.369751 0.186035 0.077209
0.508820 0.203156 0.101257
0.600281 0.227905 0.138702
0.698792 0.258759 0.172638
0.818054 0.295471 0.210236
0.877136 0.315002 0.229065
0.278931 0.369659 0.260925
0.279236 0.369629 0.260529
0.233917 0.364563 0.232758
0.351868 0.248566 0.170441
0.541626 0.293976 0.158234
0.669098 0.317413 0.109131
0.746399 0.316284 0.139557
0.849243 0.335999 0.190033
0.905273 0.351685 0.212189
0.394745 0.531464 0.366791
0.394043 0.530182 0.366180
0.347809 0.534943 0.350250
0.519379 0.500702 0.247009
0.549164 0.362152 0.216858
0.687012 0.398163 0.210815
0.815216 0.454559 0.166412
0.919128 0.453888 0.145660
0.963135 0.451691 0.167175
0.484680 0.654663 0.449615
0.485443 0.655518 0.450409
0.463104 0.657593 0.441193
0.459198 0.638123 0.400543
0.715546 0.612152 0.325073
0.697052 0.468933 0.269501
0.808777 0.499298 0.260559
0.947906 0.567047 0.216003
0.987640 0.583221 0.247406
0.563202 0.764008 0.521484
0.562866 0.763275 0.521271
0.551056 0.767517 0.518829
0.422485 0.759369 0.494324
0.725739 0.723938 0.343964
0.841980 0.700775 0.394989
0.816406 0.570221 0.331940
0.929840 0.593109 0.315399
0.970795 0.631165 0.357117
0.666656 0.867462 0.626434
0.671295 0.869598 0.631714
0.660706 0.869690 0.627014
0.529083 0.877167 0.580414
0.685150 0.846161 0.526733
0.871094 0.832520 0.384155
0.931976 0.811066 0.586029
0.930634 0.665833 0.409729
0.945953 0.664978 0.448456
0.691071 0.880951 0.653687
0.691071 0.880951 0.653687
0.684784 0.881287 0.652679
0.599518 0.886230 0.631653
0.653870 0.880615 0.595001
0.871460 0.878601 0.415649
0.943695 0.880371 0.695160
0.939972 0.774811 0.597290
0.940582 0.712921 0.517120
0.032349 0.080994 0.102051
0.037170 0.083405 0.105286
0.131775 0.046722 0.099274
0.307220 0.088165 0.083649
0.469879 0.134583 0.126862
0.584656 0.177002 0.163635
0.688751 0.220062 0.193420
0.798920 0.258423 0.224945
0.845825 0.274048 0.238770
0.034210 0.122070 0.130646
0.052246 0.125336 0.133514
0.211029 0.129333 0.114105
0.358429 0.157776 0.120728
0.488617 0.189392 0.141205
0.594452 0.219086 0.162994
0.696045 0.248779 0.185181
0.816345 0.285034 0.213074
0.870758 0.303864 0.227448
0.153290 0.208130 0.143341
0.152618 0.208954 0.145142
0.177216 0.189270 0.149139
0.377472 0.197937 0.129059
0.502563 0.214294 0.134979
0.601471 0.239624 0.154510
0.704102 0.268219 0.176239
0.828094 0.303894 0.203735
0.884338 0.321289 0.220154
0.277435 0.364197 0.232483
0.277771 0.364502 0.232880
0.234314 0.368317 0.232788
0.360321 0.283051 0.201691
0.551300 0.321289 0.172882
0.646851 0.313965 0.160339
0.731628 0.318390 0.175293
0.851410 0.345520 0.204285
0.908112 0.360626 0.219116
0.390808 0.523590 0.343994
0.392090 0.525421 0.345001
0.373718 0.529877 0.352631
0.470703 0.506836 0.279358
0.557281 0.396820 0.245636
0.701813 0.436768 0.222687
0.807770 0.462311 0.184906
0.904907 0.448242 0.194641
0.953766 0.447418 0.208893
0.482666 0.649780 0.430298
0.481354 0.648834 0.429993
0.473267 0.655151 0.440918
0.385620 0.649902 0.413635
0.692352 0.619446 0.321198
0.701263 0.501556 0.298462
0.820801 0.533203 0.274689
0.952026 0.581665 0.217377
0.985626 0.588104 0.273315
0.561737 0.758575 0.504578
0.561188 0.758789 0.504700
0.554565 0.763672 0.515564
0.434052 0.763397 0.499939
0.688202 0.726227 0.381653
0.831543 0.714752 0.408569
0.822601 0.597809 0.361603
0.940582 0.622955 0.332520
0.971222 0.657440 0.383240
0.662872 0.869446 0.609314
0.655975 0.866455 0.600433
0.659790 0.868866 0.621521
0.549316 0.877411 0.580048
0.626251 0.855835 0.546173
0.848297 0.833588 0.378723
0.928375 0.823792 0.600555
0.930206 0.687500 0.438507
0.941956 0.692627 0.493286
0.688080 0.879211 0.641571
0.688080 0.879211 0.641571
0.687500 0.880463 0.649811
0.608704 0.885468 0.631958
0.585907 0.885101 0.594543
0.838593 0.878479 0.455963
0.940430 0.880676 0.658813
0.937256 0.795227 0.630432
0.936005 0.735260 0.552734
0.084686 0.157227 0.181152
0.072174 0.144440 0.175049
0.074646 0.078247 0.192505
0.281281 0.108582 0.183167
0.473572 0.143066 0.169800
0.597748 0.178040 0.170776
0.694611 0.213379 0.196045
0.794891 0.238708 0.222198
0.836731 0.261017 0.238190
0.086395 0.184509 0.203430
0.084320 0.178650 0.198273
0.108276 0.133484 0.191956
0.300415 0.141327 0.188019
0.477264 0.158081 0.167450
0.594574 0.198700 0.181793
0.696716 0.231506 0.198364
0.807800 0.270569 0.225555
0.855255 0.287689 0.238708
0.051514 0.219330 0.226105
0.051819 0.218842 0.225647
0.165588 0.227295 0.234589
0.359161 0.221924 0.195068
0.500061 0.251526 0.205627
0.607880 0.278259 0.219971
0.711487 0.306274 0.237213
0.832611 0.340546 0.259979
0.886993 0.356903 0.270020
0.218628 0.362610 0.250031
0.217041 0.362030 0.252319
0.214966 0.360809 0.262909
0.355591 0.334259 0.276581
0.531982 0.320435 0.212646
0.625671 0.318481 0.208099
0.725403 0.338196 0.224030
0.850311 0.369812 0.247925
0.907593 0.384674 0.259674
0.382477 0.511749 0.285645
0.384399 0.513184 0.285706
0.388824 0.518188 0.293701
0.397980 0.516052 0.299225
0.554626 0.437988 0.319153
0.698730 0.469879 0.271667
0.786560 0.455444 0.234375
0.890656 0.445953 0.239563
0.945984 0.452454 0.251129
0.481018 0.637329 0.364838
0.480713 0.637177 0.364624
0.483093 0.645752 0.390076
0.363007 0.652985 0.388489
0.657440 0.623260 0.329590
0.698975 0.536560 0.367706
0.823639 0.570923 0.331696
0.945038 0.585022 0.262695
0.977631 0.584778 0.310699
0.558777 0.747009 0.449646
0.558685 0.746460 0.448730
0.561768 0.753632 0.471619
0.445648 0.762665 0.465790
0.639160 0.734283 0.418030
0.807373 0.722900 0.433777
0.815674 0.623169 0.420135
0.938446 0.654449 0.387299
0.964783 0.689850 0.446259
0.643738 0.863342 0.537109
0.642883 0.862305 0.536530
0.648438 0.868073 0.560242
0.552673 0.876587 0.549469
0.557190 0.865234 0.541992
0.818237 0.834747 0.397888
0.916931 0.829895 0.602173
0.917206 0.717957 0.522980
0.931824 0.721130 0.553864
0.676147 0.877960 0.582520
0.674500 0.878021 0.580688
0.687836 0.876862 0.614655
0.612518 0.884094 0.608490
0.521790 0.890076 0.574738
0.803223 0.877930 0.482117
0.930481 0.879730 0.613495
0.931610 0.818207 0.680786
0.926788 0.760284 0.610138
0.120789 0.237122 0.278564
0.098236 0.199524 0.251251
0.058838 0.141510 0.208984
0.220947 0.152405 0.302795
0.428833 0.186523 0.310669
0.578461 0.202759 0.293152
0.691528 0.217804 0.269073
0.799530 0.238098 0.253113
0.842621 0.251007 0.255157
0.123138 0.272949 0.308960
0.123505 0.262909 0.299408
0.106903 0.193451 0.249695
0.239929 0.184967 0.322540
0.443207 0.205414 0.313171
0.585815 0.210999 0.284241
0.697113 0.223267 0.261292
0.801819 0.241364 0.249268
0.843567 0.252289 0.250458
0.112549 0.299286 0.332092
0.111267 0.303802 0.333954
0.175446 0.302460 0.325134
0.251678 0.250183 0.345276
0.474304 0.252594 0.313873
0.607910 0.259247 0.281342
0.705566 0.275055 0.269928
0.806671 0.310303 0.283234
0.855286 0.324249 0.289673
0.069794 0.367462 0.370392
0.068726 0.366791 0.369720
0.188873 0.371002 0.376465
0.323944 0.380524 0.386139
0.504974 0.356720 0.324341
0.619720 0.379272 0.327118
0.726410 0.403992 0.338287
0.849182 0.433716 0.352051
0.904266 0.447754 0.360077
0.264618 0.516724 0.407990
0.263214 0.515594 0.408508
0.259613 0.517395 0.405609
0.393707 0.509491 0.474487
0.528412 0.501923 0.449219
0.659943 0.470337 0.348877
0.749756 0.455017 0.324615
0.875610 0.473267 0.335754
0.933380 0.484375 0.342651
0.373352 0.639618 0.413971
0.373505 0.640137 0.414520
0.387848 0.642395 0.407135
0.367737 0.646515 0.371765
0.599976 0.630493 0.384491
0.687103 0.577362 0.466797
0.810059 0.601868 0.415619
0.920807 0.584167 0.358429
0.957642 0.584167 0.382904
0.494751 0.740631 0.444031
0.494965 0.739563 0.443420
0.523254 0.740112 0.438660
0.491455 0.745056 0.409119
0.598267 0.738525 0.400909
0.770508 0.728790 0.472076
0.806335 0.657684 0.508850
0.922943 0.693939 0.491882
0.948303 0.716766 0.529572
0.619476 0.847473 0.472809
0.617950 0.846313 0.473572
0.638611 0.849854 0.463623
0.603088 0.857758 0.481903
0.567993 0.861115 0.494781
0.779938 0.840332 0.420044
0.897400 0.837341 0.612915
0.896942 0.748932 0.610962
0.918213 0.754822 0.629578
0.654144 0.874298 0.480499
0.654846 0.874237 0.479889
0.669464 0.874023 0.477264
0.627991 0.876923 0.507355
0.529999 0.885529 0.511475
0.759613 0.876068 0.481964
0.911041 0.883331 0.571747
0.930206 0.839569 0.722015
0.919220 0.787415 0.668091
0.145294 0.328033 0.386475
0.122192 0.270599 0.340576
0.091797 0.214630 0.291138
0.146454 0.205597 0.377472
0.378632 0.231171 0.421844
0.524017 0.255951 0.432373
0.645935 0.272308 0.431152
0.770355 0.280487 0.407501
0.816711 0.283020 0.392853
0.144745 0.370697 0.422852
0.150085 0.357880 0.411316
0.135834 0.295563 0.364563
0.165924 0.230499 0.388184
0.391846 0.252167 0.433868
0.534821 0.272797 0.440308
0.656006 0.280304 0.426605
0.776245 0.283112 0.396027
0.822021 0.285278 0.382019
0.136810 0.404022 0.452057
0.143707 0.404877 0.449402
0.202881 0.405060 0.445648
0.192993 0.281006 0.377350
0.416412 0.295288 0.455505
0.559509 0.308044 0.449707
0.679443 0.311646 0.423279
0.794708 0.315521 0.387390
0.838837 0.319397 0.376587
0.123413 0.439972 0.480133
0.123627 0.443176 0.481262
0.196869 0.455719 0.485840
0.327881 0.442657 0.457397
0.389954 0.407562 0.476013
0.607086 0.397308 0.465363
0.720734 0.399109 0.428528
0.825226 0.405884 0.403229
0.863617 0.415436 0.402496
0.107605 0.522034 0.519653
0.106567 0.522247 0.519989
0.199249 0.523590 0.520203
0.400330 0.529602 0.536011
0.506226 0.536926 0.538757
0.624146 0.508240 0.483673
0.728546 0.525787 0.483734
0.856171 0.553864 0.493713
0.909668 0.567261 0.500885
0.272949 0.638184 0.553558
0.273529 0.637878 0.552734
0.269012 0.638763 0.554443
0.373108 0.641754 0.552795
0.559998 0.638031 0.616669
0.663055 0.634125 0.592773
0.763794 0.604706 0.506927
0.879333 0.599792 0.488983
0.918671 0.614563 0.514526
0.379822 0.740936 0.573212
0.380005 0.741028 0.573517
0.381378 0.742981 0.570831
0.386536 0.747650 0.561829
0.537750 0.751862 0.518463
0.721863 0.737854 0.523468
0.792511 0.692505 0.600403
0.895660 0.722900 0.591858
0.927673 0.729401 0.606476
0.482758 0.854828 0.583771
0.482788 0.855255 0.584045
0.492462 0.857239 0.575439
0.466644 0.862915 0.554779
0.565918 0.863678 0.527130
0.730255 0.851654 0.510101
0.869080 0.843201 0.613495
0.885620 0.780792 0.687775
0.919708 0.787079 0.687317
0.526886 0.891602 0.584015
0.525787 0.891785 0.586487
0.545624 0.889923 0.580200
0.515564 0.890198 0.545410
0.559265 0.883148 0.515900
0.729095 0.876434 0.499725
0.876312 0.885559 0.568115
0.934235 0.868195 0.770111
0.921173 0.814087 0.717346
0.169617 0.412964 0.485016
0.149078 0.348846 0.432129
0.130005 0.307220 0.397034
0.126068 0.247803 0.385376
0.310577 0.267059 0.541107
0.489319 0.290649 0.521027
0.604401 0.312134 0.530396
0.725159 0.331726 0.533600
0.773193 0.334625 0.527466
0.167145 0.460358 0.524170
0.177094 0.445557 0.510742
0.160553 0.374908 0.455505
0.120819 0.252075 0.363892
0.323151 0.286041 0.553558
0.498444 0.305847 0.529236
0.613037 0.325653 0.536835
0.732910 0.339752 0.532501
0.780243 0.342224 0.526825
0.157227 0.494507 0.552917
0.172974 0.496246 0.551605
0.230103 0.493835 0.545898
0.202545 0.374512 0.458588
0.344025 0.325104 0.577667
0.520721 0.340210 0.548004
0.633911 0.355865 0.549805
0.752899 0.365326 0.534912
0.800476 0.365875 0.523315
0.142029 0.525360 0.578003
0.155548 0.532043 0.580902
0.229156 0.542572 0.583801
0.362610 0.544800 0.578857
0.375397 0.422089 0.562866
0.561584 0.423889 0.584595
0.677887 0.432556 0.575684
0.795380 0.436401 0.543671
0.841583 0.437164 0.526947
0.128906 0.569611 0.607758
0.131927 0.572266 0.608521
0.202362 0.579773 0.611206
0.364227 0.592682 0.614319
0.499237 0.582275 0.592194
0.548889 0.557953 0.607880
0.729950 0.543701 0.594177
0.842285 0.544800 0.557495
0.896637 0.538757 0.540710
0.140839 0.645935 0.641052
0.140625 0.645874 0.641083
0.220154 0.646729 0.640717
0.360321 0.647247 0.641205
0.565552 0.651093 0.655029
0.645996 0.652679 0.652527
0.732025 0.638397 0.621735
0.854675 0.662537 0.626160
0.911957 0.672852 0.631653
0.287842 0.743622 0.667603
0.288055 0.745605 0.669830
0.290466 0.743835 0.669525
0.391144 0.745148 0.668549
0.532379 0.751099 0.665009
0.661194 0.750580 0.663452
0.781555 0.732269 0.688171
0.870209 0.729645 0.659485
0.921448 0.730286 0.656433
0.406494 0.852722 0.694183
0.405609 0.853241 0.695435
0.403809 0.852783 0.694275
0.418671 0.857758 0.690857
0.545959 0.863403 0.672150
0.693939 0.857910 0.662140
0.828735 0.853394 0.644531
0.884216 0.807922 0.739655
0.923370 0.818817 0.741638
0.451752 0.896667 0.703552
0.451782 0.896667 0.703552
0.454742 0.896515 0.700714
0.432343 0.895630 0.692657
0.562866 0.891052 0.677551
0.701447 0.883331 0.668640
0.827118 0.885925 0.647919
0.932587 0.890167 0.807190
0.923126 0.839539 0.765839
0.193481 0.490417 0.571777
0.178345 0.428864 0.521240
0.159210 0.382324 0.482880
0.107605 0.266815 0.377747
0.248505 0.307343 0.575806
0.433685 0.326538 0.613831
0.576263 0.342163 0.607422
0.691711 0.363525 0.614716
0.734497 0.372009 0.617401
0.192566 0.540588 0.612427
0.203827 0.525604 0.599670
0.189392 0.455841 0.545166
0.135651 0.312988 0.417358
0.260559 0.324463 0.580750
0.441833 0.341187 0.624146
0.582733 0.354187 0.613495
0.698914 0.375854 0.622070
0.742432 0.382904 0.622070
0.182617 0.576447 0.642029
0.201660 0.575592 0.639038
0.256256 0.570496 0.632080
0.229980 0.474884 0.561157
0.264191 0.355835 0.561890
0.459229 0.373413 0.645660
0.600708 0.382477 0.629761
0.715515 0.401093 0.633759
0.758850 0.408112 0.633789
0.167114 0.607605 0.668304
0.189636 0.613098 0.668884
0.263947 0.620392 0.670319
0.384827 0.622406 0.666443
0.335205 0.478424 0.571198
0.500610 0.450775 0.685547
0.642090 0.455627 0.665741
0.754120 0.467804 0.660614
0.798767 0.471741 0.652954
0.150116 0.637238 0.689453
0.166992 0.643555 0.692383
0.242615 0.652313 0.694977
0.394592 0.666962 0.699432
0.535889 0.672241 0.697693
0.543243 0.564667 0.706055
0.693359 0.560730 0.706665
0.807953 0.566772 0.686584
0.869537 0.557648 0.673401
0.141815 0.678101 0.714447
0.146973 0.681213 0.716675
0.214569 0.686066 0.718018
0.365662 0.693756 0.719116
0.536957 0.707367 0.724274
0.650330 0.708649 0.720123
0.720398 0.664001 0.731628
0.851868 0.659912 0.699066
0.899109 0.660675 0.683441
0.169312 0.751373 0.746094
0.169067 0.751160 0.746185
0.238922 0.751038 0.745239
0.365997 0.752686 0.745636
0.530518 0.754730 0.746796
0.663849 0.754974 0.751617
0.748810 0.761810 0.761810
0.860260 0.757660 0.740448
0.915161 0.772430 0.747375
0.320526 0.855408 0.775909
0.323700 0.857758 0.776367
0.322784 0.856049 0.776337
0.415924 0.857056 0.775726
0.556091 0.861603 0.774841
0.678589 0.862488 0.773590
0.782806 0.864410 0.754974
0.885651 0.836823 0.794739
0.925598 0.848877 0.796204
0.375671 0.902618 0.788727
0.376892 0.902496 0.787537
0.368256 0.902527 0.788483
0.431580 0.903137 0.786621
0.598175 0.896179 0.788330
0.692505 0.896851 0.781494
0.787994 0.896301 0.758026
0.922760 0.900940 0.814789
0.924103 0.868713 0.819946
0.225800 0.584351 0.674591
0.210693 0.520813 0.622925
0.184357 0.451538 0.564453
0.137207 0.342590 0.459320
0.212036 0.346527 0.566223
0.358551 0.358795 0.732849
0.512756 0.382446 0.707092
0.653168 0.397644 0.699036
0.712463 0.401978 0.710938
0.224274 0.629089 0.709717
0.235962 0.615601 0.698914
0.224030 0.548920 0.646088
0.184662 0.438599 0.554108
0.191528 0.346680 0.529236
0.365509 0.373383 0.735565
0.520477 0.393829 0.713409
0.660980 0.408966 0.706116
0.719910 0.412445 0.716217
0.221375 0.668091 0.741974
0.239136 0.662903 0.735199
0.289490 0.655853 0.726990
0.266235 0.578796 0.669647
0.195801 0.373444 0.506104
0.381653 0.405212 0.741699
0.537689 0.421051 0.730774
0.677856 0.434082 0.721161
0.734253 0.434875 0.728180
0.207092 0.694427 0.762604
0.235504 0.698486 0.763519
0.307770 0.705475 0.764465
0.413635 0.705933 0.759979
0.372040 0.608185 0.693115
0.405975 0.480865 0.716919
0.572876 0.488190 0.769043
0.714905 0.496246 0.751343
0.769897 0.496643 0.759613
0.188293 0.718109 0.781586
0.216675 0.726501 0.786285
0.297791 0.734497 0.787354
0.431488 0.745514 0.789337
0.553925 0.749603 0.786865
0.492218 0.625854 0.712799
0.624268 0.588165 0.814941
0.764221 0.589905 0.793152
0.836700 0.580536 0.814545
0.168640 0.746277 0.802979
0.189240 0.751251 0.804749
0.266663 0.758301 0.806488
0.414642 0.772644 0.811554
0.564117 0.787292 0.816833
0.652313 0.789825 0.817749
0.641205 0.684937 0.824799
0.811310 0.680267 0.830719
0.867737 0.676575 0.833008
0.161591 0.786194 0.827301
0.168640 0.787811 0.827667
0.230713 0.790619 0.827087
0.377686 0.799835 0.830597
0.538391 0.811646 0.835480
0.648743 0.824799 0.843658
0.759521 0.822388 0.837830
0.841949 0.765991 0.849304
0.887970 0.767761 0.840820
0.201324 0.863190 0.856598
0.201996 0.866241 0.859772
0.260834 0.863495 0.856598
0.380463 0.865295 0.857025
0.541107 0.867218 0.858368
0.668884 0.868744 0.861206
0.770508 0.869232 0.864105
0.865112 0.867828 0.867523
0.914764 0.871674 0.863708
0.262939 0.910736 0.873077
0.262573 0.910767 0.873230
0.306793 0.911072 0.872803
0.409851 0.911835 0.871735
0.584137 0.908173 0.869904
0.690491 0.910400 0.873047
0.779388 0.912292 0.875549
0.877991 0.911713 0.863525
0.920746 0.901672 0.884369
0.240417 0.622559 0.716461
0.225311 0.560638 0.666382
0.196747 0.486542 0.604584
0.162781 0.401245 0.525146
0.186676 0.354523 0.544403
0.327850 0.383240 0.726196
0.479492 0.396149 0.764832
0.625214 0.418396 0.740265
0.683563 0.422729 0.740601
0.241455 0.669830 0.753906
0.250397 0.654327 0.741211
0.241882 0.594604 0.694489
0.200775 0.484283 0.603699
0.161804 0.344971 0.498840
0.339294 0.395905 0.731323
0.490082 0.408600 0.772186
0.632385 0.429047 0.746948
0.689911 0.432892 0.746613
0.239258 0.705444 0.781769
0.256073 0.702301 0.778107
0.307220 0.695618 0.770142
0.284180 0.623871 0.716736
0.205719 0.412720 0.539459
0.347595 0.423462 0.722992
0.500458 0.433777 0.790649
0.648346 0.452698 0.760925
0.703979 0.456024 0.759796
0.229980 0.732452 0.804810
0.256256 0.735535 0.804474
0.327271 0.738983 0.803345
0.426758 0.740753 0.799133
0.385010 0.653961 0.739563
0.355316 0.486298 0.677979
0.542755 0.501678 0.828186
0.682800 0.513489 0.793915
0.738342 0.516571 0.791046
0.210083 0.755280 0.823914
0.240875 0.760925 0.825134
0.322144 0.769897 0.827545
0.447418 0.780487 0.829163
0.553680 0.785156 0.829926
0.513885 0.686523 0.766724
0.585449 0.599457 0.869476
0.734436 0.600586 0.851471
0.795197 0.599426 0.845032
0.186920 0.780121 0.842133
0.212219 0.784821 0.844025
0.294586 0.793030 0.846405
0.434875 0.806763 0.850494
0.540894 0.824738 0.863556
0.647644 0.825256 0.860962
0.588684 0.705383 0.830688
0.771820 0.695770 0.872375
0.828857 0.693634 0.867249
0.170593 0.812012 0.863129
0.184509 0.814545 0.863983
0.254181 0.821045 0.865814
0.401001 0.831177 0.869324
0.510590 0.850403 0.884094
0.649414 0.859222 0.885803
0.757355 0.856750 0.877838
0.808960 0.780090 0.892700
0.860291 0.779663 0.886627
0.183167 0.876617 0.894226
0.181976 0.873871 0.893097
0.239288 0.874329 0.892792
0.368591 0.876099 0.893188
0.496368 0.886902 0.902283
0.630371 0.890015 0.905426
0.755066 0.893829 0.904907
0.863678 0.892212 0.902802
0.898224 0.877045 0.910034
0.212250 0.914856 0.910248
0.212250 0.914856 0.910248
0.270416 0.915131 0.910156
0.384888 0.915924 0.909851
0.566803 0.913696 0.907715
0.676727 0.915680 0.910797
0.774963 0.917847 0.914001
0.872864 0.918030 0.916656
0.917908 0.917908 0.917908
