cube滤镜(3D LUT)/Malachite.cube
# Created by: Lutify.me
# Copyright: (c) Copyright Lutify.me 2015
# Website: https://lutify.me
#LUT size
LUT_3D_SIZE 5
#LUT data points
0.000000 0.000000 0.000000
0.203644 0.062073 0.050964
0.474243 0.158142 0.128387
0.681610 0.227020 0.185608
0.853882 0.284119 0.236237
0.171600 0.214813 0.163666
0.178558 0.160919 0.120636
0.508820 0.203156 0.101257
0.698792 0.258759 0.172638
0.877136 0.315002 0.229065
0.394745 0.531464 0.366791
0.347809 0.534943 0.350250
0.549164 0.362152 0.216858
0.815216 0.454559 0.166412
0.963135 0.451691 0.167175
0.563202 0.764008 0.521484
0.551056 0.767517 0.518829
0.725739 0.723938 0.343964
0.816406 0.570221 0.331940
0.970795 0.631165 0.357117
0.691071 0.880951 0.653687
0.684784 0.881287 0.652679
0.653870 0.880615 0.595001
0.943695 0.880371 0.695160
0.940582 0.712921 0.517120
0.084686 0.157227 0.181152
0.074646 0.078247 0.192505
0.473572 0.143066 0.169800
0.694611 0.213379 0.196045
0.836731 0.261017 0.238190
0.051514 0.219330 0.226105
0.165588 0.227295 0.234589
0.500061 0.251526 0.205627
0.711487 0.306274 0.237213
0.886993 0.356903 0.270020
0.382477 0.511749 0.285645
0.388824 0.518188 0.293701
0.554626 0.437988 0.319153
0.786560 0.455444 0.234375
0.945984 0.452454 0.251129
0.558777 0.747009 0.449646
0.561768 0.753632 0.471619
0.639160 0.734283 0.418030
0.815674 0.623169 0.420135
0.964783 0.689850 0.446259
0.676147 0.877960 0.582520
0.687836 0.876862 0.614655
0.521790 0.890076 0.574738
0.930481 0.879730 0.613495
0.926788 0.760284 0.610138
0.145294 0.328033 0.386475
0.091797 0.214630 0.291138
0.378632 0.231171 0.421844
0.645935 0.272308 0.431152
0.816711 0.283020 0.392853
0.136810 0.404022 0.452057
0.202881 0.405060 0.445648
0.416412 0.295288 0.455505
0.679443 0.311646 0.423279
0.838837 0.319397 0.376587
0.107605 0.522034 0.519653
0.199249 0.523590 0.520203
0.506226 0.536926 0.538757
0.728546 0.525787 0.483734
0.909668 0.567261 0.500885
0.379822 0.740936 0.573212
0.381378 0.742981 0.570831
0.537750 0.751862 0.518463
0.792511 0.692505 0.600403
0.927673 0.729401 0.606476
0.526886 0.891602 0.584015
0.545624 0.889923 0.580200
0.559265 0.883148 0.515900
0.876312 0.885559 0.568115
0.921173 0.814087 0.717346
0.193481 0.490417 0.571777
0.159210 0.382324 0.482880
0.248505 0.307343 0.575806
0.576263 0.342163 0.607422
0.734497 0.372009 0.617401
0.182617 0.576447 0.642029
0.256256 0.570496 0.632080
0.264191 0.355835 0.561890
0.600708 0.382477 0.629761
0.758850 0.408112 0.633789
0.150116 0.637238 0.689453
0.242615 0.652313 0.694977
0.535889 0.672241 0.697693
0.693359 0.560730 0.706665
0.869537 0.557648 0.673401
0.169312 0.751373 0.746094
0.238922 0.751038 0.745239
0.530518 0.754730 0.746796
0.748810 0.761810 0.761810
0.915161 0.772430 0.747375
0.375671 0.902618 0.788727
0.368256 0.902527 0.788483
0.598175 0.896179 0.788330
0.787994 0.896301 0.758026
0.924103 0.868713 0.819946
0.240417 0.622559 0.716461
0.196747 0.486542 0.604584
0.186676 0.354523 0.544403
0.479492 0.396149 0.764832
0.683563 0.422729 0.740601
0.239258 0.705444 0.781769
0.307220 0.695618 0.770142
0.205719 0.412720 0.539459
0.500458 0.433777 0.790649
0.703979 0.456024 0.759796
0.210083 0.755280 0.823914
0.322144 0.769897 0.827545
0.553680 0.785156 0.829926
0.585449 0.599457 0.869476
0.795197 0.599426 0.845032
0.170593 0.812012 0.863129
0.254181 0.821045 0.865814
0.510590 0.850403 0.884094
0.757355 0.856750 0.877838
0.860291 0.779663 0.886627
0.212250 0.914856 0.910248
0.270416 0.915131 0.910156
0.566803 0.913696 0.907715
0.774963 0.917847 0.914001
0.917908 0.917908 0.917908
