cube滤镜(3D LUT)/Malachite.cube
# Created by: Lutify.me
# Copyright: (c) Copyright Lutify.me 2015
# Website: https://lutify.me
#LUT size
LUT_3D_SIZE 33
#LUT data points
0.000000 0.000000 0.000000
0.006104 0.000763 0.000000
0.019623 0.001526 0.001465
0.034088 0.002289 0.002289
0.061890 0.005127 0.008575
0.096863 0.016174 0.014801
0.136230 0.032867 0.024750
0.169189 0.046722 0.037903
0.203644 0.062073 0.050964
0.236023 0.073730 0.059143
0.269836 0.084656 0.068634
0.303711 0.096954 0.080078
0.338470 0.109283 0.091797
0.373810 0.121246 0.101410
0.410370 0.134644 0.110413
0.444672 0.147644 0.120483
0.474243 0.158142 0.128387
0.502563 0.168121 0.135864
0.529938 0.177490 0.143829
0.556152 0.185944 0.150665
0.582123 0.194641 0.158295
0.606079 0.202240 0.164734
0.630310 0.209961 0.170624
0.655426 0.218140 0.177399
0.681610 0.227020 0.185608
0.710175 0.235748 0.193390
0.738800 0.245392 0.202545
0.771576 0.255737 0.211304
0.802795 0.266327 0.221161
0.831726 0.275848 0.228851
0.853668 0.283966 0.236237
0.853882 0.284119 0.236237
0.853882 0.284119 0.236237
0.000000 0.000000 0.000000
0.000763 0.008392 0.008392
0.016479 0.009155 0.008392
0.057587 0.014954 0.002014
0.085297 0.024323 0.011261
0.127991 0.034698 0.016510
0.164520 0.054016 0.026917
0.196350 0.069672 0.040100
0.233429 0.083221 0.053833
0.262817 0.091980 0.062012
0.294525 0.102966 0.071228
0.326111 0.114960 0.082062
0.356415 0.124420 0.090881
0.387573 0.134399 0.099609
0.418274 0.145538 0.109406
0.448730 0.155457 0.117584
0.477844 0.164581 0.126129
0.505402 0.173370 0.133972
0.529724 0.181152 0.140991
0.553955 0.188782 0.148499
0.581635 0.197296 0.155731
0.605743 0.205139 0.163025
0.628601 0.212311 0.169891
0.654053 0.220703 0.177551
0.680206 0.228485 0.184631
0.709656 0.237976 0.192566
0.738251 0.247894 0.202057
0.772980 0.259125 0.212463
0.804504 0.269440 0.221069
0.830780 0.278656 0.229431
0.855194 0.286133 0.236053
0.855408 0.286133 0.236053
0.855408 0.286133 0.236053
0.022186 0.032532 0.019958
0.011108 0.026154 0.018768
0.016327 0.017548 0.018280
0.027344 0.025452 0.018280
0.078156 0.037170 0.011627
0.126099 0.051117 0.014526
0.170227 0.065125 0.026672
0.208160 0.080627 0.040192
0.244507 0.095734 0.053894
0.273285 0.104431 0.060455
0.303162 0.114349 0.070404
0.334106 0.123779 0.082001
0.365479 0.133392 0.089874
0.395538 0.143433 0.098938
0.425140 0.152618 0.108154
0.452637 0.160767 0.116180
0.479309 0.168884 0.125092
0.504608 0.176544 0.132874
0.529755 0.183960 0.139526
0.554596 0.191681 0.147064
0.578247 0.198944 0.154083
0.602539 0.206543 0.161530
0.628052 0.214539 0.168274
0.654541 0.222687 0.175659
0.681213 0.231476 0.183960
0.709412 0.240631 0.191406
0.739716 0.250916 0.201508
0.771973 0.261536 0.211334
0.801849 0.270752 0.219513
0.835388 0.282562 0.229706
0.857422 0.289246 0.235779
0.857727 0.289337 0.235901
0.857727 0.289337 0.235901
0.058624 0.076660 0.055145
0.052399 0.071381 0.049927
0.045685 0.066193 0.041718
0.021637 0.054871 0.045532
0.031647 0.050171 0.037079
0.096710 0.064209 0.025482
0.158447 0.075317 0.016022
0.205933 0.089935 0.028625
0.245697 0.101654 0.044556
0.278351 0.112793 0.058197
0.310669 0.122284 0.066895
0.342102 0.132111 0.076874
0.370972 0.141113 0.088196
0.401459 0.149384 0.097229
0.428619 0.157013 0.105621
0.455933 0.164948 0.115326
0.481659 0.172272 0.122955
0.505585 0.179626 0.130493
0.532013 0.187744 0.138184
0.557098 0.195404 0.145538
0.578583 0.201874 0.152527
0.602509 0.208832 0.159515
0.627167 0.216766 0.167175
0.653595 0.225189 0.174316
0.681671 0.234619 0.183105
0.709503 0.243317 0.190613
0.737427 0.252350 0.200012
0.774139 0.264191 0.211090
0.805634 0.274231 0.219788
0.837341 0.285065 0.229553
0.859924 0.292694 0.235443
0.860229 0.292908 0.235596
0.860229 0.292908 0.235596
0.083496 0.109222 0.078644
0.082520 0.108429 0.078094
0.078278 0.104492 0.072723
0.065613 0.100891 0.065002
0.044403 0.086121 0.064453
0.061401 0.081238 0.056915
0.127502 0.092407 0.040283
0.184448 0.102600 0.035278
0.234650 0.110382 0.032227
0.274200 0.118896 0.047058
0.310272 0.128937 0.062195
0.345734 0.138428 0.075592
0.376984 0.146393 0.085205
0.404358 0.153687 0.094513
0.433990 0.162109 0.105103
0.459564 0.168884 0.112732
0.483795 0.175873 0.120941
0.509186 0.183838 0.129089
0.535614 0.192047 0.137207
0.559601 0.198975 0.143677
0.581360 0.205811 0.150482
0.606140 0.213562 0.158020
0.630493 0.220764 0.165314
0.655975 0.228912 0.173187
0.681793 0.237061 0.180573
0.709869 0.245941 0.189911
0.739441 0.255798 0.198853
0.772430 0.266266 0.208282
0.808350 0.278046 0.219391
0.839630 0.288391 0.229126
0.861816 0.295349 0.235260
0.862030 0.295471 0.235260
0.862030 0.295471 0.235260
0.108490 0.137054 0.103455
0.108429 0.136749 0.103149
0.109802 0.137817 0.100128
0.104248 0.132782 0.089142
0.087524 0.126190 0.078918
0.069580 0.112274 0.069489
0.098206 0.107544 0.072113
0.161621 0.116425 0.062805
0.210388 0.124847 0.050873
0.262177 0.128387 0.036896
0.304260 0.133575 0.045654
0.343994 0.141602 0.062866
0.376343 0.149384 0.077759
0.406586 0.157288 0.089996
0.435883 0.165558 0.100616
0.465057 0.174500 0.111511
0.489044 0.181183 0.118469
0.512909 0.187958 0.126770
0.539368 0.195801 0.134766
0.562988 0.203094 0.142029
0.584564 0.209839 0.148743
0.609467 0.217834 0.156250
0.633423 0.224854 0.163757
0.659851 0.233154 0.171539
0.686829 0.242432 0.180176
0.712616 0.250458 0.188324
0.742798 0.260345 0.197021
0.775696 0.270782 0.206879
0.807343 0.280457 0.216125
0.843140 0.292145 0.227600
0.865265 0.300140 0.234558
0.865356 0.300079 0.234558
0.865479 0.300171 0.234558
0.128204 0.158295 0.122986
0.128204 0.158051 0.122681
0.128723 0.158661 0.122803
0.128571 0.157257 0.112976
0.126495 0.155304 0.097443
0.108948 0.144348 0.086212
0.096252 0.129395 0.089386
0.142731 0.127777 0.090912
0.185303 0.136078 0.085541
0.236206 0.142609 0.067261
0.293030 0.144196 0.044952
0.338654 0.148560 0.051605
0.376068 0.154633 0.066254
0.409821 0.162964 0.081238
0.440186 0.171356 0.094391
0.467041 0.178711 0.105927
0.494232 0.186798 0.115814
0.519135 0.193878 0.123383
0.542755 0.200653 0.132385
0.566742 0.208008 0.139618
0.589355 0.215118 0.146698
0.613312 0.222595 0.153778
0.637726 0.230225 0.161835
0.663086 0.238068 0.169647
0.689270 0.246460 0.177521
0.716278 0.254913 0.186768
0.745880 0.264587 0.195557
0.778015 0.274902 0.204895
0.810852 0.285614 0.215179
0.846466 0.296875 0.226257
0.868622 0.304260 0.232788
0.869629 0.305420 0.232666
0.869537 0.305328 0.232666
0.149841 0.184265 0.143799
0.151642 0.185852 0.145386
0.151489 0.185760 0.145264
0.148743 0.181915 0.137817
0.151733 0.184265 0.131714
0.140594 0.179138 0.122589
0.127197 0.162750 0.104828
0.146576 0.146515 0.095764
0.172882 0.144318 0.108948
0.212952 0.151825 0.101562
0.269470 0.160309 0.084198
0.327606 0.162964 0.058777
0.377960 0.168121 0.059326
0.413757 0.172394 0.072174
0.444824 0.179199 0.085175
0.474426 0.186707 0.098114
0.500305 0.192963 0.110168
0.523315 0.199127 0.118988
0.546997 0.206421 0.127777
0.571411 0.214172 0.136017
0.594696 0.221222 0.143250
0.617493 0.227814 0.151062
0.641846 0.235199 0.158508
0.668213 0.244110 0.167633
0.695282 0.252716 0.175873
0.722382 0.260681 0.184509
0.751770 0.270294 0.193726
0.782440 0.280121 0.202393
0.814301 0.290039 0.213074
0.848297 0.300903 0.223633
0.872528 0.308929 0.230377
0.873138 0.309448 0.230438
0.873108 0.309418 0.230438
0.171600 0.214813 0.163666
0.172272 0.215393 0.164307
0.172302 0.215424 0.164307
0.171722 0.214539 0.163055
0.171021 0.213074 0.158539
0.154694 0.214813 0.150696
0.151306 0.203308 0.138550
0.174408 0.182800 0.106476
0.178558 0.160919 0.120636
0.204834 0.159698 0.123169
0.246277 0.166870 0.115784
0.308929 0.179626 0.101654
0.369751 0.186035 0.077209
0.416809 0.190704 0.071045
0.452026 0.192932 0.076569
0.482849 0.198395 0.087799
0.508820 0.203156 0.101257
0.533325 0.208801 0.113220
0.555237 0.214691 0.122559
0.577759 0.221313 0.130768
0.600281 0.227905 0.138702
0.623047 0.234772 0.147308
0.647339 0.241913 0.154816
0.672058 0.249908 0.163879
0.698792 0.258759 0.172638
0.726471 0.266632 0.181244
0.755981 0.275696 0.191315
0.788483 0.286560 0.201019
0.818054 0.295471 0.210236
0.850494 0.306854 0.220551
0.876953 0.314880 0.228912
0.877319 0.315277 0.229065
0.877136 0.315002 0.229065
0.195190 0.249725 0.184784
0.195251 0.249756 0.184845
0.195251 0.249756 0.184845
0.195404 0.249725 0.184418
0.195648 0.249298 0.182404
0.187805 0.247467 0.177887
0.175537 0.246765 0.170166
0.190643 0.233734 0.157288
0.216248 0.207458 0.127411
0.206940 0.175781 0.136871
0.242035 0.176178 0.133972
0.289917 0.185944 0.129913
0.351654 0.200806 0.119171
0.412262 0.210846 0.099060
0.457031 0.216248 0.085388
0.494904 0.218262 0.082336
0.525452 0.222290 0.090546
0.548981 0.225342 0.102753
0.570557 0.229645 0.113556
0.589447 0.233002 0.123657
0.610229 0.237976 0.132080
0.631592 0.244110 0.141205
0.654449 0.250671 0.150024
0.678406 0.257507 0.158966
0.703888 0.265503 0.167633
0.731964 0.274384 0.177124
0.761688 0.283691 0.187561
0.794617 0.294281 0.198303
0.823853 0.302917 0.207153
0.859619 0.315155 0.218414
0.881805 0.321381 0.226532
0.882812 0.322113 0.225586
0.882812 0.322083 0.225586
0.221069 0.287384 0.208130
0.219421 0.285614 0.206635
0.221069 0.287384 0.208130
0.220978 0.287384 0.208099
0.221802 0.287201 0.206726
0.217621 0.286102 0.204224
0.193451 0.285339 0.195587
0.185394 0.283051 0.185608
0.249756 0.268707 0.164429
0.257812 0.232391 0.152954
0.250671 0.197357 0.149200
0.285950 0.195984 0.145264
0.339050 0.208374 0.143860
0.398285 0.224396 0.136444
0.456055 0.238190 0.120300
0.500519 0.244904 0.104462
0.538055 0.248871 0.093811
0.566620 0.250305 0.094727
0.588928 0.251709 0.101105
0.608887 0.253326 0.110809
0.628082 0.255341 0.122650
0.646881 0.259338 0.132233
0.666260 0.263763 0.142395
0.688141 0.269135 0.152161
0.712616 0.275513 0.161713
0.739929 0.283813 0.171326
0.768616 0.292450 0.181793
0.801758 0.303070 0.193451
0.832489 0.312408 0.203979
0.866974 0.322937 0.215515
0.888641 0.329926 0.222046
0.889282 0.330261 0.221588
0.889282 0.330322 0.221588
0.249390 0.327789 0.233948
0.248657 0.326996 0.233276
0.249237 0.327637 0.233795
0.249359 0.327789 0.233978
0.249939 0.327545 0.232666
0.248047 0.327454 0.232147
0.227234 0.327728 0.222992
0.207550 0.326599 0.216156
0.243347 0.316559 0.203461
0.309143 0.300018 0.169586
0.304749 0.258362 0.171204
0.300476 0.222198 0.160431
0.333466 0.218384 0.156586
0.386841 0.231323 0.156738
0.444092 0.249390 0.152313
0.499756 0.266266 0.139557
0.543823 0.276062 0.125214
0.579620 0.282257 0.110413
0.606537 0.282501 0.103455
0.629028 0.282867 0.101898
0.649078 0.282623 0.109344
0.668182 0.284363 0.119202
0.686279 0.285370 0.130035
0.704529 0.287506 0.140411
0.725739 0.291382 0.151550
0.750580 0.297089 0.162659
0.777771 0.304169 0.174194
0.809418 0.313293 0.186493
0.840118 0.322815 0.197906
0.874207 0.332489 0.210480
0.896484 0.340179 0.217773
0.896698 0.340302 0.217865
0.896942 0.340698 0.217773
0.278931 0.369659 0.260925
0.278931 0.369659 0.260925
0.278870 0.369415 0.260925
0.279022 0.369659 0.260986
0.279236 0.369629 0.260529
0.278229 0.369873 0.259766
0.265686 0.371124 0.254395
0.236938 0.369049 0.244659
0.233917 0.364563 0.232758
0.318451 0.352570 0.210510
0.363617 0.329865 0.180634
0.356995 0.284363 0.182770
0.351868 0.248566 0.170441
0.384430 0.243530 0.167694
0.435822 0.256348 0.167908
0.491302 0.276459 0.166626
0.541626 0.293976 0.158234
0.584778 0.307281 0.144897
0.619995 0.315674 0.129822
0.646637 0.317841 0.116516
0.669098 0.317413 0.109131
0.687866 0.316101 0.110931
0.708282 0.316071 0.117798
0.726227 0.314728 0.128082
0.746399 0.316284 0.139557
0.767975 0.318420 0.151825
0.793091 0.322540 0.164337
0.821167 0.328979 0.177185
0.849243 0.335999 0.190033
0.883453 0.344574 0.203735
0.904999 0.351471 0.212097
0.905182 0.351501 0.212250
0.905273 0.351685 0.212189
0.309967 0.412933 0.289337
0.308899 0.411316 0.288330
0.311340 0.415649 0.290436
0.308929 0.411377 0.288422
0.308929 0.411194 0.288269
0.308167 0.411499 0.287415
0.300781 0.411987 0.284180
0.270477 0.412415 0.273224
0.250610 0.408539 0.266571
0.298309 0.399017 0.251373
0.388336 0.390411 0.206024
0.417908 0.361389 0.202087
0.408722 0.312042 0.193420
0.403717 0.276093 0.180756
0.434631 0.270325 0.178864
0.481506 0.281677 0.178802
0.534149 0.302277 0.179321
0.581116 0.320740 0.173889
0.623108 0.337219 0.164307
0.656799 0.347473 0.149078
0.683960 0.352448 0.132996
0.706909 0.353577 0.122253
0.727692 0.352448 0.117920
0.746552 0.350677 0.119751
0.768341 0.349945 0.127747
0.789673 0.350220 0.139160
0.812439 0.349548 0.151459
0.837494 0.352203 0.164276
0.864197 0.355530 0.178589
0.895630 0.361877 0.192627
0.915802 0.366211 0.203705
0.915985 0.366272 0.203857
0.916595 0.367340 0.203644
0.339935 0.454956 0.316650
0.339020 0.453613 0.315765
0.339020 0.454224 0.315735
0.339355 0.454285 0.316101
0.337616 0.451660 0.314514
0.338745 0.453674 0.315430
0.331451 0.452515 0.311768
0.309143 0.454620 0.302917
0.278961 0.452301 0.296783
0.275238 0.447174 0.285675
0.379913 0.434387 0.257782
0.451355 0.425262 0.215240
0.470612 0.390747 0.221100
0.462738 0.344971 0.205933
0.453644 0.303833 0.192291
0.483826 0.298859 0.190369
0.527527 0.309265 0.191010
0.575104 0.327911 0.191071
0.619751 0.347412 0.186676
0.658447 0.365234 0.180359
0.691315 0.377014 0.165314
0.719147 0.385101 0.150635
0.744568 0.389221 0.137482
0.765198 0.388214 0.128052
0.786957 0.386414 0.123566
0.809937 0.386292 0.129181
0.831207 0.383423 0.139679
0.857300 0.384918 0.151917
0.884003 0.385132 0.165680
0.909546 0.385468 0.178711
0.930542 0.388275 0.191223
0.930725 0.388306 0.191223
0.931641 0.389648 0.190033
0.367798 0.494202 0.342072
0.366516 0.492706 0.340790
0.365692 0.491516 0.340088
0.367096 0.493256 0.341400
0.366699 0.492737 0.341003
0.367401 0.493652 0.341644
0.361420 0.492523 0.338440
0.346069 0.495941 0.333130
0.312927 0.494537 0.324585
0.286011 0.489197 0.317749
0.354919 0.479370 0.301025
0.455048 0.468201 0.249268
0.509003 0.456848 0.229797
0.521820 0.421265 0.235596
0.508240 0.371185 0.216156
0.502930 0.333130 0.204681
0.530640 0.328033 0.202698
0.570892 0.337006 0.203491
0.614502 0.354218 0.202393
0.654297 0.372742 0.198761
0.691681 0.391174 0.192505
0.724823 0.406586 0.182587
0.753723 0.416809 0.168152
0.780396 0.423187 0.153229
0.804932 0.423492 0.139404
0.829712 0.424408 0.131439
0.850464 0.420074 0.133118
0.876312 0.420593 0.142181
0.903931 0.420471 0.155212
0.925842 0.415894 0.167755
0.946533 0.416962 0.178345
0.946808 0.417084 0.178314
0.947937 0.419128 0.176971
0.394745 0.531464 0.366791
0.393829 0.530579 0.365967
0.393921 0.530792 0.366119
0.395233 0.531982 0.367310
0.394043 0.530182 0.366180
0.393494 0.529633 0.365631
0.391296 0.532135 0.365540
0.378174 0.533020 0.360291
0.347809 0.534943 0.350250
0.315826 0.528931 0.345947
0.331177 0.521027 0.328491
0.445312 0.508484 0.298523
0.519379 0.500702 0.247009
0.561615 0.486328 0.251007
0.569183 0.447815 0.247711
0.551880 0.396942 0.228058
0.549164 0.362152 0.216858
0.571289 0.354309 0.214874
0.608948 0.362946 0.215668
0.649658 0.380493 0.214203
0.687012 0.398163 0.210815
0.724060 0.417236 0.204285
0.757263 0.435028 0.197327
0.787262 0.446960 0.182648
0.815216 0.454559 0.166412
0.843750 0.459503 0.152618
0.867462 0.457336 0.140717
0.892090 0.455231 0.138397
0.919128 0.453888 0.145660
0.943695 0.452057 0.157959
0.962402 0.450714 0.167328
0.962402 0.450073 0.167633
0.963135 0.451691 0.167175
0.420319 0.566345 0.390381
0.420471 0.566040 0.389954
0.420258 0.565765 0.389801
0.421204 0.567383 0.391266
0.420410 0.566193 0.390564
0.419312 0.564911 0.389557
0.416748 0.566254 0.388977
0.407410 0.568176 0.385529
0.378937 0.568542 0.373474
0.343842 0.567352 0.371368
0.324799 0.560547 0.360016
0.420380 0.546539 0.334381
0.516876 0.536407 0.281189
0.576630 0.531677 0.251862
0.607483 0.511993 0.272736
0.610657 0.470062 0.257904
0.594879 0.424011 0.240936
0.590271 0.389893 0.229004
0.611084 0.381195 0.227295
0.646179 0.389771 0.227783
0.681854 0.405945 0.226929
0.720001 0.424164 0.222717
0.754211 0.442352 0.215302
0.789398 0.461151 0.208252
0.818970 0.475281 0.195587
0.849518 0.484985 0.179901
0.878693 0.490173 0.164948
0.905060 0.489685 0.151550
0.931946 0.487518 0.144897
0.958893 0.487976 0.148285
0.977478 0.485229 0.157196
0.977448 0.484589 0.157684
0.977722 0.485291 0.157440
0.443787 0.599060 0.411896
0.442810 0.596985 0.410248
0.443634 0.597992 0.410919
0.442383 0.596649 0.410522
0.443146 0.598206 0.411285
0.443146 0.597198 0.410980
0.440063 0.597931 0.410492
0.432648 0.599548 0.407471
0.409576 0.600830 0.397827
0.372772 0.599213 0.392334
0.341461 0.596619 0.388947
0.397278 0.584229 0.375427
0.511047 0.570374 0.325104
0.580597 0.565033 0.270233
0.628326 0.560425 0.271820
0.649231 0.536438 0.288269
0.647125 0.493408 0.269623
0.632385 0.449249 0.253387
0.628387 0.416901 0.241943
0.649811 0.409515 0.240814
0.680023 0.416290 0.239868
0.713806 0.430939 0.238800
0.749847 0.448639 0.234253
0.784454 0.467712 0.227142
0.820404 0.487213 0.220032
0.851013 0.503021 0.207916
0.883026 0.513977 0.193481
0.914520 0.520660 0.177277
0.941467 0.520081 0.163055
0.968628 0.520447 0.152985
0.987579 0.518860 0.161621
0.987732 0.518890 0.162079
0.988129 0.519806 0.161591
0.464905 0.628265 0.431244
0.464081 0.627045 0.430542
0.465210 0.628601 0.431549
0.463715 0.626190 0.430298
0.463867 0.626617 0.430328
0.464355 0.626221 0.430328
0.462402 0.627014 0.430298
0.455994 0.628815 0.428131
0.437714 0.631073 0.420776
0.403046 0.630920 0.412384
0.368347 0.626770 0.410217
0.378571 0.620270 0.397186
0.489960 0.605042 0.371735
0.578461 0.596954 0.306427
0.635956 0.593719 0.281006
0.675354 0.588226 0.303436
0.688232 0.560303 0.302887
0.681915 0.519165 0.284485
0.670074 0.478607 0.268494
0.664001 0.442688 0.255402
0.682861 0.436035 0.253815
0.711212 0.442627 0.253174
0.745514 0.456757 0.250153
0.779114 0.474060 0.247345
0.815643 0.493469 0.239807
0.851349 0.513367 0.230957
0.882751 0.528748 0.219604
0.915527 0.541870 0.206207
0.947693 0.547974 0.188293
0.973633 0.549133 0.177734
0.990051 0.553223 0.196503
0.990051 0.553223 0.197266
0.990143 0.553101 0.196320
0.484680 0.654663 0.449615
0.485474 0.655548 0.450409
0.485504 0.655579 0.450439
0.485474 0.655640 0.450439
0.485443 0.655518 0.450409
0.485565 0.655670 0.450470
0.484467 0.655731 0.450012
0.477783 0.656403 0.447235
0.463104 0.657593 0.441193
0.429871 0.660278 0.430328
0.388550 0.656311 0.430542
0.366241 0.650787 0.419586
0.459198 0.638123 0.400543
0.568909 0.625671 0.350403
0.634216 0.622223 0.296631
0.681488 0.620300 0.298553
0.715546 0.612152 0.325073
0.720032 0.581848 0.316925
0.713287 0.542603 0.299042
0.704163 0.505432 0.282837
0.697052 0.468933 0.269501
0.715729 0.462982 0.266754
0.741791 0.468414 0.267151
0.776581 0.482819 0.264313
0.808777 0.499298 0.260559
0.845703 0.518311 0.252289
0.883972 0.538177 0.243225
0.915375 0.553375 0.230011
0.947906 0.567047 0.216003
0.977783 0.574829 0.206116
0.987457 0.583160 0.247620
0.987488 0.583313 0.248535
0.987640 0.583221 0.247406
0.504669 0.682434 0.467926
0.505585 0.683380 0.468811
0.504669 0.682434 0.467926
0.504608 0.682343 0.467896
0.504700 0.682465 0.468018
0.504669 0.682434 0.467926
0.505188 0.683350 0.468658
0.497986 0.683258 0.465637
0.485992 0.684082 0.460632
0.455658 0.686981 0.448792
0.413147 0.684998 0.447632
0.376190 0.679443 0.444427
0.438293 0.668945 0.430878
0.556915 0.655396 0.392639
0.630157 0.648438 0.330261
0.681549 0.646301 0.304016
0.720825 0.644501 0.322632
0.748444 0.632233 0.341644
0.749176 0.603088 0.331268
0.742584 0.564514 0.313934
0.733246 0.527222 0.296326
0.728180 0.495697 0.284424
0.746918 0.488953 0.280853
0.771942 0.494171 0.281372
0.805817 0.507111 0.278412
0.838531 0.523132 0.272797
0.877228 0.542572 0.264557
0.914368 0.561768 0.254883
0.945862 0.576904 0.240601
0.977081 0.591888 0.233246
0.984283 0.604675 0.286560
0.984344 0.604919 0.287506
0.984314 0.604919 0.287598
0.524811 0.710297 0.486450
0.525604 0.711090 0.487213
0.524109 0.709534 0.485748
0.523895 0.709290 0.485504
0.523956 0.709381 0.485565
0.523895 0.709320 0.485565
0.524200 0.710815 0.486847
0.519775 0.711426 0.485382
0.506561 0.711609 0.479858
0.480591 0.713043 0.469177
0.442444 0.712402 0.465057
0.404816 0.707581 0.463593
0.428253 0.699768 0.448029
0.538452 0.685669 0.427307
0.625519 0.675903 0.371674
0.681000 0.671844 0.318359
0.724457 0.669830 0.317657
0.758728 0.668640 0.346100
0.779633 0.653259 0.357574
0.778625 0.622803 0.346069
0.770416 0.587036 0.329559
0.761658 0.550964 0.311371
0.757751 0.521484 0.299255
0.774445 0.514099 0.295685
0.803741 0.520508 0.295807
0.833862 0.531250 0.292542
0.870300 0.547516 0.286224
0.908691 0.566986 0.278046
0.941101 0.584320 0.267700
0.977142 0.602264 0.257141
0.980743 0.617920 0.310730
0.980621 0.618225 0.311890
0.980804 0.618134 0.310883
0.545135 0.738434 0.505127
0.543243 0.736328 0.503235
0.543976 0.737091 0.503937
0.543274 0.736298 0.503235
0.543182 0.736298 0.503174
0.544159 0.737061 0.504028
0.542419 0.737457 0.504120
0.540009 0.738251 0.503418
0.528351 0.739838 0.499054
0.503967 0.738342 0.488159
0.470001 0.738953 0.482574
0.428101 0.736023 0.483215
0.416260 0.730133 0.467163
0.505707 0.717621 0.451233
0.610229 0.704834 0.417786
0.678009 0.699066 0.355988
0.725098 0.696503 0.322052
0.761932 0.695343 0.338593
0.793884 0.693787 0.369904
0.810486 0.675049 0.375061
0.806580 0.641266 0.360168
0.800446 0.609283 0.344940
0.790741 0.574707 0.327423
0.786499 0.546692 0.314972
0.806030 0.538208 0.311523
0.835846 0.544983 0.310638
0.864929 0.554962 0.306763
0.900726 0.572205 0.300720
0.938446 0.589142 0.290497
0.970673 0.607422 0.285339
0.976105 0.626129 0.332764
0.975586 0.626587 0.335876
0.976196 0.626282 0.332855
0.563202 0.764008 0.521484
0.563202 0.763977 0.521515
0.564850 0.765381 0.523224
0.563751 0.764191 0.522156
0.562866 0.763275 0.521271
0.564972 0.764954 0.523010
0.564606 0.766541 0.523804
0.560577 0.764832 0.521576
0.551056 0.767517 0.518829
0.528320 0.766266 0.508698
0.494965 0.765717 0.499268
0.453003 0.764343 0.501007
0.422485 0.759369 0.494324
0.481873 0.748810 0.478241
0.594299 0.735474 0.456787
0.669617 0.727631 0.402740
0.725739 0.723938 0.343964
0.762726 0.720978 0.334167
0.796967 0.722290 0.360718
0.827209 0.720062 0.391663
0.841980 0.700775 0.394989
0.836029 0.665405 0.378510
0.831055 0.633789 0.363831
0.818481 0.597717 0.344696
0.816406 0.570221 0.331940
0.837860 0.564392 0.330811
0.865906 0.568329 0.325989
0.897461 0.580414 0.321625
0.929840 0.593109 0.315399
0.963898 0.612946 0.311401
0.970734 0.630829 0.356445
0.970520 0.631287 0.358398
0.970795 0.631165 0.357117
0.584991 0.792694 0.541290
0.585571 0.793335 0.541901
0.583954 0.790985 0.540894
0.584564 0.791687 0.541534
0.584442 0.791107 0.541138
0.583801 0.790680 0.540771
0.582214 0.792938 0.541504
0.580261 0.792786 0.540253
0.570709 0.793854 0.536743
0.552307 0.795349 0.529510
0.519257 0.794891 0.517792
0.480408 0.792847 0.518555
0.443604 0.788635 0.516632
0.465820 0.782257 0.498291
0.567322 0.769226 0.482361
0.658173 0.758148 0.449280
0.719269 0.752045 0.390686
0.766449 0.749481 0.340363
0.799011 0.748474 0.353363
0.832153 0.749817 0.386719
0.859772 0.744934 0.413940
0.870300 0.724030 0.413818
0.863983 0.687561 0.396545
0.859589 0.656433 0.382324
0.848358 0.621643 0.362427
0.847046 0.593781 0.347931
0.864319 0.587158 0.347443
0.891205 0.589996 0.343170
0.927643 0.603973 0.339600
0.957794 0.618500 0.337494
0.964722 0.633636 0.374481
0.964813 0.633911 0.375092
0.964813 0.633911 0.375214
0.603851 0.818542 0.559235
0.606506 0.820923 0.561493
0.603851 0.818268 0.559204
0.605560 0.820129 0.560974
0.606415 0.820801 0.561432
0.604553 0.819214 0.559845
0.601959 0.818329 0.559082
0.601318 0.821503 0.559845
0.591888 0.821472 0.555969
0.575043 0.822388 0.549408
0.546753 0.824829 0.537689
0.510406 0.823395 0.536072
0.467041 0.818665 0.538330
0.456879 0.812653 0.521942
0.541687 0.801971 0.509186
0.644867 0.790100 0.489075
0.711578 0.782837 0.442261
0.762634 0.778229 0.382812
0.803650 0.777130 0.346527
0.835205 0.776428 0.373108
0.864075 0.774658 0.408295
0.889709 0.770142 0.434906
0.898712 0.747833 0.434784
0.895966 0.714294 0.417053
0.889069 0.680481 0.401398
