cube滤镜(3D LUT)/Mariposite.cube
# Created by: Lutify.me
# Copyright: (c) Copyright Lutify.me 2015
# Website: https://lutify.me
#LUT size
LUT_3D_SIZE 33
#LUT data points
0.029663 0.060913 0.071808
0.031097 0.063171 0.074310
0.036682 0.067017 0.075531
0.048737 0.071960 0.076324
0.064056 0.077332 0.077942
0.081879 0.083710 0.080902
0.101105 0.090698 0.083435
0.120392 0.098206 0.086273
0.140564 0.104767 0.088531
0.161621 0.110748 0.090790
0.184265 0.116028 0.093201
0.207520 0.121094 0.095642
0.231415 0.126251 0.098694
0.254395 0.132843 0.102356
0.275604 0.141510 0.107117
0.300018 0.149078 0.113739
0.325592 0.154968 0.121643
0.351471 0.160461 0.129913
0.378174 0.166138 0.138611
0.405212 0.171753 0.147491
0.432312 0.177521 0.156769
0.459045 0.183105 0.166077
0.484711 0.189331 0.174805
0.509979 0.195496 0.183380
0.534576 0.201691 0.191772
0.558899 0.208282 0.199615
0.584290 0.215881 0.206604
0.609161 0.223450 0.213348
0.633606 0.230957 0.219604
0.657471 0.238617 0.225433
0.681213 0.246460 0.230988
0.704773 0.254456 0.236023
0.727051 0.262482 0.240631
0.030701 0.069611 0.072327
0.031616 0.069672 0.074646
0.037170 0.071106 0.074402
0.048187 0.076660 0.076508
0.065247 0.081116 0.078461
0.082581 0.086182 0.081512
0.101410 0.090698 0.083313
0.120850 0.096497 0.085907
0.141144 0.102997 0.088348
0.162781 0.109528 0.090576
0.185425 0.115814 0.093262
0.208923 0.121277 0.095856
0.232849 0.126587 0.098877
0.255493 0.132996 0.102692
0.276428 0.140320 0.108002
0.300629 0.146790 0.115143
0.326080 0.153076 0.122833
0.352020 0.159088 0.130859
0.378815 0.165253 0.139343
0.405792 0.171326 0.148071
0.432861 0.177673 0.157013
0.459900 0.183472 0.166138
0.485596 0.189911 0.174683
0.510864 0.196136 0.183014
0.536011 0.202972 0.191040
0.561127 0.210327 0.198120
0.586304 0.217712 0.205109
0.611115 0.225311 0.211761
0.635437 0.232880 0.218231
0.659821 0.240692 0.224213
0.683502 0.248688 0.229614
0.706726 0.256744 0.234741
0.729034 0.264984 0.239197
0.031494 0.081512 0.072266
0.031677 0.081512 0.075317
0.036133 0.081818 0.077301
0.051636 0.081665 0.071960
0.070190 0.085419 0.074738
0.087067 0.091858 0.078979
0.105347 0.098419 0.081635
0.124359 0.104065 0.085205
0.144653 0.108887 0.087952
0.165527 0.113434 0.091125
0.188599 0.117249 0.093597
0.212341 0.121674 0.096313
0.236694 0.126465 0.099457
0.257996 0.133087 0.103760
0.279510 0.140564 0.109222
0.304352 0.147217 0.116455
0.329712 0.153748 0.123962
0.355652 0.160187 0.131866
0.382263 0.166626 0.140076
0.409271 0.173035 0.148590
0.436279 0.179230 0.157410
0.462708 0.185455 0.166046
0.488312 0.191833 0.174347
0.513855 0.198822 0.182007
0.539185 0.206177 0.189423
0.564209 0.213379 0.196503
0.589203 0.220825 0.203430
0.614166 0.228302 0.210114
0.638489 0.235901 0.216614
0.662567 0.243835 0.222321
0.686310 0.252045 0.227844
0.709900 0.260254 0.233063
0.731934 0.268646 0.237671
0.033112 0.095825 0.070984
0.033356 0.095886 0.073578
0.038025 0.099518 0.075867
0.046234 0.100220 0.076233
0.074890 0.093811 0.071899
0.093964 0.095947 0.074585
0.111969 0.102570 0.077789
0.131500 0.109711 0.080261
0.151794 0.116913 0.083954
0.173065 0.123016 0.087952
0.194794 0.126831 0.092346
0.217651 0.130524 0.096466
0.242950 0.134064 0.099457
0.265747 0.139801 0.103760
0.287048 0.146820 0.109375
0.311951 0.153168 0.116791
0.337372 0.159424 0.124390
0.363281 0.165680 0.132263
0.389587 0.171997 0.140350
0.416290 0.178223 0.148621
0.442932 0.184326 0.157104
0.469116 0.190826 0.165283
0.494812 0.197754 0.172821
0.520416 0.204865 0.180237
0.545319 0.211884 0.187469
0.569855 0.218933 0.194458
0.594452 0.226013 0.201416
0.619171 0.233551 0.208008
0.643616 0.241394 0.214325
0.667267 0.249237 0.220032
0.691040 0.257446 0.225525
0.714233 0.265991 0.230652
0.736694 0.274384 0.235229
0.035004 0.112061 0.069824
0.035370 0.114014 0.070984
0.038574 0.120148 0.069733
0.050293 0.118652 0.071350
0.068848 0.116272 0.077057
0.097534 0.108582 0.071899
0.118317 0.108398 0.074280
0.140533 0.114655 0.076233
0.161896 0.121399 0.079773
0.183594 0.128845 0.083557
0.205963 0.136108 0.086700
0.228943 0.142548 0.089966
0.252625 0.148254 0.094696
0.277405 0.154266 0.100372
0.298187 0.161560 0.106384
0.322083 0.167755 0.114410
0.348236 0.172546 0.122559
0.374115 0.177765 0.130768
0.400574 0.183350 0.139099
0.427032 0.189087 0.147339
0.453308 0.194641 0.155792
0.479340 0.200836 0.163635
0.504730 0.207367 0.171204
0.529663 0.214020 0.178558
0.554108 0.220551 0.185669
0.578705 0.227539 0.192505
0.603363 0.234985 0.199066
0.627716 0.242706 0.205322
0.651611 0.250214 0.211609
0.675049 0.258087 0.217285
0.698090 0.266266 0.222595
0.720978 0.274658 0.227692
0.743073 0.283356 0.232269
0.037384 0.128998 0.067413
0.037994 0.133087 0.065948
0.041901 0.140076 0.062469
0.057220 0.137115 0.070404
0.078278 0.134552 0.077240
0.094543 0.130585 0.081635
0.122223 0.124420 0.069580
0.145477 0.121887 0.074768
0.171021 0.127747 0.077179
0.194794 0.134460 0.079651
0.218811 0.141479 0.081818
0.242615 0.148682 0.084961
0.266327 0.156250 0.089844
0.289398 0.163818 0.095612
0.310852 0.171906 0.101196
0.333923 0.179016 0.110565
0.358490 0.185944 0.120605
0.385040 0.191895 0.129059
0.412445 0.197632 0.136993
0.439026 0.202606 0.145508
0.465332 0.207733 0.154053
0.491058 0.213562 0.161865
0.516602 0.220062 0.169312
0.541687 0.226929 0.176300
0.566650 0.233978 0.183136
0.591187 0.241211 0.189697
0.615479 0.248383 0.196320
0.639374 0.255829 0.202576
0.663055 0.263641 0.208344
0.685730 0.271179 0.214020
0.708069 0.279175 0.219086
0.730408 0.287201 0.224274
0.751831 0.295532 0.228729
0.040070 0.145935 0.063599
0.042694 0.151794 0.062103
0.049957 0.158508 0.062775
0.065613 0.155640 0.070740
0.083099 0.154633 0.075073
0.103149 0.149933 0.083588
0.120239 0.146545 0.082123
0.150085 0.139954 0.072876
0.175354 0.136414 0.077301
0.202759 0.141571 0.078339
0.230469 0.148285 0.078186
0.256165 0.155365 0.080627
0.279358 0.163452 0.086853
0.302246 0.171814 0.094025
0.326324 0.179718 0.101776
0.350189 0.187286 0.110931
0.373260 0.194824 0.119812
0.397614 0.202057 0.128601
0.423615 0.208679 0.137054
0.450348 0.214020 0.144684
0.477478 0.221161 0.152466
0.503906 0.229004 0.159393
0.529968 0.237213 0.166077
0.555847 0.245178 0.172821
0.580994 0.252258 0.179626
0.605530 0.259399 0.186157
0.630066 0.266724 0.192688
0.653992 0.274323 0.198669
0.676971 0.281677 0.204346
0.699493 0.289307 0.209747
0.721069 0.296814 0.214813
0.742340 0.304779 0.219482
0.763367 0.312958 0.223846
0.045349 0.163696 0.063812
0.050079 0.169342 0.064331
0.056702 0.176331 0.064819
0.069977 0.175751 0.070770
0.086700 0.175201 0.074371
0.108368 0.170807 0.082306
0.126434 0.165710 0.092773
0.151917 0.165802 0.079498
0.180237 0.155762 0.078064
0.208099 0.152313 0.079102
0.237274 0.156006 0.077545
0.266174 0.162933 0.077148
0.291382 0.171265 0.086090
0.317352 0.179047 0.095123
0.342163 0.187408 0.103973
0.367798 0.195099 0.113281
0.391510 0.202393 0.122894
0.415985 0.209503 0.132294
0.441010 0.216309 0.140564
0.467163 0.224335 0.147491
0.492371 0.232758 0.153503
0.518524 0.241364 0.159241
0.543945 0.250366 0.165222
0.568878 0.259521 0.170868
0.594330 0.268829 0.176697
0.620209 0.278015 0.182678
0.645264 0.287048 0.188324
0.669128 0.296478 0.193237
0.692383 0.304840 0.198578
0.714905 0.312683 0.203766
0.735870 0.320251 0.208405
0.756805 0.328033 0.213013
0.775757 0.335419 0.217010
0.052460 0.180908 0.066711
0.056946 0.185944 0.067291
0.063568 0.192780 0.067963
0.074341 0.196167 0.071381
0.090637 0.195923 0.074463
0.112152 0.192352 0.081543
0.135223 0.185638 0.092224
0.154388 0.185028 0.095764
0.185516 0.181763 0.078461
0.213898 0.172211 0.082092
0.242950 0.168304 0.079376
0.272339 0.171112 0.077606
0.301056 0.178467 0.082672
0.330505 0.186737 0.095306
0.358337 0.194702 0.106018
0.384338 0.202637 0.116028
0.409790 0.210083 0.126556
0.434814 0.218140 0.135040
0.460754 0.226044 0.143646
0.486023 0.234375 0.150299
0.511230 0.243103 0.156464
0.536438 0.252167 0.162323
0.560547 0.261230 0.167725
0.585663 0.270935 0.173248
0.609955 0.281067 0.178040
0.633759 0.291718 0.182495
0.658203 0.302917 0.186920
0.681183 0.314423 0.190887
0.705811 0.324951 0.193634
0.729523 0.335693 0.195953
0.751160 0.345886 0.198517
0.771942 0.355988 0.200623
0.785187 0.360779 0.203491
0.059479 0.197144 0.069855
0.063843 0.201813 0.070404
0.070343 0.208557 0.071198
0.079254 0.216156 0.072418
0.094360 0.216553 0.074890
0.115845 0.213806 0.080933
0.140076 0.206848 0.090881
0.163605 0.201111 0.098389
0.192200 0.209015 0.093994
0.220917 0.196899 0.082092
0.249573 0.188538 0.084503
0.280548 0.184937 0.079346
0.308716 0.187347 0.081543
0.338654 0.194000 0.092072
0.369995 0.202026 0.104462
0.399689 0.210205 0.117767
0.428253 0.218933 0.128998
0.453949 0.227875 0.137787
0.481323 0.236298 0.145172
0.506134 0.245728 0.152374
0.529877 0.254730 0.158783
0.554138 0.263611 0.164062
0.577606 0.272644 0.169830
0.601685 0.282410 0.174774
0.626160 0.292572 0.178101
0.650696 0.303314 0.182495
0.674805 0.314423 0.185242
0.699799 0.326508 0.186829
0.722565 0.338715 0.188324
0.747040 0.350769 0.186920
0.770477 0.362579 0.185547
0.791840 0.375061 0.184540
0.800110 0.378510 0.184479
0.066254 0.212646 0.073090
0.070312 0.217010 0.073608
0.076080 0.223755 0.074463
0.084686 0.232056 0.075317
0.098572 0.236664 0.075928
0.119476 0.234833 0.080536
0.144348 0.227661 0.089569
0.169617 0.220032 0.100830
0.201233 0.223511 0.092407
0.231537 0.227509 0.090607
0.255585 0.211121 0.091980
0.287079 0.205048 0.087128
0.318451 0.201569 0.081604
0.348267 0.203491 0.086334
0.378723 0.209076 0.100952
0.410919 0.218109 0.113770
0.442596 0.228149 0.126190
0.472595 0.237701 0.137512
0.500305 0.247223 0.146240
0.525787 0.256500 0.152954
0.550507 0.265503 0.158386
0.573364 0.274658 0.162964
0.596405 0.284210 0.167755
0.620270 0.293518 0.172119
0.642731 0.304077 0.176788
0.667297 0.314484 0.179535
0.691162 0.326019 0.181488
0.715790 0.337891 0.182190
0.740112 0.350464 0.182098
0.764832 0.363220 0.179321
0.788055 0.376038 0.176727
0.811279 0.389221 0.169800
0.813934 0.390686 0.169708
0.072662 0.227875 0.076355
0.075653 0.231628 0.076843
0.081573 0.238525 0.077820
0.090210 0.246490 0.078705
0.103851 0.251617 0.078705
0.123840 0.255707 0.080963
0.149200 0.248871 0.088654
0.176331 0.241119 0.099548
0.204773 0.239960 0.100433
0.239441 0.245117 0.088715
0.270294 0.248993 0.090576
0.294373 0.227814 0.098053
0.327484 0.223083 0.089447
0.358398 0.219727 0.085999
0.390442 0.221893 0.091797
0.423401 0.229126 0.106628
0.454590 0.237335 0.120636
0.485748 0.246796 0.132202
0.514709 0.256989 0.141479
0.542542 0.266937 0.149780
0.568298 0.276794 0.156555
0.591492 0.285950 0.161774
0.614746 0.295502 0.166107
0.636993 0.305206 0.169952
0.660645 0.315338 0.171600
0.683655 0.326385 0.174225
0.708130 0.337524 0.175110
0.731567 0.349426 0.175354
0.755707 0.361877 0.174408
0.780701 0.375824 0.169952
0.805023 0.389038 0.164398
0.826080 0.402313 0.159302
0.826233 0.402252 0.159363
0.079498 0.244293 0.079926
0.081116 0.246124 0.080170
0.086975 0.252838 0.081177
0.095581 0.260742 0.082123
0.109100 0.266113 0.082336
0.128601 0.271820 0.083618
0.154999 0.272003 0.087952
0.183228 0.265137 0.096893
0.209198 0.259247 0.106293
0.247192 0.268127 0.091553
0.277863 0.270020 0.085236
0.311401 0.274170 0.095276
0.338104 0.250610 0.096008
0.372925 0.246338 0.085907
0.404755 0.243408 0.091156
0.437012 0.243866 0.097015
0.469421 0.250488 0.111450
0.499084 0.258087 0.124908
0.527344 0.267151 0.135864
0.555725 0.276917 0.143433
0.582672 0.286713 0.150574
0.607635 0.297058 0.157104
0.632843 0.306946 0.161896
0.655029 0.316620 0.165283
0.677490 0.326813 0.166718
0.700562 0.337372 0.167175
0.724182 0.349365 0.167328
0.747284 0.361694 0.165802
0.771637 0.374573 0.162903
0.795593 0.387604 0.157501
0.819336 0.401550 0.152252
0.839294 0.414642 0.145752
0.839233 0.414642 0.145813
0.086151 0.260498 0.083710
0.086823 0.261078 0.083740
0.092133 0.266968 0.084625
0.100830 0.275208 0.085754
0.114441 0.280518 0.085968
0.135284 0.286255 0.087128
0.162323 0.292419 0.089111
0.191040 0.287933 0.096069
0.218079 0.282013 0.105865
0.251160 0.287354 0.101288
0.293335 0.294556 0.089050
0.324005 0.299561 0.088989
0.353424 0.298279 0.098358
0.385071 0.274994 0.091400
0.420288 0.271057 0.091095
0.453064 0.268188 0.096069
0.484711 0.267181 0.099701
0.514191 0.272736 0.113983
0.542358 0.280670 0.124329
0.569489 0.288513 0.134186
0.595398 0.297302 0.142609
0.621155 0.307251 0.148682
0.646088 0.317688 0.153442
0.671021 0.328308 0.157166
0.695312 0.338928 0.158661
0.717560 0.349701 0.159027
0.739716 0.361328 0.158600
0.763733 0.373962 0.154358
0.787628 0.387146 0.149719
0.809723 0.400848 0.145966
0.833801 0.415100 0.138275
0.852264 0.426788 0.132111
0.852264 0.426788 0.132111
0.092316 0.276184 0.087524
0.093109 0.276703 0.087555
0.097229 0.281189 0.088287
0.106323 0.289948 0.089569
0.120819 0.295471 0.089783
0.143951 0.301392 0.091431
0.170807 0.308563 0.093018
0.200287 0.309418 0.098145
0.228516 0.304413 0.107635
0.257355 0.305420 0.111206
0.299011 0.317383 0.095917
0.336853 0.321106 0.094452
0.373993 0.332031 0.095612
0.398895 0.320831 0.096466
0.434875 0.300934 0.094635
0.468628 0.297028 0.097260
0.501190 0.293823 0.099945
0.529327 0.292908 0.103149
0.555817 0.296082 0.112366
0.583527 0.303528 0.120941
0.608673 0.311646 0.129913
0.634033 0.319489 0.137207
0.658447 0.328583 0.143097
0.683197 0.339264 0.146362
0.707214 0.350769 0.148621
0.733307 0.362030 0.147949
0.755798 0.374146 0.146118
0.777466 0.386475 0.143738
0.799927 0.400421 0.138763
0.822876 0.414062 0.132202
0.847809 0.429016 0.125519
0.861023 0.440613 0.123871
0.860016 0.440491 0.124969
0.097443 0.291138 0.091431
0.098358 0.291779 0.091522
0.102386 0.295898 0.092133
0.112305 0.305756 0.093750
0.129761 0.311676 0.093689
0.153442 0.318085 0.095642
0.180847 0.326019 0.097687
0.210510 0.329407 0.102081
0.239258 0.324951 0.110962
0.267212 0.324799 0.116699
0.305206 0.336426 0.106018
0.349457 0.345581 0.100830
0.379303 0.349304 0.100739
0.422363 0.363220 0.101624
0.446411 0.345520 0.101593
0.484955 0.328033 0.098785
0.516266 0.324005 0.101593
0.545746 0.321503 0.104156
0.571747 0.320343 0.106934
0.597565 0.320740 0.107483
0.622772 0.327209 0.115845
0.646667 0.335480 0.123474
0.671539 0.343140 0.128387
0.695160 0.351501 0.133392
0.718689 0.362000 0.136169
0.743988 0.373962 0.134583
0.768066 0.386505 0.133942
0.791870 0.400085 0.130859
0.814636 0.413330 0.126556
0.836914 0.427094 0.122650
0.859344 0.442230 0.122833
0.865173 0.452484 0.122040
0.865173 0.452484 0.122040
0.101410 0.305328 0.095428
0.102386 0.306030 0.095490
0.108490 0.312134 0.096466
0.121277 0.322571 0.097870
0.140106 0.328369 0.098358
0.163727 0.335266 0.100098
0.191254 0.343414 0.102264
0.220886 0.347931 0.105927
0.250488 0.344879 0.114502
0.278076 0.344269 0.120728
0.312286 0.353729 0.116638
0.355804 0.367615 0.105988
0.397980 0.373810 0.107361
0.428986 0.382477 0.107941
0.469238 0.393494 0.108429
0.493744 0.373077 0.109192
0.531921 0.356140 0.104279
0.560791 0.352783 0.105042
0.587494 0.350220 0.107422
0.612762 0.348633 0.109436
0.636688 0.347992 0.109009
0.660461 0.351410 0.109741
0.684204 0.359222 0.114655
0.707825 0.367737 0.118744
0.730164 0.376587 0.122437
0.753815 0.386017 0.124329
0.778687 0.398438 0.122253
0.802582 0.412201 0.119537
0.827148 0.426910 0.118713
0.849365 0.441711 0.120728
0.866547 0.455963 0.121124
0.868591 0.464508 0.120667
0.868591 0.464508 0.120667
0.105286 0.318573 0.099182
0.108276 0.321075 0.099518
0.118225 0.331390 0.101288
0.131439 0.339142 0.101929
0.150177 0.345032 0.102478
0.173981 0.351959 0.104370
0.201691 0.360291 0.106964
0.231598 0.365021 0.110474
0.261139 0.363373 0.118164
0.288696 0.362396 0.124725
0.320374 0.370605 0.124207
0.361816 0.385834 0.111633
0.405701 0.396393 0.113831
0.440796 0.402374 0.114075
0.479187 0.417358 0.115814
0.514648 0.424988 0.115784
0.537292 0.402496 0.116455
0.573700 0.386505 0.110748
0.601440 0.383026 0.109344
0.626251 0.380005 0.111359
0.650787 0.378082 0.112122
0.672760 0.376678 0.113373
0.695007 0.377167 0.112457
0.719879 0.384613 0.111267
0.742310 0.393372 0.112457
0.765503 0.402161 0.112640
0.788269 0.411560 0.113892
0.811188 0.424408 0.115570
0.835876 0.438812 0.117249
0.858887 0.454651 0.120026
0.871613 0.469299 0.118256
0.872650 0.475525 0.119110
0.872650 0.475525 0.119110
0.112976 0.334717 0.103302
0.118439 0.340271 0.104279
0.128662 0.350769 0.106232
0.141785 0.355621 0.105957
0.161102 0.361267 0.107300
0.184692 0.368286 0.109283
0.212189 0.376862 0.111420
0.242065 0.381165 0.115112
0.271271 0.380341 0.121735
0.298920 0.379822 0.128265
0.329895 0.387939 0.128326
0.367523 0.401886 0.119141
0.410980 0.416626 0.119080
0.454224 0.425903 0.121002
0.482178 0.432465 0.121216
0.524963 0.452972 0.124481
0.555145 0.457977 0.124084
0.575348 0.435272 0.123444
0.613556 0.419708 0.117889
0.639984 0.414307 0.112793
0.664062 0.411530 0.114441
0.686371 0.408813 0.116211
0.708893 0.407166 0.116974
0.729492 0.405273 0.115417
0.752197 0.411469 0.115448
0.774811 0.420471 0.116272
0.797302 0.429810 0.115906
0.819580 0.439392 0.115753
0.842834 0.451447 0.116486
0.866089 0.467102 0.118256
0.874023 0.481689 0.121368
0.875244 0.485382 0.122131
0.875214 0.485229 0.122009
0.123840 0.354645 0.108368
0.129456 0.360504 0.109497
0.138885 0.367401 0.110413
0.152252 0.372192 0.110077
0.171448 0.377838 0.111542
0.195496 0.384766 0.113739
0.222900 0.393188 0.115906
0.252441 0.396454 0.119781
0.281525 0.396637 0.126160
0.309052 0.397552 0.131927
0.338715 0.404724 0.132202
0.372742 0.416901 0.128143
0.414612 0.434265 0.123413
0.457947 0.447296 0.127441
0.498413 0.457336 0.128906
0.520966 0.464844 0.129669
0.564545 0.489655 0.134552
0.592133 0.493225 0.132568
0.610657 0.470032 0.130798
0.648926 0.456085 0.129547
0.675415 0.448181 0.121185
0.699402 0.444427 0.118256
0.720856 0.441162 0.119537
0.741913 0.437805 0.120392
0.762634 0.434692 0.119476
0.783447 0.439117 0.120361
0.806946 0.447906 0.118988
0.829163 0.457550 0.118988
0.851257 0.467590 0.119415
0.872437 0.479614 0.120422
0.877655 0.493927 0.124969
0.878326 0.496063 0.125427
0.878876 0.495514 0.124573
0.134766 0.375031 0.113739
0.140381 0.381104 0.114929
0.149078 0.384460 0.114807
0.162842 0.389679 0.115082
0.182068 0.395721 0.116913
0.205444 0.403595 0.119141
0.232422 0.410828 0.121826
0.261383 0.412628 0.125885
0.290161 0.414124 0.131653
0.317871 0.415466 0.137451
0.346161 0.421356 0.138641
0.378601 0.433411 0.136597
0.416504 0.449524 0.129425
0.459015 0.466766 0.132599
0.500366 0.479156 0.136017
0.535614 0.489624 0.137665
0.557892 0.499390 0.139221
0.598999 0.525146 0.144989
0.626373 0.529114 0.143127
0.645844 0.506531 0.136230
0.684021 0.493744 0.139221
0.707550 0.481781 0.131439
0.731689 0.477844 0.124176
0.754089 0.474121 0.122833
0.773529 0.469482 0.124573
0.793243 0.465393 0.124084
0.814697 0.467346 0.123230
0.836884 0.476318 0.124451
0.858429 0.485901 0.125153
0.878021 0.496246 0.125763
0.879242 0.506378 0.129547
0.879181 0.506897 0.129608
0.879181 0.506897 0.129608
0.143005 0.395142 0.119507
0.148651 0.401550 0.120850
0.157379 0.405426 0.121002
0.170715 0.411255 0.121063
0.190063 0.417389 0.123077
0.213531 0.424622 0.125122
0.240906 0.426971 0.128540
0.269226 0.428650 0.132843
0.297913 0.430573 0.137665
0.326263 0.433075 0.143127
0.353699 0.438019 0.145233
0.385193 0.450256 0.142670
0.419586 0.464325 0.138367
0.460449 0.482971 0.137085
0.501923 0.499329 0.141846
0.540192 0.511902 0.144958
0.569275 0.522217 0.146790
0.593201 0.534760 0.149567
0.630981 0.560547 0.155792
0.657440 0.565247 0.154449
0.676971 0.545349 0.146881
0.717041 0.532623 0.146820
0.738342 0.516663 0.142853
0.761841 0.511200 0.136078
0.784943 0.505951 0.128021
0.804413 0.501160 0.128235
0.822998 0.495605 0.128174
0.843658 0.495941 0.127258
0.865143 0.504639 0.128967
0.881256 0.513977 0.129944
0.883423 0.523010 0.130737
0.882904 0.521698 0.131348
0.882904 0.521362 0.131226
0.151398 0.415588 0.125519
0.156830 0.420685 0.127045
0.165283 0.424927 0.127411
0.178589 0.430878 0.127502
0.198273 0.437561 0.129669
0.222229 0.440186 0.131927
0.248718 0.441376 0.135254
0.276947 0.443939 0.139038
0.305939 0.446625 0.144073
0.334778 0.450195 0.149292
0.361328 0.454132 0.152222
0.392426 0.466705 0.149261
0.425507 0.480804 0.145752
0.462677 0.497589 0.143005
0.503235 0.516724 0.146210
0.541809 0.532043 0.151062
0.577911 0.545654 0.154419
0.601379 0.555084 0.156311
0.624817 0.568878 0.159668
0.661774 0.595276 0.166534
0.686707 0.601379 0.166229
0.709290 0.586975 0.157745
0.745850 0.570160 0.153931
0.768921 0.551910 0.152893
0.790222 0.545349 0.148590
0.812347 0.538483 0.139221
0.834015 0.532135 0.132538
0.851837 0.525574 0.131317
0.871002 0.524597 0.131134
0.885925 0.532959 0.131866
0.888550 0.541046 0.131592
0.887390 0.539185 0.132263
0.887390 0.539185 0.132263
0.159576 0.431519 0.132111
0.164337 0.431915 0.134064
0.172882 0.436005 0.134552
0.186646 0.442444 0.134613
0.206329 0.449615 0.136536
0.229919 0.453094 0.139069
0.257050 0.454651 0.142609
0.284973 0.458008 0.146301
0.313934 0.461945 0.150848
0.342896 0.466766 0.155334
0.370331 0.471375 0.159088
0.399750 0.482361 0.156433
0.432709 0.497284 0.152069
0.466919 0.512634 0.149139
0.505157 0.531830 0.151398
0.543274 0.550171 0.156036
0.578796 0.564789 0.160400
0.611298 0.578613 0.163910
0.632538 0.588104 0.166077
0.655182 0.602844 0.169922
0.689850 0.629486 0.177185
0.715942 0.638306 0.178223
0.738159 0.627258 0.170685
0.773651 0.608582 0.165497
0.799561 0.587067 0.161102
0.817108 0.577332 0.159088
0.839508 0.569244 0.149933
0.861267 0.562378 0.138916
0.881470 0.554596 0.133270
0.890778 0.552887 0.133636
0.892853 0.560791 0.133911
0.891541 0.557739 0.134979
0.891418 0.558197 0.134918
0.167847 0.441223 0.139832
0.172546 0.441864 0.141724
0.181213 0.446198 0.141937
0.194855 0.452850 0.141876
0.214417 0.460419 0.143799
0.238159 0.464935 0.146210
0.265167 0.467224 0.149902
0.292908 0.471405 0.153046
0.321869 0.476593 0.157166
0.351288 0.482239 0.162109
0.379395 0.488007 0.165985
0.407990 0.497589 0.164429
0.440735 0.513611 0.159332
0.473724 0.529144 0.155396
0.508301 0.545807 0.157104
0.545197 0.565094 0.160065
0.580841 0.582855 0.165527
0.612793 0.597565 0.169891
0.643280 0.611755 0.173645
0.663208 0.621979 0.176239
0.684448 0.636749 0.180298
0.716827 0.663177 0.187805
0.741882 0.673401 0.189758
0.762024 0.664612 0.183899
0.800507 0.644653 0.173126
0.828857 0.621338 0.169586
0.846008 0.609009 0.165894
0.865326 0.598907 0.159943
0.886322 0.591064 0.150879
0.894989 0.584015 0.142456
0.894897 0.581512 0.140991
0.894318 0.577271 0.139191
0.894318 0.577301 0.139221
0.176300 0.450104 0.147888
0.180847 0.450958 0.149567
0.189575 0.455597 0.149719
0.203400 0.462555 0.149506
0.223236 0.470673 0.151215
0.246613 0.476044 0.153625
0.273285 0.479156 0.156952
0.301300 0.483887 0.160492
0.330414 0.489807 0.164948
0.360016 0.496521 0.169708
0.388428 0.503357 0.173340
0.417114 0.512665 0.173065
0.449341 0.528961 0.167664
0.482452 0.545593 0.162170
0.514709 0.561676 0.162933
0.548340 0.579498 0.165863
0.582489 0.598389 0.169495
0.614471 0.615021 0.174835
0.644714 0.630371 0.179474
0.673584 0.645630 0.183685
0.692657 0.656250 0.186584
0.710114 0.668274 0.189941
0.741913 0.696198 0.198151
0.767639 0.708221 0.200867
0.786407 0.700134 0.196167
0.826324 0.679321 0.182251
0.856812 0.653717 0.176422
0.874939 0.640778 0.174164
0.889313 0.629517 0.172821
0.895477 0.619965 0.166565
0.895264 0.613159 0.163269
0.895905 0.605225 0.156677
0.895905 0.605499 0.156830
0.185944 0.458435 0.156769
0.190063 0.459747 0.157959
0.198730 0.464417 0.157898
0.212738 0.471710 0.157532
0.232361 0.480072 0.159058
0.255676 0.486359 0.161407
0.281952 0.489960 0.164612
0.309753 0.496185 0.168182
0.339233 0.504456 0.172394
0.369019 0.513458 0.176178
0.398041 0.524506 0.178802
0.426910 0.537079 0.178436
0.457733 0.554291 0.172913
0.489929 0.572418 0.170441
0.522339 0.589630 0.173248
0.552795 0.604828 0.176147
0.582031 0.619690 0.178589
0.612579 0.636505 0.181396
0.642853 0.653168 0.185760
0.672333 0.668396 0.190582
0.699921 0.682312 0.194733
0.719330 0.692383 0.197540
0.734619 0.701935 0.200317
0.765442 0.727112 0.207642
0.792999 0.741302 0.211395
