cube滤镜(3D LUT)/Mariposite.cube
# Created by: Lutify.me
# Copyright: (c) Copyright Lutify.me 2015
# Website: https://lutify.me
#LUT size
LUT_3D_SIZE 5
#LUT data points
0.029663 0.060913 0.071808
0.140564 0.104767 0.088531
0.325592 0.154968 0.121643
0.534576 0.201691 0.191772
0.727051 0.262482 0.240631
0.052460 0.180908 0.066711
0.185516 0.181763 0.078461
0.409790 0.210083 0.126556
0.609955 0.281067 0.178040
0.785187 0.360779 0.203491
0.101410 0.305328 0.095428
0.250488 0.344879 0.114502
0.531921 0.356140 0.104279
0.730164 0.376587 0.122437
0.868591 0.464508 0.120667
0.167847 0.441223 0.139832
0.321869 0.476593 0.157166
0.580841 0.582855 0.165527
0.800507 0.644653 0.173126
0.894318 0.577301 0.139221
0.294128 0.737274 0.226105
0.396973 0.784729 0.237305
0.623474 0.812042 0.248230
0.795410 0.839386 0.245453
0.920654 0.851440 0.244110
0.042175 0.123077 0.151337
0.200531 0.140778 0.167419
0.399323 0.173676 0.176819
0.566376 0.210999 0.200867
0.732605 0.262939 0.243439
0.063263 0.182434 0.194824
0.157379 0.212952 0.232269
0.407166 0.233307 0.210571
0.600769 0.240753 0.199768
0.771179 0.316589 0.225250
0.099640 0.349976 0.204498
0.190002 0.386536 0.159637
0.528503 0.401276 0.179077
0.730774 0.408813 0.116638
0.874207 0.494995 0.126373
0.112152 0.394379 0.213531
0.275116 0.494049 0.188599
0.568237 0.591644 0.217621
0.799225 0.649475 0.173004
0.894562 0.592834 0.150330
0.299622 0.749573 0.230133
0.362762 0.796082 0.240234
0.601166 0.831757 0.252899
0.792114 0.856903 0.253632
0.921326 0.865021 0.267670
0.070251 0.212830 0.262604
0.128326 0.226379 0.260956
0.483856 0.246765 0.251343
0.646606 0.274902 0.269379
0.780060 0.338501 0.314636
0.082306 0.230621 0.282288
0.119415 0.280426 0.336731
0.482513 0.294189 0.308289
0.650299 0.315308 0.316833
0.781219 0.369537 0.354858
0.134644 0.356384 0.389435
0.156281 0.416138 0.441986
0.444092 0.471161 0.480621
0.683197 0.507355 0.490204
0.828979 0.529205 0.478027
0.220215 0.615662 0.552063
0.192780 0.563202 0.459412
0.503387 0.596893 0.404022
0.778442 0.682678 0.376129
0.898682 0.669586 0.436890
0.259277 0.817596 0.434845
0.250519 0.826019 0.348846
0.537811 0.916931 0.359375
0.779114 0.878357 0.439789
0.923248 0.882935 0.454498
0.101044 0.298401 0.367310
0.139069 0.294159 0.348419
0.441559 0.335266 0.345795
0.689850 0.353546 0.349182
0.773651 0.423584 0.448120
0.107300 0.311035 0.382202
0.112762 0.344147 0.425049
0.439240 0.351318 0.412567
0.682434 0.397552 0.435760
0.782379 0.465515 0.519867
0.147369 0.391418 0.476532
0.169159 0.446503 0.543213
0.314087 0.523499 0.597473
0.721832 0.514709 0.604248
0.812683 0.587830 0.648041
0.232727 0.545715 0.640045
0.248383 0.588898 0.672729
0.352905 0.648956 0.739319
0.723297 0.727814 0.731903
0.869690 0.743500 0.740662
0.305023 0.797394 0.811401
0.327240 0.860626 0.825500
0.316895 0.886200 0.690765
0.741669 0.920715 0.621643
0.919312 0.903992 0.703186
0.139984 0.406342 0.499451
0.155365 0.392731 0.475525
0.351044 0.421234 0.470673
0.687317 0.456238 0.560883
0.856964 0.512909 0.694855
0.138275 0.424408 0.524567
0.137878 0.451965 0.562134
0.247101 0.448669 0.523224
0.729340 0.431305 0.662781
0.885864 0.516296 0.752594
0.168030 0.493622 0.607574
0.180939 0.533295 0.656647
0.223816 0.575043 0.698761
0.642212 0.513947 0.793701
0.911591 0.575684 0.833527
0.218567 0.593048 0.723999
0.239258 0.630585 0.767365
0.276581 0.653473 0.785400
0.633270 0.732635 0.807098
0.911835 0.716309 0.875702
0.303528 0.716400 0.860199
0.329315 0.746643 0.891815
0.346954 0.780487 0.914734
0.662964 0.842438 0.904877
0.912689 0.925903 0.912628
