cube滤镜(3D LUT)/Mariposite.cube
# Created by: Lutify.me
# Copyright: (c) Copyright Lutify.me 2015
# Website: https://lutify.me
#LUT size
LUT_3D_SIZE 9
#LUT data points
0.029663 0.060913 0.071808
0.064056 0.077332 0.077942
0.140564 0.104767 0.088531
0.231415 0.126251 0.098694
0.325592 0.154968 0.121643
0.432312 0.177521 0.156769
0.534576 0.201691 0.191772
0.633606 0.230957 0.219604
0.727051 0.262482 0.240631
0.035004 0.112061 0.069824
0.068848 0.116272 0.077057
0.161896 0.121399 0.079773
0.252625 0.148254 0.094696
0.348236 0.172546 0.122559
0.453308 0.194641 0.155792
0.554108 0.220551 0.185669
0.651611 0.250214 0.211609
0.743073 0.283356 0.232269
0.052460 0.180908 0.066711
0.090637 0.195923 0.074463
0.185516 0.181763 0.078461
0.301056 0.178467 0.082672
0.409790 0.210083 0.126556
0.511230 0.243103 0.156464
0.609955 0.281067 0.178040
0.705811 0.324951 0.193634
0.785187 0.360779 0.203491
0.079498 0.244293 0.079926
0.109100 0.266113 0.082336
0.209198 0.259247 0.106293
0.338104 0.250610 0.096008
0.469421 0.250488 0.111450
0.582672 0.286713 0.150574
0.677490 0.326813 0.166718
0.771637 0.374573 0.162903
0.839233 0.414642 0.145813
0.101410 0.305328 0.095428
0.140106 0.328369 0.098358
0.250488 0.344879 0.114502
0.397980 0.373810 0.107361
0.531921 0.356140 0.104279
0.636688 0.347992 0.109009
0.730164 0.376587 0.122437
0.827148 0.426910 0.118713
0.868591 0.464508 0.120667
0.134766 0.375031 0.113739
0.182068 0.395721 0.116913
0.290161 0.414124 0.131653
0.416504 0.449524 0.129425
0.557892 0.499390 0.139221
0.684021 0.493744 0.139221
0.773529 0.469482 0.124573
0.858429 0.485901 0.125153
0.879181 0.506897 0.129608
0.167847 0.441223 0.139832
0.214417 0.460419 0.143799
0.321869 0.476593 0.157166
0.440735 0.513611 0.159332
0.580841 0.582855 0.165527
0.684448 0.636749 0.180298
0.800507 0.644653 0.173126
0.886322 0.591064 0.150879
0.894318 0.577301 0.139221
0.212524 0.532318 0.169922
0.254791 0.569763 0.170258
0.351166 0.587128 0.173553
0.474762 0.640808 0.193176
0.594971 0.690918 0.206696
0.695190 0.729462 0.210663
0.781860 0.765930 0.219727
0.904755 0.769836 0.211334
0.913574 0.712952 0.191376
0.294128 0.737274 0.226105
0.307617 0.757446 0.232025
0.396973 0.784729 0.237305
0.512115 0.798279 0.239563
0.623474 0.812042 0.248230
0.712402 0.824554 0.249207
0.795410 0.839386 0.245453
0.884430 0.878937 0.253723
0.920654 0.851440 0.244110
0.033936 0.086121 0.104309
0.083527 0.095184 0.111969
0.164246 0.108917 0.118439
0.252136 0.118164 0.118164
0.334595 0.141632 0.135559
0.435303 0.169983 0.168457
0.534027 0.198486 0.199127
0.629608 0.226440 0.226105
0.719879 0.254211 0.247375
0.042389 0.108124 0.123627
0.069336 0.114899 0.130737
0.157013 0.143066 0.132538
0.259491 0.161957 0.123810
0.358887 0.173859 0.126312
0.457062 0.189941 0.160187
0.553131 0.213409 0.190247
0.648712 0.242859 0.215729
0.740448 0.275879 0.236115
0.052521 0.190796 0.114075
0.062958 0.206543 0.105530
0.187286 0.193726 0.114990
0.301971 0.191193 0.108459
0.407593 0.217651 0.113251
0.500824 0.246490 0.147308
0.596191 0.279327 0.173828
0.690796 0.311707 0.195435
0.777924 0.344604 0.214020
0.067657 0.249512 0.083527
0.083954 0.275604 0.088776
0.207550 0.275574 0.120941
0.346497 0.266785 0.120453
0.483398 0.260284 0.108765
0.585419 0.295105 0.137817
0.674408 0.333099 0.150238
0.767120 0.380188 0.143799
0.838196 0.423767 0.127808
0.089600 0.303802 0.096832
0.123230 0.346039 0.105499
0.241974 0.358368 0.126495
0.398254 0.384857 0.111450
0.540192 0.373047 0.109100
0.645752 0.361481 0.111786
0.740784 0.387238 0.113007
0.824921 0.437134 0.116943
0.871796 0.475311 0.120453
0.098694 0.352661 0.111603
0.167419 0.411255 0.123871
0.277374 0.422241 0.141968
0.412170 0.454590 0.156189
0.562775 0.509796 0.142792
0.686432 0.506073 0.141052
0.778778 0.480133 0.123566
0.865051 0.496094 0.127655
0.882812 0.520691 0.130951
0.135162 0.436279 0.135529
0.202057 0.458588 0.151855
0.307892 0.477264 0.164368
0.435547 0.514557 0.182587
0.581726 0.590515 0.167572
0.684387 0.640503 0.181519
0.798767 0.646332 0.172821
0.888947 0.597046 0.153229
0.894806 0.583405 0.142761
0.192017 0.544159 0.167175
0.247559 0.578369 0.178223
0.342682 0.601715 0.182220
0.460663 0.625153 0.188507
0.592651 0.696991 0.209503
0.695496 0.734772 0.213043
0.780090 0.764435 0.219269
0.904633 0.767578 0.210388
0.912720 0.714386 0.194397
0.301605 0.753998 0.231567
0.306763 0.765778 0.235443
0.387177 0.781921 0.235931
0.499054 0.804810 0.242371
0.615448 0.820160 0.250397
0.709656 0.832886 0.253082
0.794373 0.846283 0.248718
0.880127 0.877991 0.253418
0.920715 0.856873 0.246002
0.042175 0.123077 0.151337
0.064728 0.128937 0.151459
0.200531 0.140778 0.167419
0.289856 0.154724 0.166473
0.399323 0.173676 0.176819
0.490784 0.187653 0.181244
0.566376 0.210999 0.200867
0.650299 0.236115 0.223969
0.732605 0.262939 0.243439
0.046204 0.128113 0.156647
0.067963 0.149475 0.177887
0.199127 0.160217 0.185425
0.295685 0.170502 0.179565
0.404602 0.181915 0.181976
0.507294 0.193634 0.186218
0.573090 0.216034 0.199036
0.653473 0.238892 0.222321
0.736389 0.265564 0.242950
0.063263 0.182434 0.194824
0.069550 0.199310 0.210876
0.157379 0.212952 0.232269
0.289490 0.233765 0.221161
0.407166 0.233307 0.210571
0.511078 0.227539 0.200775
0.600769 0.240753 0.199768
0.681244 0.279938 0.207214
0.771179 0.316589 0.225250
0.092987 0.300262 0.242706
0.084351 0.291748 0.195099
0.124329 0.320831 0.163452
0.334686 0.301392 0.190582
0.466766 0.293884 0.195831
0.572052 0.323639 0.200287
0.661469 0.354706 0.197296
0.755493 0.386444 0.172485
0.843475 0.429749 0.153442
0.099640 0.349976 0.204498
0.091217 0.333801 0.168671
0.190002 0.386536 0.159637
0.371368 0.400635 0.191101
0.528503 0.401276 0.179077
0.643646 0.381439 0.131592
0.730774 0.408813 0.116638
0.814270 0.455261 0.120789
0.874207 0.494995 0.126373
0.107117 0.379822 0.203400
0.096985 0.359314 0.158234
0.237946 0.445587 0.168091
0.394012 0.462158 0.211578
0.568237 0.529449 0.162994
0.685120 0.526520 0.143707
0.773438 0.490997 0.124634
0.856567 0.509399 0.129517
0.888184 0.542450 0.132751
0.112152 0.394379 0.213531
0.113556 0.413635 0.178955
0.275116 0.494049 0.188599
0.419586 0.518036 0.220581
0.568237 0.591644 0.217621
0.689636 0.652588 0.185486
0.799225 0.649475 0.173004
0.883606 0.598175 0.155731
0.894562 0.592834 0.150330
0.131531 0.469635 0.203949
0.145630 0.522980 0.178741
0.311584 0.635681 0.204437
0.448975 0.646393 0.215607
0.577667 0.692810 0.231476
0.691071 0.741058 0.229614
0.782593 0.769592 0.220825
0.905762 0.764801 0.208862
0.913696 0.717834 0.194092
0.299622 0.749573 0.230133
0.309570 0.772125 0.237518
0.362762 0.796082 0.240234
0.480652 0.809937 0.244171
0.601166 0.831757 0.252899
0.701782 0.844238 0.258667
0.792114 0.856903 0.253632
0.874542 0.877289 0.253265
0.921326 0.865021 0.267670
0.054565 0.166351 0.205383
0.070679 0.167328 0.201141
0.168518 0.175354 0.230927
0.330750 0.198730 0.220520
0.435760 0.208221 0.218201
0.539734 0.224243 0.228882
0.624359 0.246033 0.244904
0.700195 0.261230 0.251343
0.773712 0.283234 0.259766
0.057251 0.170746 0.210327
0.067200 0.187134 0.229034
0.126617 0.202698 0.230621
0.333771 0.212830 0.235138
0.440918 0.220276 0.230835
0.543915 0.234070 0.239227
0.627106 0.254761 0.254120
0.703827 0.268372 0.258698
0.774719 0.292023 0.267273
0.073059 0.195038 0.237457
0.082550 0.216797 0.263428
0.124207 0.243622 0.285309
0.328278 0.254730 0.276093
0.443695 0.260437 0.270508
0.543762 0.264313 0.268097
0.627869 0.274689 0.272156
0.709778 0.287781 0.275116
0.778381 0.312897 0.284729
0.094971 0.266449 0.285583
0.101471 0.292358 0.305511
0.119263 0.318756 0.336121
0.280518 0.336243 0.355652
0.437531 0.349396 0.343536
0.552338 0.358521 0.339142
0.642731 0.360291 0.333191
0.731628 0.377869 0.330444
0.810516 0.409515 0.337463
0.130341 0.390503 0.350952
0.140808 0.422638 0.362762
0.132385 0.411835 0.323364
0.275787 0.433197 0.279633
0.502533 0.442932 0.300385
0.615692 0.434326 0.324066
0.708252 0.469452 0.333313
0.793579 0.504730 0.333221
0.863220 0.530151 0.335022
0.160309 0.487823 0.378021
0.143524 0.454834 0.324799
0.134277 0.439941 0.286560
0.338776 0.495483 0.266388
0.534363 0.541748 0.293091
0.667664 0.550385 0.272095
0.758942 0.517365 0.285400
0.839783 0.548340 0.287445
0.886139 0.579498 0.300842
0.156372 0.490967 0.347778
0.144806 0.465057 0.315979
0.151489 0.467712 0.274628
0.379791 0.539978 0.268463
0.541595 0.586761 0.303192
0.687378 0.663208 0.285309
0.793793 0.660919 0.218506
0.875793 0.609253 0.219269
0.898163 0.622070 0.254913
0.173279 0.559143 0.339386
0.164276 0.545898 0.300201
0.161194 0.563477 0.234100
0.401642 0.689331 0.259247
0.559265 0.703003 0.294922
0.678864 0.745178 0.320831
0.786896 0.779968 0.306854
0.902893 0.764404 0.209167
0.910065 0.721222 0.295563
0.229767 0.783905 0.270996
0.261475 0.782104 0.248474
0.306366 0.799744 0.248932
0.450592 0.910919 0.278412
0.589569 0.892426 0.285522
0.694458 0.868103 0.326599
0.787018 0.868408 0.338776
0.872955 0.881042 0.347626
0.923126 0.873779 0.346558
0.070251 0.212830 0.262604
0.077332 0.210083 0.256439
0.128326 0.226379 0.260956
0.310822 0.241821 0.270355
0.483856 0.246765 0.251343
0.572449 0.255280 0.256104
0.646606 0.274902 0.269379
0.719238 0.301819 0.287262
0.780060 0.338501 0.314636
0.071564 0.217560 0.268555
0.075897 0.229187 0.282715
0.122955 0.236816 0.276825
0.313690 0.248383 0.286652
0.483276 0.258942 0.266113
0.571808 0.264465 0.267822
0.648865 0.286102 0.282806
0.723511 0.313171 0.301239
0.779938 0.348358 0.328400
0.082306 0.230621 0.282288
0.090363 0.250183 0.305847
0.119415 0.280426 0.336731
0.264709 0.270386 0.347321
0.482513 0.294189 0.308289
0.567871 0.296906 0.304260
0.650299 0.315308 0.316833
0.727081 0.338959 0.333069
0.781219 0.369537 0.354858
0.105774 0.270599 0.327850
0.118958 0.298065 0.359894
0.130707 0.325531 0.393280
0.226318 0.361633 0.409088
0.471252 0.366272 0.384979
0.573975 0.375671 0.385315
0.656464 0.381927 0.384735
0.733673 0.383942 0.378571
0.789062 0.413147 0.399628
0.134644 0.356384 0.389435
0.142883 0.384277 0.408783
0.156281 0.416138 0.441986
0.230988 0.450531 0.484283
0.444092 0.471161 0.480621
0.578125 0.489563 0.489288
0.683197 0.507355 0.490204
0.765442 0.513794 0.477631
0.828979 0.529205 0.478027
0.170746 0.485779 0.464325
0.181366 0.516357 0.474854
0.195587 0.552490 0.503845
0.210266 0.537323 0.468933
0.462006 0.552643 0.432312
0.643311 0.582092 0.424255
0.736206 0.580719 0.465424
0.818970 0.614227 0.476685
0.876556 0.635437 0.487274
0.220215 0.615662 0.552063
0.210449 0.598969 0.513794
0.192780 0.563202 0.459412
0.231934 0.550171 0.420410
0.503387 0.596893 0.404022
0.660370 0.662445 0.426666
0.778442 0.682678 0.376129
0.859741 0.644928 0.419922
0.898682 0.669586 0.436890
0.228546 0.662201 0.517883
0.212372 0.640350 0.453552
0.203583 0.632324 0.410278
0.225891 0.691437 0.335938
0.514191 0.737823 0.363068
0.660858 0.748535 0.414673
0.778076 0.785675 0.431274
0.891968 0.774475 0.329193
0.907928 0.736450 0.432922
0.259277 0.817596 0.434845
0.253967 0.816772 0.397308
0.250519 0.826019 0.348846
0.267700 0.839355 0.269806
0.537811 0.916931 0.359375
0.676636 0.904541 0.394745
0.779114 0.878357 0.439789
0.877014 0.889038 0.445312
0.923248 0.882935 0.454498
0.086121 0.256439 0.315887
0.085785 0.251862 0.309845
0.130890 0.256348 0.300354
0.315918 0.262909 0.326721
0.455078 0.290955 0.299408
0.605347 0.294891 0.275757
0.675568 0.311340 0.286133
0.732269 0.332336 0.313995
0.776337 0.377655 0.375244
0.086548 0.262207 0.323578
0.089905 0.270355 0.333374
0.126312 0.272217 0.323334
0.268250 0.271332 0.348297
0.450500 0.302856 0.317719
0.604370 0.304657 0.290436
0.673737 0.320892 0.304077
0.733246 0.343323 0.335388
0.775452 0.392212 0.397186
0.093689 0.267548 0.328156
0.099060 0.282684 0.346710
0.111328 0.310394 0.379974
0.196533 0.320923 0.364899
0.441803 0.332520 0.360809
0.599518 0.332214 0.330017
0.666168 0.346527 0.348663
0.731537 0.371979 0.380737
0.776764 0.429626 0.447632
0.113586 0.304688 0.371216
0.125732 0.331177 0.402740
0.132416 0.353729 0.430908
0.201630 0.391174 0.457703
0.452972 0.367828 0.446716
0.596985 0.399017 0.425812
0.669678 0.417236 0.442139
0.741699 0.439484 0.467316
0.789124 0.478088 0.502106
0.142426 0.354950 0.428864
0.157837 0.385376 0.464417
0.170135 0.416748 0.502472
0.222321 0.450317 0.529816
0.364471 0.495178 0.541382
0.599304 0.495880 0.532501
0.688538 0.518066 0.546631
0.763275 0.523010 0.543762
0.808929 0.539795 0.552094
0.181488 0.451843 0.508362
0.187866 0.474854 0.521088
0.201477 0.506195 0.553711
0.222565 0.540131 0.597595
0.382263 0.574402 0.634399
0.596222 0.607147 0.610992
0.705383 0.621948 0.622223
0.794037 0.632263 0.617920
0.847839 0.643219 0.621735
0.212799 0.577576 0.592377
0.221649 0.605347 0.604095
0.235657 0.640747 0.626007
0.248047 0.670105 0.655457
0.343781 0.647003 0.611694
0.626434 0.660980 0.575378
0.766754 0.707947 0.542389
0.842896 0.704895 0.594666
0.891724 0.732147 0.624207
0.263885 0.709259 0.685547
0.272766 0.732178 0.698395
0.267181 0.729645 0.655670
0.252808 0.715759 0.580322
0.332245 0.751556 0.510559
0.638245 0.770050 0.508118
0.767151 0.788055 0.542358
0.880859 0.791840 0.468933
0.903320 0.764984 0.585419
0.310089 0.849030 0.714050
0.298737 0.849243 0.640747
0.287140 0.854797 0.557343
0.280212 0.860535 0.499573
0.326630 0.930389 0.379272
0.645813 0.916321 0.480164
0.773529 0.902832 0.518555
0.877014 0.898834 0.528625
0.918213 0.892303 0.616516
0.101044 0.298401 0.367310
0.101898 0.294159 0.361267
0.139069 0.294159 0.348419
0.228485 0.315948 0.351532
0.441559 0.335266 0.345795
0.584076 0.339844 0.328308
0.689850 0.353546 0.349182
0.741974 0.376343 0.386749
0.773651 0.423584 0.448120
0.101166 0.306335 0.378082
0.104156 0.312408 0.385193
0.129486 0.308350 0.370880
0.203888 0.323212 0.365326
0.432220 0.343903 0.365112
0.577209 0.347870 0.351868
0.686249 0.364380 0.372925
0.741241 0.391479 0.413269
0.775085 0.437134 0.472839
0.107300 0.311035 0.382202
0.110870 0.323212 0.397339
0.112762 0.344147 0.425049
0.185455 0.353424 0.412476
0.439240 0.351318 0.412567
0.566315 0.379608 0.412689
0.682434 0.397552 0.435760
0.740082 0.417786 0.462769
0.782379 0.465515 0.519867
0.124542 0.344727 0.421539
0.134430 0.369415 0.451385
0.136017 0.381836 0.467682
0.171295 0.416016 0.501892
0.344025 0.395416 0.482056
0.583252 0.417725 0.497955
0.691376 0.446808 0.517792
0.749756 0.468689 0.533630
0.798431 0.513428 0.582184
0.147369 0.391418 0.476532
0.160248 0.420502 0.511230
0.169159 0.446503 0.543213
0.197296 0.473083 0.569489
0.314087 0.523499 0.597473
0.599945 0.470978 0.626099
0.721832 0.514709 0.604248
0.772217 0.548645 0.615326
0.812683 0.587830 0.648041
0.181671 0.455078 0.550293
0.198029 0.486359 0.586761
0.209656 0.512512 0.617981
0.217621 0.536224 0.647186
0.339355 0.574310 0.656586
0.529449 0.617157 0.667450
0.729218 0.615845 0.675964
0.786499 0.642792 0.684967
0.831818 0.661377 0.696472
0.232727 0.545715 0.640045
0.238068 0.564697 0.648865
0.248383 0.588898 0.672729
0.262177 0.616669 0.706177
0.352905 0.648956 0.739319
0.544373 0.693207 0.744995
0.723297 0.727814 0.731903
0.810486 0.735321 0.737640
0.869690 0.743500 0.740662
0.273468 0.657349 0.726990
0.278168 0.683258 0.734680
0.284454 0.714355 0.750305
0.287201 0.755859 0.772217
0.301178 0.786102 0.784454
0.477997 0.791382 0.709503
0.750641 0.801758 0.678192
0.864716 0.812195 0.660980
0.906067 0.810120 0.714172
0.305023 0.797394 0.811401
0.314453 0.825562 0.819336
0.327240 0.860626 0.825500
0.327728 0.878265 0.780243
0.316895 0.886200 0.690765
0.496033 0.922943 0.607880
0.741669 0.920715 0.621643
0.862122 0.907318 0.638031
0.919312 0.903992 0.703186
0.119568 0.347839 0.427643
0.121368 0.343048 0.420471
0.146667 0.339569 0.406921
0.220032 0.350281 0.395966
0.424438 0.381805 0.399323
0.562805 0.398163 0.421417
0.669647 0.416565 0.456757
0.757446 0.441711 0.511047
0.792023 0.482941 0.568726
0.117859 0.357483 0.441254
0.120270 0.362000 0.446503
0.132751 0.354462 0.431946
0.199249 0.356659 0.411865
0.431702 0.371735 0.422333
0.558929 0.405212 0.447266
0.670471 0.424530 0.483124
0.762329 0.448547 0.536469
0.801514 0.487823 0.587494
0.122528 0.362610 0.446533
0.123749 0.372742 0.459839
0.123138 0.390808 0.484589
0.176941 0.392914 0.468719
0.334839 0.377441 0.469208
0.576782 0.401825 0.500977
0.684540 0.431274 0.528809
0.786957 0.453857 0.579529
0.817902 0.498230 0.615784
0.135834 0.391266 0.480560
0.142853 0.412659 0.506989
0.139832 0.416809 0.513733
0.146454 0.447052 0.552521
0.252838 0.461151 0.543182
0.579376 0.405609 0.625519
0.715820 0.445190 0.607086
0.818176 0.474396 0.641510
0.833160 0.530762 0.656860
0.155243 0.438324 0.537262
0.167297 0.468048 0.573212
0.173462 0.488037 0.597992
0.172729 0.497803 0.611572
0.257477 0.544647 0.645935
0.453461 0.505829 0.654541
0.737183 0.495636 0.711792
0.842041 0.528351 0.711975
0.847443 0.591034 0.709198
0.182465 0.494781 0.603821
0.196625 0.523834 0.638092
0.205780 0.544678 0.662994
0.210449 0.561035 0.683441
0.288452 0.588043 0.693115
0.451111 0.638153 0.714539
0.723389 0.586121 0.763733
0.840973 0.615936 0.756714
0.857086 0.665375 0.755310
0.219727 0.560242 0.678986
0.235291 0.586365 0.708801
0.244293 0.603821 0.729156
0.248962 0.616882 0.745178
0.308350 0.638763 0.754181
0.469849 0.683807 0.759003
0.685120 0.724792 0.768921
0.830688 0.721802 0.793304
0.863739 0.750336 0.800934
0.274078 0.639435 0.766541
0.285339 0.651855 0.779205
0.295441 0.669189 0.794952
0.303650 0.690430 0.812012
0.319794 0.714050 0.830322
0.486176 0.750244 0.841980
0.688812 0.795166 0.832123
0.828827 0.830109 0.829865
0.896393 0.840546 0.837952
0.320862 0.734375 0.848450
0.325195 0.758087 0.852356
0.330566 0.784698 0.860352
0.335602 0.817566 0.868256
0.333496 0.857788 0.881073
0.431335 0.893036 0.879059
0.648254 0.916992 0.811432
0.846283 0.925842 0.781097
0.919952 0.917419 0.810333
0.139984 0.406342 0.499451
0.142883 0.400269 0.490143
0.155365 0.392731 0.475525
0.219910 0.392273 0.452515
0.351044 0.421234 0.470673
0.579346 0.434296 0.519775
0.687317 0.456238 0.560883
0.797760 0.470490 0.621765
0.856964 0.512909 0.694855
0.137451 0.418396 0.516724
0.138733 0.421234 0.520111
0.144196 0.410583 0.503693
0.203186 0.406647 0.477844
0.303101 0.428040 0.491150
0.597565 0.415802 0.568848
0.705383 0.447388 0.592621
0.812561 0.465302 0.647736
0.868195 0.512848 0.716156
0.138275 0.424408 0.524567
0.137634 0.433380 0.537048
0.137878 0.451965 0.562134
0.170593 0.450012 0.548065
0.247101 0.448669 0.523224
0.539825 0.410614 0.643860
0.729340 0.431305 0.662781
0.835236 0.458923 0.697876
0.885864 0.516296 0.752594
0.146698 0.441254 0.544373
0.152100 0.462128 0.570618
0.146790 0.463837 0.574951
0.145538 0.495667 0.618530
0.221466 0.512421 0.615234
0.408569 0.459656 0.653137
0.709869 0.447113 0.747925
0.851349 0.470398 0.764252
0.900909 0.535492 0.794617
0.168030 0.493622 0.607574
0.178314 0.519409 0.638824
0.180939 0.533295 0.656647
0.173920 0.531158 0.656342
0.223816 0.575043 0.698761
0.358185 0.560303 0.715515
0.642212 0.513947 0.793701
0.843414 0.525238 0.818481
0.911591 0.575684 0.833527
0.191406 0.542084 0.664825
0.203308 0.568024 0.695618
0.209991 0.585083 0.716309
0.211609 0.595062 0.729309
0.255890 0.608673 0.732483
0.382721 0.659393 0.757385
0.612915 0.608734 0.819763
0.836670 0.606476 0.840332
0.913971 0.636383 0.858551
0.218567 0.593048 0.723999
0.231598 0.615631 0.749878
0.239258 0.630585 0.767365
0.243195 0.640503 0.779388
0.276581 0.653473 0.785400
0.409698 0.690857 0.789795
0.633270 0.732635 0.807098
0.831635 0.700165 0.861603
0.911835 0.716309 0.875702
0.254883 0.648682 0.786194
0.267120 0.667786 0.807556
0.276520 0.682831 0.824524
0.281891 0.691711 0.834595
0.294312 0.701416 0.843353
0.432495 0.733337 0.838623
0.633270 0.783295 0.836151
0.809753 0.831696 0.863464
0.903229 0.823425 0.890381
0.303528 0.716400 0.860199
0.318115 0.733856 0.878479
0.329315 0.746643 0.891815
0.341187 0.760620 0.906342
0.346954 0.780487 0.914734
0.447296 0.805847 0.923737
0.662964 0.842438 0.904877
0.806488 0.891632 0.910187
0.912689 0.925903 0.912628
