cube滤镜(3D LUT)/Marston Marble.cube
# Created by: Lutify.me
# Copyright: (c) Copyright Lutify.me 2015
# Website: https://lutify.me
#LUT size
LUT_3D_SIZE 5
#LUT data points
0.000000 0.000000 0.000000
0.182159 0.016327 0.016052
0.481415 0.055939 0.035858
0.728485 0.098846 0.046661
0.948944 0.130188 0.057312
0.067871 0.205444 0.103271
0.128967 0.149017 0.064270
0.478424 0.193695 0.016052
0.719879 0.223053 0.035858
0.948944 0.251709 0.050262
0.208374 0.542542 0.266113
0.224518 0.542511 0.263824
0.481476 0.398987 0.147369
0.745697 0.494385 0.058167
0.948944 0.487732 0.000000
0.311340 0.794800 0.372742
0.355225 0.797028 0.377899
0.572144 0.765778 0.151337
0.741791 0.635803 0.245422
0.938568 0.690735 0.198883
0.388733 0.952484 0.450439
0.434143 0.952484 0.450439
0.434753 0.952484 0.390442
0.867157 0.949493 0.342987
0.929779 0.800568 0.332550
0.032593 0.084259 0.222076
0.127594 0.001404 0.249054
0.490540 0.022736 0.173462
0.756683 0.037140 0.108002
0.948944 0.048706 0.114624
0.010223 0.201752 0.249054
0.133698 0.209106 0.256744
0.482941 0.231110 0.197113
0.730042 0.271606 0.197906
0.948944 0.303253 0.194763
0.159363 0.532898 0.159149
0.213837 0.538086 0.181396
0.485962 0.459595 0.299286
0.729248 0.489197 0.201813
0.948944 0.476624 0.180603
0.271332 0.785889 0.309845
0.333099 0.790344 0.347260
0.473877 0.774719 0.285583
0.746490 0.677368 0.374023
0.942535 0.735321 0.290192
0.353912 0.952484 0.412323
0.416168 0.952484 0.440094
0.294952 0.952484 0.460480
0.829102 0.949493 0.378418
0.932983 0.835541 0.445160
0.092773 0.240143 0.500793
0.097260 0.091522 0.517334
0.493530 0.000000 0.558136
0.755890 0.014893 0.535980
0.945740 0.031403 0.468964
0.072418 0.360779 0.536713
0.184265 0.362976 0.522339
0.491272 0.199554 0.554565
0.756683 0.198090 0.511566
0.945740 0.202484 0.439148
0.000885 0.521759 0.555298
0.129639 0.520294 0.552429
0.485962 0.527710 0.563843
0.728485 0.520294 0.507263
0.948944 0.552887 0.510834
0.128418 0.769501 0.548859
0.174469 0.771729 0.545990
0.412262 0.779907 0.492096
0.752777 0.722656 0.588745
0.948944 0.752411 0.523804
0.225403 0.952484 0.523743
0.290710 0.952484 0.511566
0.298584 0.952484 0.403259
0.759064 0.952484 0.501465
0.936157 0.876465 0.626312
0.142090 0.376465 0.720154
0.166779 0.266632 0.715973
0.488220 0.000000 0.781982
0.755890 0.000000 0.781311
0.945740 0.000000 0.781311
0.118927 0.505676 0.749390
0.237366 0.499023 0.736908
0.459534 0.203247 0.775787
0.757477 0.196625 0.782684
0.945740 0.199554 0.780609
0.065277 0.610718 0.773010
0.208893 0.624115 0.768127
0.520172 0.639679 0.757050
0.755890 0.521027 0.781311
0.945740 0.521027 0.754974
0.000000 0.764282 0.781311
0.131653 0.765045 0.781982
0.492035 0.765778 0.781982
0.746490 0.769501 0.787537
0.948944 0.778412 0.771606
0.082886 0.952484 0.781311
0.103302 0.952484 0.779907
0.444489 0.952484 0.775085
0.708160 0.952484 0.738983
0.942535 0.916718 0.802795
0.185791 0.486633 0.888489
0.203217 0.352081 0.872070
0.428741 0.037140 0.947174
0.752777 0.000000 0.956757
0.945740 0.000000 0.956757
0.171844 0.613159 0.913147
0.286346 0.603516 0.902191
0.283264 0.309875 0.891937
0.753571 0.199554 0.956757
0.945740 0.198822 0.956757
0.133179 0.707245 0.936310
0.284180 0.719147 0.929504
0.554474 0.729523 0.915833
0.751190 0.522522 0.953339
0.945740 0.520294 0.956757
0.057587 0.808197 0.951294
0.201813 0.816376 0.949249
0.538452 0.834229 0.943787
0.772400 0.843903 0.932892
0.945740 0.764282 0.956757
0.000000 0.952484 0.956757
0.131653 0.952484 0.956757
0.493530 0.952484 0.956757
0.758240 0.952484 0.956757
0.948944 0.952484 0.956757
