cube滤镜(3D LUT)/Marston Marble.cube
# Created by: Lutify.me
# Copyright: (c) Copyright Lutify.me 2015
# Website: https://lutify.me
#LUT size
LUT_3D_SIZE 9
#LUT data points
0.000000 0.000000 0.000000
0.041412 0.000000 0.004150
0.182159 0.016327 0.016052
0.333008 0.030304 0.027100
0.481415 0.055939 0.035858
0.606628 0.075897 0.043121
0.728485 0.098846 0.046661
0.872986 0.118866 0.053772
0.948944 0.130188 0.057312
0.018799 0.074738 0.034943
0.026733 0.059113 0.028503
0.178986 0.080536 0.009033
0.344788 0.103455 0.020935
0.475403 0.120636 0.030823
0.595856 0.137787 0.037689
0.718689 0.154602 0.044464
0.869843 0.175079 0.053772
0.948944 0.183899 0.057312
0.067871 0.205444 0.103271
0.087067 0.205444 0.095734
0.128967 0.149017 0.064270
0.319092 0.187103 0.026123
0.478424 0.193695 0.016052
0.597412 0.205811 0.027100
0.719879 0.223053 0.035858
0.865906 0.241425 0.044464
0.948944 0.251709 0.050262
0.137268 0.374725 0.187103
0.160645 0.374725 0.187103
0.127563 0.368439 0.163361
0.301910 0.265991 0.106964
0.481415 0.312744 0.079712
0.616669 0.342224 0.008453
0.727692 0.331512 0.006378
0.863464 0.333008 0.022827
0.948944 0.340729 0.029877
0.208374 0.542542 0.266113
0.233521 0.543640 0.267242
0.224518 0.542511 0.263824
0.406006 0.521393 0.109009
0.481476 0.398987 0.147369
0.624756 0.437775 0.130371
0.745697 0.494385 0.058167
0.871796 0.494019 0.000000
0.948944 0.487732 0.000000
0.264862 0.675964 0.325836
0.289368 0.675964 0.325836
0.299072 0.674835 0.325836
0.307892 0.662231 0.273712
0.596741 0.644775 0.205933
0.623230 0.522797 0.194183
0.742950 0.552063 0.178040
0.875732 0.619904 0.099457
0.945740 0.631439 0.054565
0.311340 0.794800 0.372742
0.336151 0.794800 0.372742
0.355225 0.797028 0.377899
0.187286 0.787018 0.362701
0.572144 0.765778 0.151337
0.728180 0.749084 0.273346
0.741791 0.635803 0.245422
0.865875 0.660278 0.225372
0.938568 0.690735 0.198883
0.363159 0.916779 0.425323
0.390137 0.918640 0.427155
0.408356 0.919434 0.428253
0.324219 0.914917 0.429352
0.489777 0.895203 0.336273
0.723511 0.886261 0.163605
0.850525 0.862427 0.338867
0.865875 0.743744 0.306274
0.926605 0.737793 0.304016
0.388733 0.952484 0.450439
0.413971 0.952484 0.450439
0.434143 0.952484 0.450439
0.372131 0.952484 0.453400
0.434753 0.952484 0.390442
0.703186 0.952484 0.166626
0.867157 0.949493 0.342987
0.908752 0.851532 0.352692
0.929779 0.800568 0.332550
0.009949 0.027771 0.108093
0.032166 0.028107 0.111816
0.131653 0.002808 0.105164
0.308838 0.015961 0.058929
0.489746 0.019196 0.065887
0.623230 0.032104 0.076172
0.745697 0.061401 0.080475
0.875732 0.086792 0.086395
0.948944 0.095581 0.089752
0.008301 0.080536 0.117981
0.034607 0.083435 0.121216
0.175140 0.087433 0.092255
0.333008 0.111877 0.085114
0.481812 0.135590 0.084259
0.605072 0.152771 0.080872
0.727692 0.172546 0.077911
0.870636 0.193390 0.071930
0.948944 0.207001 0.071472
0.044617 0.199188 0.098938
0.066467 0.200287 0.099365
0.123840 0.177582 0.120789
0.332672 0.191132 0.091858
0.476135 0.201385 0.078766
0.597015 0.218658 0.077911
0.721069 0.236298 0.071045
0.866272 0.256866 0.060669
0.948944 0.266083 0.061554
0.121613 0.371735 0.166412
0.144745 0.371735 0.167206
0.136780 0.371735 0.188568
0.303741 0.297638 0.165649
0.484497 0.338898 0.120392
0.606232 0.331512 0.091003
0.719086 0.329315 0.081696
0.866272 0.342590 0.077454
0.948944 0.351074 0.074463
0.196014 0.538086 0.259521
0.219971 0.539551 0.261047
0.236267 0.540314 0.281616
0.351074 0.525482 0.178711
0.484467 0.429626 0.202301
0.627899 0.471069 0.168427
0.739044 0.498810 0.106018
0.868652 0.485504 0.090576
0.948944 0.479218 0.085541
0.253326 0.673340 0.323090
0.276306 0.671875 0.323090
0.300171 0.675964 0.343292
0.219452 0.668152 0.325714
0.578247 0.647766 0.227203
0.623230 0.549072 0.244537
0.746094 0.582092 0.215576
0.874939 0.631409 0.127808
0.948944 0.634369 0.104767
0.301819 0.792542 0.375580
0.326965 0.792175 0.375580
0.352234 0.794800 0.394379
0.240845 0.792542 0.395508
0.534637 0.768036 0.230621
0.720367 0.756866 0.305054
0.746887 0.658051 0.296753
0.871002 0.685913 0.261414
0.939362 0.711884 0.227173
0.354279 0.918640 0.430298
0.379395 0.914551 0.429932
0.405731 0.916779 0.446350
0.343292 0.915314 0.451111
0.435486 0.902649 0.388855
0.695404 0.887024 0.169586
0.848907 0.874329 0.373352
0.866272 0.761261 0.352203
0.929779 0.758270 0.349609
0.377228 0.952484 0.455109
0.402405 0.952484 0.455109
0.433380 0.952484 0.469604
0.378845 0.952484 0.475006
0.377686 0.952484 0.431427
0.667816 0.952484 0.266266
0.851318 0.949493 0.352570
0.908752 0.868652 0.394775
0.929779 0.818024 0.377777
0.032593 0.084259 0.222076
0.049255 0.067566 0.229828
0.127594 0.001404 0.249054
0.309937 0.008087 0.234436
0.490540 0.022736 0.173462
0.634460 0.031403 0.118683
0.756683 0.037140 0.108002
0.880920 0.028137 0.114624
0.948944 0.048706 0.114624
0.030731 0.140686 0.238312
0.051788 0.135223 0.234436
0.121460 0.073242 0.246765
0.307373 0.072174 0.226318
0.488617 0.069244 0.162720
0.630554 0.080536 0.121552
0.746094 0.111877 0.113373
0.878571 0.149109 0.115814
0.948944 0.161194 0.116211
0.010223 0.201752 0.249054
0.030029 0.202850 0.249817
0.133698 0.209106 0.256744
0.331940 0.206543 0.199860
0.482941 0.231110 0.197113
0.606628 0.250641 0.196320
0.730042 0.271606 0.197906
0.870239 0.291473 0.196320
0.948944 0.303253 0.194763
0.076691 0.365479 0.236359
0.097321 0.365479 0.240234
0.116394 0.362152 0.259766
0.307739 0.337402 0.271606
0.479919 0.334473 0.201416
0.595459 0.329681 0.181366
0.718323 0.342224 0.181793
0.865479 0.361786 0.180969
0.948944 0.371368 0.179810
0.159363 0.532898 0.159149
0.183990 0.534363 0.157166
0.213837 0.538086 0.181396
0.258484 0.535492 0.212769
0.485962 0.459595 0.299286
0.625153 0.496979 0.246765
0.729248 0.489197 0.201813
0.865875 0.477356 0.183350
0.948944 0.476624 0.180603
0.220428 0.667053 0.228210
0.244598 0.667786 0.229401
0.280548 0.672974 0.279236
0.153900 0.672974 0.320740
0.540741 0.650726 0.258209
0.626312 0.575409 0.335358
0.749207 0.611755 0.297394
0.874542 0.632904 0.217773
0.948944 0.626221 0.206116
0.271332 0.785889 0.309845
0.295898 0.786285 0.310211
0.333099 0.790344 0.347260
0.256287 0.791809 0.382874
0.473877 0.774719 0.285583
0.701599 0.762085 0.359161
0.746490 0.677368 0.374023
0.872192 0.710052 0.336456
0.942535 0.735321 0.290192
0.327789 0.912323 0.382111
0.353058 0.912689 0.381744
0.391174 0.916412 0.412659
0.342560 0.915283 0.443359
0.359833 0.908234 0.423309
0.658844 0.890747 0.213531
0.835846 0.878815 0.419617
0.871796 0.781311 0.425110
0.931793 0.778351 0.418152
0.353912 0.952484 0.412323
0.376801 0.952484 0.410461
0.416168 0.952484 0.440094
0.375824 0.952484 0.468842
0.294952 0.952484 0.460480
0.628265 0.952484 0.316925
0.829102 0.949493 0.378418
0.911957 0.886536 0.457184
0.932983 0.835541 0.445160
0.062073 0.160919 0.363922
0.071991 0.115967 0.367218
0.091614 0.031769 0.396393
0.307373 0.000000 0.407043
0.492035 0.008087 0.401550
0.634460 0.022034 0.359039
0.755890 0.031403 0.307098
0.879364 0.040009 0.249298
0.948944 0.041107 0.225739
0.059479 0.220581 0.378693
0.082458 0.212158 0.372772
0.105957 0.124634 0.381653
0.308105 0.074005 0.407440
0.492432 0.073639 0.396027
0.633667 0.069977 0.344177
0.757477 0.069977 0.290863
0.880524 0.069244 0.236206
0.948944 0.070740 0.213745
0.048401 0.271973 0.395660
0.067139 0.276367 0.393494
0.150848 0.274536 0.376862
0.287750 0.206543 0.399323
0.492432 0.198456 0.376129
0.633667 0.198822 0.324371
0.753571 0.201385 0.278717
0.878571 0.223419 0.256622
0.948944 0.234436 0.252441
0.004578 0.362915 0.405212
0.023743 0.362915 0.405212
0.151917 0.363281 0.412567
0.302307 0.369904 0.415131
0.481415 0.352539 0.348267
0.606628 0.371002 0.344971
0.728485 0.392059 0.347534
0.870209 0.414581 0.346802
0.948944 0.423096 0.346802
0.082886 0.525482 0.401550
0.103027 0.525116 0.404846
0.112640 0.524750 0.398621
0.347748 0.512177 0.483887
0.483734 0.508087 0.449829
0.608551 0.488098 0.353851
0.718323 0.475891 0.327759
0.866272 0.489563 0.327026
0.948944 0.498444 0.327026
0.154144 0.659241 0.383118
0.177338 0.658875 0.383850
0.209961 0.661499 0.370941
0.152527 0.668152 0.313843
0.479156 0.658142 0.338531
0.629425 0.602478 0.451996
0.747284 0.633636 0.400452
0.867859 0.622131 0.346802
0.948944 0.617676 0.334473
0.211182 0.778076 0.346771
0.234955 0.778412 0.348267
0.274780 0.781036 0.320953
0.218414 0.785889 0.232025
0.403656 0.782898 0.223877
0.670471 0.763550 0.430115
0.748840 0.699249 0.479919
0.874176 0.737213 0.434540
0.945740 0.752411 0.394562
0.271332 0.903412 0.274078
0.295532 0.901917 0.275208
0.339722 0.907501 0.235107
0.315796 0.911957 0.288208
0.320862 0.908630 0.348267
0.604706 0.897064 0.223053
0.815704 0.884003 0.487152
0.872589 0.800659 0.515991
0.934570 0.801788 0.508057
0.297821 0.952484 0.239746
0.322540 0.952484 0.241669
0.368164 0.952484 0.231262
0.346649 0.952484 0.329224
0.269592 0.952484 0.391632
0.569336 0.952484 0.314941
0.803864 0.952484 0.435974
0.912354 0.901794 0.542145
0.932983 0.856018 0.532135
0.092773 0.240143 0.500793
0.099701 0.177765 0.498993
0.097260 0.091522 0.517334
0.306305 0.002106 0.556000
0.493530 0.000000 0.558136
0.634460 0.002441 0.556335
0.755890 0.014893 0.535980
0.882111 0.027069 0.493927
0.945740 0.031403 0.468964
0.086487 0.304810 0.516602
0.116455 0.295227 0.511597
0.135406 0.229034 0.509430
0.307770 0.074371 0.556335
0.492035 0.072906 0.556732
0.633667 0.074005 0.556000
0.755890 0.072906 0.527008
0.881317 0.072906 0.479095
0.945740 0.071808 0.451904
0.072418 0.360779 0.536713
0.101013 0.362640 0.529877
0.184265 0.362976 0.522339
0.265320 0.212402 0.539551
0.491272 0.199554 0.554565
0.633270 0.198456 0.549561
0.756683 0.198090 0.511566
0.880920 0.201385 0.456604
0.945740 0.202484 0.439148
0.050934 0.419037 0.548492
0.072021 0.424561 0.549561
0.167480 0.433807 0.546692
0.307739 0.421997 0.508331
0.408905 0.378754 0.528809
0.633270 0.361786 0.531311
0.755890 0.362915 0.490295
0.881317 0.361420 0.443176
0.948944 0.364746 0.428589
0.000885 0.521759 0.555298
0.020172 0.520660 0.553131
0.129639 0.520294 0.552429
0.366577 0.522522 0.567780
0.485962 0.527710 0.563843
0.608551 0.508789 0.514801
0.728485 0.520294 0.507263
0.872192 0.543640 0.509064
0.948944 0.552887 0.510834
0.060455 0.652191 0.555298
0.083771 0.652191 0.553864
0.086639 0.652191 0.555298
0.278290 0.655182 0.553497
0.524323 0.641815 0.628784
0.629822 0.645508 0.596893
0.729248 0.625488 0.515533
0.866669 0.621033 0.499298
0.948944 0.624725 0.496460
0.128418 0.769501 0.548859
0.153015 0.768036 0.548157
0.174469 0.771729 0.545990
0.188080 0.774353 0.535614
0.412262 0.779907 0.492096
0.626709 0.770264 0.516235
0.752777 0.722656 0.588745
0.876526 0.753143 0.540619
0.948944 0.752411 0.523804
0.195312 0.893341 0.534912
0.220703 0.894836 0.533844
0.257812 0.897797 0.528809
0.211700 0.903412 0.499298
0.351746 0.909363 0.443176
0.558960 0.903412 0.412842
0.784180 0.885529 0.558136
0.875336 0.822235 0.616394
0.937347 0.825195 0.606506
0.225403 0.952484 0.523743
0.249634 0.952484 0.526306
0.290710 0.952484 0.511566
0.269257 0.952484 0.475494
0.298584 0.952484 0.403259
0.534149 0.952484 0.360016
0.759064 0.952484 0.501465
0.915527 0.925262 0.630524
0.936157 0.876465 0.626312
0.118927 0.310822 0.619141
0.128662 0.246063 0.612030
0.138123 0.200867 0.621948
0.281952 0.029938 0.671600
0.490509 0.000000 0.675507
0.634460 0.000000 0.677246
0.756683 0.000000 0.678284
0.882111 0.010590 0.667725
0.945740 0.015961 0.653320
0.110138 0.381165 0.635742
0.144745 0.367126 0.627594
0.161591 0.297089 0.617706
0.217377 0.099457 0.655792
0.490509 0.071808 0.675507
0.631714 0.072174 0.674438
0.755890 0.072540 0.677582
0.880920 0.073639 0.661774
0.945740 0.076538 0.649475
0.094421 0.436127 0.649475
0.132782 0.438751 0.645966
0.212097 0.436127 0.638885
0.235474 0.319824 0.627625
0.490143 0.197357 0.674438
0.634460 0.199554 0.675507
0.756683 0.198456 0.674438
0.882111 0.201752 0.652283
0.945740 0.201385 0.634338
0.070129 0.491852 0.664246
0.105377 0.496674 0.662109
0.202515 0.506714 0.658264
0.347748 0.508545 0.648071
0.469360 0.367676 0.669159
0.632507 0.360687 0.675507
0.757477 0.362518 0.668427
0.880920 0.364014 0.633270
0.945740 0.365112 0.612396
0.042114 0.556213 0.673004
0.063263 0.559204 0.672668
0.164001 0.565125 0.671265
0.342957 0.576630 0.668091
0.481842 0.566986 0.638916
0.564758 0.538818 0.653687
0.756683 0.521027 0.655090
0.879761 0.521027 0.614166
0.945740 0.522888 0.598236
0.000000 0.652191 0.675507
0.018158 0.652191 0.675507
0.131653 0.652191 0.675507
0.311035 0.652191 0.675507
0.533508 0.651093 0.684631
0.627869 0.652588 0.678650
0.730804 0.641815 0.651581
0.867065 0.660370 0.650146
0.948944 0.668915 0.651917
0.049347 0.765045 0.673370
0.071045 0.766937 0.675140
0.101624 0.766174 0.675507
0.288818 0.765045 0.675507
0.464050 0.768402 0.671600
0.614319 0.768402 0.671936
0.758667 0.750183 0.692291
0.869843 0.748322 0.650879
0.948944 0.747559 0.645599
0.123322 0.887024 0.669861
0.145447 0.888458 0.672668
0.165741 0.888123 0.670563
0.207458 0.891479 0.666687
0.408142 0.896667 0.649109
0.560883 0.901154 0.614899
0.745331 0.892242 0.632904
0.876953 0.843079 0.705566
0.942139 0.851257 0.695770
0.154816 0.952484 0.669861
0.178375 0.952484 0.669861
0.206757 0.952484 0.667023
0.139496 0.952484 0.659668
0.375397 0.952484 0.635406
0.539490 0.952484 0.595734
0.713226 0.952484 0.591492
0.913177 0.942017 0.709442
0.939362 0.893982 0.713623
0.142090 0.376465 0.720154
0.157501 0.315613 0.709351
0.166779 0.266632 0.715973
0.173035 0.066467 0.753601
0.488220 0.000000 0.781982
0.634460 0.000000 0.781982
0.755890 0.000000 0.781311
0.881714 0.000000 0.781647
0.945740 0.000000 0.781311
0.134888 0.448059 0.735840
0.171722 0.434753 0.729218
0.189514 0.364929 0.716675
0.171570 0.196014 0.726410
0.487122 0.072540 0.781982
0.634460 0.072540 0.781647
0.755890 0.071808 0.781311
0.881714 0.074371 0.783722
0.945740 0.071808 0.779572
0.118927 0.505676 0.749390
0.160645 0.504944 0.745209
0.237366 0.499023 0.736908
0.251953 0.408020 0.721191
0.459534 0.203247 0.775787
0.634460 0.199554 0.782349
0.757477 0.196625 0.782684
0.880524 0.198456 0.781311
0.945740 0.199554 0.780609
0.096100 0.557068 0.762939
0.139954 0.564117 0.760193
0.236298 0.569672 0.755310
0.371033 0.571899 0.746277
0.388397 0.431946 0.738281
0.633270 0.359924 0.781311
0.755890 0.359924 0.781311
0.878967 0.361420 0.778870
0.945740 0.362915 0.769867
0.065277 0.610718 0.773010
0.106049 0.617035 0.772644
0.208893 0.624115 0.768127
0.372894 0.636353 0.765381
0.520172 0.639679 0.757050
0.615875 0.524750 0.776459
0.755890 0.521027 0.781311
0.880920 0.520660 0.770569
0.945740 0.521027 0.754974
0.038086 0.672241 0.779236
0.061340 0.675201 0.780273
0.164032 0.679688 0.779907
0.337433 0.685242 0.776123
0.514069 0.695648 0.773346
0.638702 0.697510 0.764313
0.750427 0.652557 0.780609
0.880157 0.650360 0.756317
0.948944 0.652191 0.738281
0.000000 0.764282 0.781311
0.018158 0.765045 0.781982
0.131653 0.765045 0.781982
0.308472 0.766174 0.783020
0.492035 0.765778 0.781982
0.639862 0.765045 0.782349
0.746490 0.769501 0.787537
0.872192 0.766144 0.769165
0.948944 0.778412 0.771606
0.050293 0.884766 0.781647
0.073639 0.886658 0.781311
0.095947 0.885529 0.781647
0.287750 0.886658 0.781647
0.468964 0.889221 0.778870
0.603943 0.892212 0.775085
0.726898 0.895203 0.755646
0.881714 0.863922 0.792725
0.945740 0.875092 0.784760
0.082886 0.952484 0.781311
0.107361 0.952484 0.779236
0.103302 0.952484 0.779907
0.260986 0.952484 0.779236
0.444489 0.952484 0.775085
0.583160 0.952484 0.767426
0.708160 0.952484 0.738983
0.897247 0.949493 0.787537
0.942535 0.916718 0.802795
0.172180 0.455170 0.830933
0.188171 0.394562 0.817505
0.191620 0.323700 0.814758
0.171906 0.188049 0.826813
0.473114 0.013092 0.894043
0.634460 0.000000 0.891663
0.755493 0.000000 0.893707
0.879364 0.000000 0.894379
0.948944 0.000000 0.896820
0.164520 0.521301 0.841949
0.201904 0.510223 0.838501
0.222382 0.445831 0.821991
0.219788 0.334686 0.821289
0.407074 0.095825 0.880737
0.632904 0.072174 0.891663
0.755493 0.071808 0.891327
0.879364 0.072174 0.894379
0.948944 0.074738 0.896820
0.155518 0.580902 0.856750
0.196625 0.576813 0.850861
0.270050 0.570160 0.842285
0.285919 0.500488 0.828186
0.295319 0.244354 0.848816
0.630585 0.198822 0.893372
0.756683 0.198822 0.892334
0.882111 0.199554 0.896820
0.948944 0.195160 0.894745
0.135223 0.630493 0.867004
0.184662 0.633453 0.863251
0.276947 0.640137 0.860504
0.398895 0.637909 0.850891
0.404785 0.547089 0.833008
0.599304 0.366577 0.886566
0.755890 0.360657 0.891998
0.880524 0.359924 0.893036
0.948944 0.359924 0.895782
0.109802 0.675690 0.876282
0.160980 0.684601 0.877625
0.261414 0.689789 0.870789
0.409729 0.701691 0.867371
0.541504 0.701324 0.857422
0.543304 0.582550 0.847778
0.756683 0.521790 0.892670
0.880920 0.522125 0.893372
0.948944 0.521759 0.895447
0.075653 0.726868 0.886566
0.120514 0.731659 0.884857
0.225586 0.738739 0.883484
0.389221 0.748810 0.879700
0.548767 0.759949 0.875580
0.661163 0.762512 0.869110
0.727325 0.654053 0.885529
0.882111 0.651093 0.894379
0.948944 0.651093 0.896118
0.042755 0.788116 0.894043
0.068756 0.789948 0.893707
0.168518 0.791443 0.889282
0.345886 0.799652 0.891327
0.522827 0.808563 0.888611
0.653412 0.815247 0.883820
0.766510 0.816376 0.878296
0.882111 0.762817 0.894043
0.946167 0.764282 0.889282
0.000000 0.884369 0.891663
0.018158 0.886658 0.893707
0.129303 0.884369 0.891663
0.308472 0.885529 0.892670
0.490906 0.884369 0.891663
0.634460 0.887024 0.894043
0.758240 0.886261 0.893372
0.873779 0.884369 0.894043
0.946167 0.887390 0.889282
0.003326 0.952484 0.893707
0.022278 0.952484 0.894043
0.130981 0.952484 0.893707
0.307373 0.952484 0.892670
0.487457 0.952484 0.891663
0.629059 0.952484 0.891663
0.747284 0.952484 0.891998
0.867462 0.952484 0.881378
0.945740 0.940887 0.899200
0.185791 0.486633 0.888489
0.201538 0.428894 0.875153
0.203217 0.352081 0.872070
0.198883 0.257416 0.882019
0.428741 0.037140 0.947174
0.631348 0.000000 0.956757
0.752777 0.000000 0.956757
0.878967 0.000000 0.956757
0.945740 0.000000 0.956757
0.180206 0.555786 0.901855
0.215332 0.540955 0.896393
0.238770 0.485046 0.882690
0.232971 0.376740 0.876526
0.331146 0.115875 0.928833
0.631348 0.072174 0.955383
0.755127 0.072540 0.956757
0.879761 0.071808 0.956757
0.945740 0.072174 0.956757
0.171844 0.613159 0.913147
0.212524 0.609436 0.910065
0.286346 0.603516 0.902191
0.300842 0.536407 0.887482
0.283264 0.309875 0.891937
0.618958 0.200287 0.953003
0.753571 0.199554 0.956757
0.881714 0.199554 0.956757
0.945740 0.198822 0.956757
0.158997 0.661682 0.925751
0.206512 0.664642 0.923035
0.297272 0.667603 0.917542
0.413086 0.666504 0.907684
0.418610 0.587830 0.891602
0.534943 0.373596 0.933594
0.757874 0.362152 0.956757
0.881714 0.359924 0.956757
0.945740 0.359924 0.956757
0.133179 0.707245 0.936310
0.186096 0.713196 0.933594
0.284180 0.719147 0.929504
0.424683 0.728058 0.923737
0.554474 0.729523 0.915833
0.557068 0.637085 0.903564
0.751190 0.522522 0.953339
0.879364 0.520294 0.956757
0.945740 0.520294 0.956757
0.098755 0.754730 0.944122
0.148193 0.758453 0.943115
0.253845 0.764771 0.940399
0.407837 0.776672 0.937012
0.560272 0.786682 0.930511
0.669342 0.787476 0.924072
0.684387 0.668884 0.927795
0.879761 0.651093 0.956757
0.945740 0.651093 0.956757
0.057587 0.808197 0.951294
0.097321 0.810425 0.951294
0.201813 0.816376 0.949249
0.371033 0.824188 0.947540
0.538452 0.834229 0.943787
0.666962 0.843170 0.941071
0.772400 0.843903 0.932892
0.881714 0.764679 0.956757
0.945740 0.764282 0.956757
0.013641 0.892609 0.954010
0.035553 0.890320 0.954010
0.139191 0.889954 0.954010
0.319824 0.891113 0.954010
0.501923 0.895172 0.954010
0.643341 0.895172 0.954010
0.764954 0.901520 0.951630
0.879761 0.901520 0.948883
0.945740 0.887024 0.956757
0.000000 0.952484 0.956757
0.018158 0.952484 0.956757
0.131653 0.952484 0.956757
0.308472 0.952484 0.956757
0.493530 0.952484 0.956757
0.634460 0.952484 0.956757
0.758240 0.952484 0.956757
0.879364 0.952484 0.956757
0.948944 0.952484 0.956757
