cube滤镜(3D LUT)/Marston Marble.cube
# Created by: Lutify.me
# Copyright: (c) Copyright Lutify.me 2015
# Website: https://lutify.me
#LUT size
LUT_3D_SIZE 33
#LUT data points
0.000000 0.000000 0.000000
0.006042 0.000000 0.000000
0.015015 0.000000 0.000000
0.024750 0.000000 0.000000
0.041412 0.000000 0.004150
0.063507 0.002350 0.004791
0.100159 0.007935 0.009033
0.140656 0.011292 0.012207
0.182159 0.016327 0.016052
0.215057 0.019073 0.017029
0.254913 0.022736 0.020905
0.293304 0.027496 0.023407
0.333008 0.030304 0.027100
0.371185 0.035980 0.028503
0.411377 0.043274 0.032196
0.445465 0.050232 0.034149
0.481415 0.055939 0.035858
0.513184 0.061646 0.037567
0.545227 0.067352 0.039490
0.577118 0.071350 0.039490
0.606628 0.075897 0.043121
0.637512 0.081635 0.043121
0.665405 0.087341 0.043121
0.696503 0.093079 0.044128
0.728485 0.098846 0.046661
0.762146 0.101624 0.047455
0.797852 0.107361 0.050262
0.835083 0.113129 0.050812
0.872986 0.118866 0.053772
0.907837 0.124634 0.054108
0.935394 0.130188 0.057312
0.942200 0.130188 0.057312
0.948944 0.130188 0.057312
0.000000 0.005951 0.000000
0.004028 0.008667 0.004578
0.012878 0.008667 0.004730
0.026917 0.011383 0.000000
0.046539 0.014282 0.004150
0.077759 0.016785 0.004791
0.117371 0.024780 0.009033
0.153748 0.030334 0.012329
0.200684 0.036469 0.016052
0.232758 0.040100 0.017029
0.269165 0.044983 0.020905
0.304749 0.050659 0.023407
0.339813 0.054535 0.024719
0.375458 0.059174 0.028503
0.411011 0.064880 0.030579
0.445648 0.070618 0.032196
0.476990 0.073486 0.034149
0.510437 0.079193 0.035858
0.542572 0.084961 0.037567
0.571198 0.087860 0.039490
0.603638 0.093506 0.039490
0.633331 0.098236 0.043121
0.662384 0.102173 0.043121
0.693481 0.106995 0.046539
0.726227 0.110718 0.046661
0.759125 0.116486 0.047455
0.794952 0.122223 0.050262
0.835083 0.127960 0.053650
0.872894 0.133636 0.053772
0.905060 0.139465 0.057159
0.935394 0.142120 0.057312
0.942200 0.142151 0.057312
0.948944 0.142151 0.057312
0.003662 0.022888 0.008759
0.006134 0.020386 0.008911
0.012878 0.017700 0.009033
0.020142 0.020111 0.008881
0.038788 0.025757 0.004791
0.068298 0.031158 0.004303
0.117157 0.037109 0.008240
0.161377 0.045471 0.012207
0.203949 0.053558 0.016052
0.236633 0.057068 0.017029
0.269501 0.062592 0.019958
0.307892 0.066437 0.023407
0.342926 0.071320 0.024719
0.378296 0.076874 0.027161
0.412689 0.082581 0.028503
0.443878 0.085571 0.032196
0.476898 0.091125 0.034027
0.508850 0.094147 0.035858
0.537842 0.099884 0.035858
0.569733 0.102692 0.039490
0.597595 0.107178 0.039490
0.628387 0.111267 0.043091
0.660126 0.116821 0.043121
0.690277 0.119843 0.044342
0.725372 0.125610 0.046661
0.756256 0.130707 0.047668
0.794159 0.136902 0.050262
0.831726 0.142670 0.053772
0.866669 0.145691 0.053772
0.907349 0.153961 0.057281
0.935394 0.157043 0.057312
0.942200 0.157043 0.057312
0.948944 0.157043 0.057312
0.011871 0.048370 0.023621
0.014618 0.045898 0.020203
0.017181 0.042755 0.016785
0.017883 0.037598 0.020569
0.024628 0.035004 0.016785
0.050995 0.042938 0.008881
0.097260 0.051514 0.005188
0.150238 0.059784 0.008514
0.198120 0.066132 0.012451
0.235565 0.071564 0.016296
0.272217 0.077271 0.017029
0.307892 0.083038 0.020935
0.343781 0.088745 0.023651
0.378296 0.091827 0.024719
0.413055 0.097290 0.028473
0.445465 0.100403 0.030823
0.475403 0.105835 0.032196
0.505676 0.108948 0.034241
0.537720 0.114441 0.035858
0.567261 0.118988 0.037689
0.597412 0.121887 0.039490
0.625397 0.126099 0.041077
0.656067 0.128937 0.043121
0.687134 0.134705 0.044128
0.721466 0.139435 0.046661
0.755585 0.145264 0.047455
0.789307 0.149048 0.050262
0.830933 0.154785 0.053772
0.869141 0.160583 0.053772
0.907532 0.166321 0.057281
0.935394 0.171631 0.057312
0.942200 0.171631 0.057312
0.948944 0.171631 0.057312
0.018799 0.074738 0.034943
0.024017 0.075012 0.035278
0.026642 0.071991 0.031250
0.026672 0.068726 0.027679
0.026733 0.059113 0.028503
0.036530 0.057556 0.024841
0.072174 0.066559 0.012817
0.127014 0.074829 0.012054
0.178986 0.080536 0.009033
0.227142 0.086243 0.012451
0.266632 0.091797 0.016296
0.308777 0.097717 0.019592
0.344788 0.103455 0.020935
0.378296 0.106628 0.024719
0.412689 0.112030 0.027313
0.446655 0.116211 0.028503
0.475403 0.120636 0.030823
0.507477 0.125183 0.032196
0.537445 0.129181 0.035858
0.568512 0.133759 0.035858
0.595856 0.137787 0.037689
0.625092 0.142517 0.039490
0.657013 0.146362 0.041077
0.687134 0.149200 0.043121
0.718689 0.154602 0.044464
0.754120 0.158813 0.046661
0.787872 0.163544 0.050262
0.826019 0.169678 0.050812
0.869843 0.175079 0.053772
0.907837 0.180878 0.057281
0.935394 0.184082 0.057312
0.942200 0.183899 0.057312
0.948944 0.183899 0.057312
0.030212 0.103790 0.052094
0.035370 0.103790 0.052094
0.040619 0.106079 0.048798
0.041260 0.101044 0.038696
0.037170 0.095215 0.031860
0.036530 0.082489 0.029663
0.055695 0.080872 0.030914
0.104187 0.089783 0.024353
0.154694 0.097900 0.015778
0.206390 0.103851 0.008881
0.255371 0.106720 0.009674
0.302856 0.112457 0.013702
0.339813 0.116394 0.017639
0.377563 0.122192 0.020935
0.413605 0.127228 0.024719
0.445465 0.132538 0.027313
0.476440 0.136353 0.028503
0.506165 0.139771 0.030823
0.538666 0.143982 0.032196
0.568512 0.148529 0.034271
0.595947 0.152527 0.035858
0.625092 0.157288 0.037689
0.656067 0.161163 0.039490
0.687134 0.164459 0.041077
0.720184 0.171509 0.043121
0.753235 0.175354 0.046661
0.788330 0.180725 0.046661
0.829285 0.187073 0.050262
0.865295 0.190399 0.051239
0.907349 0.195953 0.053772
0.935394 0.201263 0.057281
0.942200 0.201263 0.057312
0.948944 0.201263 0.057312
0.040253 0.133545 0.066437
0.045563 0.133118 0.066437
0.050537 0.133026 0.066010
0.053711 0.133270 0.056305
0.054016 0.132660 0.039093
0.049164 0.121582 0.027191
0.051605 0.101959 0.041077
0.091980 0.101410 0.042450
0.132019 0.112701 0.039032
0.183502 0.123932 0.024384
0.239319 0.127319 0.010040
0.288513 0.130646 0.009033
0.334137 0.134094 0.013092
0.374695 0.141113 0.016174
0.411011 0.144501 0.019958
0.444977 0.148712 0.023651
0.476898 0.153107 0.025421
0.508667 0.157471 0.028442
0.539154 0.160400 0.030823
0.567261 0.164520 0.032196
0.597412 0.170288 0.032898
0.625092 0.173676 0.035858
0.657013 0.178894 0.037689
0.687134 0.181732 0.039490
0.718903 0.186798 0.041077
0.752747 0.190338 0.043121
0.787842 0.196136 0.046661
0.826111 0.201935 0.047211
0.864288 0.207672 0.050262
0.907562 0.213470 0.053772
0.935394 0.216858 0.053772
0.942200 0.218414 0.053772
0.948944 0.219055 0.053772
0.052673 0.168060 0.083313
0.060028 0.169739 0.085938
0.065521 0.170380 0.085938
0.066589 0.165802 0.077148
0.071045 0.169647 0.068573
0.069214 0.164337 0.060425
0.064697 0.147308 0.045898
0.091522 0.127747 0.043121
0.124176 0.124847 0.054871
0.164337 0.135498 0.048920
0.219757 0.149658 0.034912
0.273804 0.156647 0.015411
0.328064 0.161133 0.009674
0.371735 0.160492 0.012329
0.408661 0.165161 0.013947
0.445190 0.168701 0.017883
0.476257 0.170166 0.021729
0.508240 0.175201 0.024719
0.538116 0.178406 0.027161
0.567352 0.182251 0.028503
0.597412 0.186920 0.030701
0.625092 0.189880 0.032196
0.656067 0.193726 0.034119
0.687134 0.199493 0.035858
0.719971 0.203888 0.039490
0.755859 0.208130 0.041077
0.791016 0.213898 0.043091
0.826111 0.219055 0.044464
0.865692 0.223541 0.047455
0.904663 0.228302 0.050262
0.935394 0.234558 0.051025
0.942200 0.234558 0.051025
0.948944 0.234558 0.051025
0.067871 0.205444 0.103271
0.072784 0.204803 0.102509
0.078400 0.204895 0.102631
0.083801 0.205170 0.101898
0.087067 0.205444 0.095734
0.080811 0.205170 0.088684
0.069061 0.196442 0.070068
0.110779 0.176453 0.042206
0.128967 0.149017 0.064270
0.161560 0.148071 0.066010
0.202301 0.157623 0.059265
0.258972 0.176025 0.045532
0.319092 0.187103 0.026123
0.364777 0.191040 0.013092
0.407440 0.189850 0.009033
0.443878 0.194427 0.012207
0.478424 0.193695 0.016052
0.509460 0.195160 0.019806
0.538757 0.198090 0.021881
0.567749 0.202209 0.024719
0.597412 0.205811 0.027100
0.625092 0.208649 0.028503
0.656067 0.212769 0.030579
0.687134 0.217285 0.032196
0.719879 0.223053 0.035858
0.753418 0.225922 0.037567
0.788422 0.229279 0.039490
0.828796 0.237488 0.043121
0.865906 0.241425 0.044464
0.902832 0.248322 0.046661
0.935394 0.251709 0.050262
0.942200 0.251709 0.050262
0.948944 0.251709 0.050262
0.082611 0.245605 0.121857
0.088196 0.245605 0.121857
0.093811 0.245605 0.121857
0.099457 0.245605 0.121857
0.104675 0.244690 0.118073
0.102570 0.243134 0.112030
0.094482 0.241547 0.104767
0.118683 0.233765 0.083466
0.153229 0.204956 0.066864
0.158508 0.170502 0.072662
0.200714 0.172607 0.073730
0.248810 0.186066 0.069427
0.302399 0.202393 0.056946
0.358612 0.216339 0.035553
0.406281 0.225403 0.020996
0.447083 0.224487 0.009033
0.483795 0.225220 0.008118
0.516113 0.225861 0.012085
0.543884 0.226685 0.014191
0.571594 0.225494 0.018127
0.598450 0.228607 0.020935
0.626282 0.229645 0.023315
0.656067 0.233398 0.025787
0.687134 0.237183 0.028503
0.718323 0.240845 0.030457
0.753418 0.246643 0.033234
0.789337 0.251617 0.035828
0.828308 0.256927 0.039490
0.865204 0.261444 0.040955
0.906036 0.268982 0.044128
0.935394 0.269714 0.046448
0.942200 0.272369 0.044220
0.948944 0.271637 0.044128
0.100891 0.286621 0.144287
0.104767 0.284637 0.142151
0.112274 0.286621 0.144287
0.117981 0.286621 0.143585
0.122864 0.286621 0.140503
0.124084 0.286621 0.137360
0.106628 0.283722 0.134216
0.084290 0.283142 0.121338
0.171234 0.275421 0.079926
0.198761 0.235016 0.085205
0.207275 0.202118 0.086060
0.245087 0.201202 0.083740
0.296631 0.214386 0.079285
0.350830 0.232635 0.068237
0.402405 0.250214 0.050476
0.448517 0.260620 0.030975
0.483887 0.261993 0.016541
0.518951 0.261719 0.004791
0.550415 0.261078 0.006104
0.576172 0.259888 0.009094
0.603546 0.257202 0.013062
0.631409 0.258118 0.015686
0.659180 0.259033 0.018250
0.687134 0.261993 0.022064
0.718323 0.263641 0.025909
0.752747 0.268768 0.026703
0.789429 0.272278 0.030334
0.828308 0.277618 0.033905
0.866058 0.283875 0.036987
0.907837 0.287628 0.039490
0.935394 0.292328 0.040619
0.942200 0.292328 0.040619
0.948944 0.292328 0.040619
0.118591 0.330658 0.165375
0.124329 0.330658 0.165375
0.130096 0.330658 0.165375
0.135895 0.330658 0.165375
0.141693 0.330658 0.163239
0.145142 0.330109 0.162140
0.136658 0.329590 0.159576
0.114258 0.327301 0.152435
0.160492 0.321533 0.124115
0.234039 0.308441 0.080872
0.244751 0.267212 0.097198
0.252808 0.233521 0.095947
0.291077 0.230621 0.092560
0.345215 0.244751 0.089203
0.395233 0.263794 0.078217
0.443665 0.282013 0.064362
0.484955 0.294342 0.045319
0.520416 0.300598 0.027283
0.555115 0.301788 0.010803
0.583008 0.301147 0.002838
0.610565 0.298248 0.001617
0.636444 0.296295 0.006195
0.664398 0.295380 0.008972
0.691437 0.293335 0.012909
0.721466 0.293335 0.016754
0.753815 0.294983 0.020508
0.789520 0.297852 0.022919
0.827209 0.301697 0.026581
0.864563 0.307159 0.030212
0.907837 0.310364 0.033783
0.935394 0.315979 0.035828
0.942200 0.315979 0.035828
0.948944 0.315979 0.035828
0.137268 0.374725 0.187103
0.143097 0.374725 0.187103
0.148926 0.374725 0.187103
0.154785 0.374725 0.187103
0.160645 0.374725 0.187103
0.164764 0.374725 0.185150
0.162842 0.373596 0.183960
0.139771 0.371735 0.178345
0.127563 0.368439 0.163361
0.226257 0.362335 0.116272
0.283813 0.341431 0.099731
0.292480 0.299561 0.109039
0.301910 0.265991 0.106964
0.338684 0.261902 0.102417
0.391235 0.274963 0.097198
0.441620 0.296143 0.089600
0.481415 0.312744 0.079712
0.524872 0.330139 0.059784
0.559387 0.338715 0.038788
0.587708 0.342224 0.023346
0.616669 0.342224 0.008453
0.642517 0.339294 0.001343
0.669464 0.336304 0.001770
0.697571 0.333374 0.001770
0.727692 0.331512 0.006378
0.757843 0.330414 0.010559
0.792969 0.328583 0.014557
0.826111 0.331512 0.019104
0.863464 0.333008 0.022827
0.907837 0.336945 0.026459
0.935394 0.339813 0.029877
0.942200 0.339630 0.029877
0.948944 0.340729 0.029877
0.156219 0.418793 0.208649
0.162079 0.418793 0.208649
0.167938 0.422333 0.208649
0.173859 0.418793 0.208649
0.179749 0.418793 0.208649
0.184479 0.419250 0.207275
0.186523 0.419434 0.206787
0.166504 0.415863 0.203094
0.135834 0.412903 0.196442
0.200317 0.409943 0.161865
0.292603 0.402374 0.075226
0.334808 0.376282 0.113434
0.341064 0.334869 0.121887
0.347504 0.300171 0.115448
0.384735 0.294281 0.113586
0.430450 0.305725 0.109039
0.480865 0.328278 0.103882
0.524567 0.345856 0.090027
0.561401 0.362488 0.074860
0.594330 0.376343 0.058441
0.622070 0.380951 0.035187
0.648651 0.383331 0.018280
0.675568 0.380402 0.008453
0.701477 0.378357 0.001465
0.730804 0.375488 0.000000
0.760895 0.372620 0.001923
0.794739 0.368591 0.002838
0.830078 0.368134 0.007172
0.864960 0.366821 0.012787
0.907837 0.368317 0.016663
0.935394 0.368042 0.022430
0.942200 0.368225 0.022339
0.948944 0.368042 0.022461
0.176544 0.465942 0.231384
0.179688 0.460022 0.228302
0.186646 0.462219 0.229431
0.191559 0.460022 0.228271
0.197510 0.460022 0.228271
0.205078 0.463379 0.230011
0.204865 0.460022 0.228302
0.195038 0.461700 0.226898
0.168518 0.458557 0.222290
0.158234 0.453644 0.205170
0.262573 0.448578 0.156464
0.352264 0.440491 0.112213
0.382538 0.409760 0.132385
0.387543 0.371185 0.133301
0.393463 0.332611 0.125031
0.430725 0.328278 0.123322
0.474091 0.339783 0.120361
0.515930 0.355347 0.114014
0.560150 0.378357 0.103241
0.593018 0.394867 0.088257
0.625153 0.408264 0.070068
0.653656 0.417603 0.051025
0.681702 0.424164 0.034180
0.707611 0.422424 0.017426
0.735718 0.418640 0.004028
0.766663 0.419250 0.000000
0.798676 0.414001 0.000000
0.833710 0.412628 0.000000
0.868439 0.409393 0.002106
0.904968 0.403839 0.002533
0.935394 0.404022 0.010529
0.942200 0.403839 0.010803
0.948944 0.408081 0.008392
0.190277 0.501282 0.246490
0.197479 0.503845 0.247833
0.202240 0.501282 0.246490
0.209290 0.503479 0.247650
0.214233 0.501282 0.246490
0.222168 0.503784 0.248596
0.223938 0.501282 0.246490
0.220703 0.503510 0.248779
0.191803 0.502777 0.245056
0.134613 0.498871 0.236694
0.236328 0.492371 0.199921
0.343658 0.484192 0.123810
0.412262 0.477417 0.130341
0.426941 0.442749 0.147552
0.427094 0.398590 0.142517
0.439636 0.368195 0.137878
0.472565 0.362183 0.134766
0.515839 0.370575 0.133118
0.555481 0.387817 0.126984
0.592712 0.407013 0.117401
0.627319 0.425232 0.103333
0.656067 0.441803 0.084656
0.684723 0.451691 0.064789
0.713684 0.458282 0.045959
0.741882 0.460571 0.027039
0.773254 0.462769 0.009552
0.802155 0.456329 0.001648
0.833099 0.453461 0.000000
0.872589 0.453156 0.000000
0.906372 0.445038 0.000000
0.935394 0.445038 0.000000
0.942200 0.445038 0.000000
0.948944 0.446594 0.000000
0.208374 0.542542 0.266113
0.212921 0.541046 0.264587
0.218964 0.541046 0.264587
0.227570 0.543732 0.267334
0.233521 0.543640 0.267242
0.237518 0.541504 0.265045
0.242767 0.543060 0.266663
0.240387 0.543335 0.266968
0.224518 0.542511 0.263824
0.176727 0.538086 0.260193
0.205414 0.533051 0.236542
0.318756 0.528259 0.181702
0.406006 0.521393 0.109009
0.458557 0.508545 0.147522
0.472626 0.475494 0.159943
0.472107 0.434021 0.155243
0.481476 0.398987 0.147369
0.510223 0.391663 0.145813
0.550812 0.401398 0.144104
0.586639 0.417358 0.137970
0.624756 0.437775 0.130371
0.657623 0.455261 0.119110
0.687134 0.472717 0.102203
0.715912 0.484924 0.080933
0.745697 0.494385 0.058167
0.776306 0.500214 0.037872
0.806732 0.499176 0.015442
0.838257 0.498535 0.003845
0.871796 0.494019 0.000000
0.907562 0.491608 0.000000
0.935394 0.487701 0.000000
0.942200 0.487701 0.000000
0.948944 0.487732 0.000000
0.225220 0.581024 0.284149
0.231140 0.579407 0.282623
0.237122 0.579254 0.282532
0.243378 0.581024 0.284149
0.248260 0.578613 0.282928
0.253998 0.577850 0.282562
0.258759 0.578522 0.283600
0.258820 0.578796 0.283478
0.245575 0.579468 0.282562
0.208984 0.575714 0.278778
0.169525 0.571289 0.264801
0.292542 0.565613 0.221405
0.391022 0.556824 0.146393
0.461853 0.554138 0.120270
0.500793 0.536987 0.168732
0.510620 0.501068 0.171021
0.509766 0.461975 0.164734
0.519043 0.431183 0.158234
0.549744 0.425446 0.158447
0.583862 0.432739 0.155457
0.618958 0.448303 0.150635
0.654633 0.466949 0.141479
0.687134 0.484802 0.128693
0.720001 0.503876 0.113434
0.747162 0.517487 0.091705
0.781006 0.529877 0.070038
0.809601 0.535156 0.047760
0.840759 0.535431 0.026154
0.875732 0.533386 0.006989
0.907837 0.533142 0.000000
0.935394 0.530029 0.000000
0.942200 0.528687 0.000000
0.948944 0.530396 0.000000
0.239288 0.614929 0.299103
0.244049 0.612244 0.297699
0.251465 0.614929 0.299103
0.256012 0.612061 0.297516
0.262024 0.611969 0.297424
0.269745 0.612335 0.297791
0.273529 0.612335 0.299103
0.275848 0.614929 0.299103
0.265381 0.611786 0.298157
0.237885 0.610657 0.296082
0.156494 0.609924 0.290222
0.251556 0.602783 0.259369
0.372192 0.595276 0.189819
0.457306 0.589996 0.090881
0.511841 0.583221 0.153290
0.541321 0.567352 0.183685
0.545868 0.529510 0.182007
0.547577 0.489990 0.175598
0.555389 0.462158 0.169342
0.585114 0.454956 0.169342
0.617615 0.462128 0.166138
0.649902 0.476776 0.161865
0.684601 0.494904 0.153351
0.715240 0.513947 0.141479
0.748840 0.532471 0.128113
0.777893 0.546478 0.104065
0.809937 0.559326 0.080963
0.844116 0.568298 0.055695
0.873962 0.567810 0.033508
0.906738 0.569122 0.011139
0.935394 0.565796 0.003967
0.942200 0.565796 0.003967
0.948944 0.567444 0.003967
0.250610 0.645081 0.310974
0.257843 0.646301 0.312195
0.263977 0.646301 0.312195
0.270081 0.644836 0.312195
0.276215 0.645935 0.312195
0.282349 0.645020 0.312195
0.287842 0.646301 0.313995
0.290100 0.646301 0.313995
0.282654 0.645569 0.313232
0.259644 0.644562 0.310974
0.205597 0.643341 0.308044
0.221985 0.637665 0.288422
0.342285 0.628387 0.239655
0.442078 0.622009 0.155975
0.511932 0.620880 0.127533
0.557007 0.615509 0.185913
0.577881 0.592987 0.200348
0.581116 0.558136 0.194366
0.582947 0.521271 0.188019
0.590698 0.491547 0.181793
0.615997 0.487183 0.180511
0.646820 0.492920 0.178650
0.680634 0.506348 0.171631
0.712524 0.523926 0.166382
0.746002 0.541046 0.154175
0.779755 0.562744 0.138885
0.810028 0.578461 0.116394
0.842255 0.591400 0.091522
0.874847 0.597961 0.066071
0.908539 0.600006 0.041046
0.932220 0.602966 0.024719
0.938995 0.602966 0.024689
0.945740 0.602966 0.024689
0.264862 0.675964 0.325836
0.270966 0.675964 0.325836
0.277100 0.675964 0.325836
0.283234 0.675964 0.325836
0.289368 0.675964 0.325836
0.295074 0.675476 0.325348
0.301697 0.675964 0.325836
0.302673 0.675964 0.325836
0.299072 0.674835 0.325836
0.280731 0.675964 0.325836
0.233154 0.672058 0.323730
0.170105 0.669189 0.308990
0.307892 0.662231 0.273712
0.419525 0.656372 0.207764
0.498566 0.652191 0.114410
0.559052 0.648132 0.166565
0.596741 0.644775 0.205933
0.610260 0.617065 0.212646
0.612091 0.586700 0.208466
0.615448 0.554321 0.200348
0.623230 0.522797 0.194183
0.646912 0.516846 0.191071
0.677795 0.521484 0.191071
0.708984 0.535645 0.185059
0.742950 0.552063 0.178040
0.776703 0.572540 0.164734
0.811279 0.590027 0.150330
0.842133 0.606384 0.127472
0.875732 0.619904 0.099457
0.907562 0.627594 0.073181
0.932220 0.631439 0.056824
0.938995 0.631439 0.056824
0.945740 0.631439 0.054565
0.276184 0.705658 0.337585
0.282349 0.705658 0.337585
0.288483 0.705658 0.337585
0.294647 0.705658 0.337585
0.300446 0.705292 0.337189
0.307007 0.705658 0.337585
0.313171 0.705658 0.337585
0.315186 0.705658 0.338593
0.312408 0.705658 0.338593
0.298859 0.705658 0.338593
0.255798 0.703613 0.337555
0.148651 0.700714 0.327759
0.273987 0.694885 0.298431
0.398865 0.687073 0.247009
0.486053 0.680847 0.168732
0.547760 0.678894 0.131042
0.596924 0.677429 0.190674
0.631897 0.669800 0.224121
0.637756 0.641876 0.224884
0.642761 0.611420 0.221680
0.645264 0.579346 0.212646
0.652985 0.552277 0.206512
0.679840 0.545349 0.203400
0.706726 0.551086 0.203400
0.742279 0.564819 0.197418
0.771576 0.579834 0.188507
0.808746 0.599731 0.176056
0.843018 0.617401 0.160339
0.872986 0.632416 0.139069
0.905457 0.647461 0.111481
0.932220 0.653137 0.090576
0.938995 0.653137 0.090546
0.945740 0.653137 0.090546
0.287628 0.735352 0.349304
0.295685 0.737274 0.351288
0.299927 0.735352 0.349304
0.306091 0.735352 0.349304
0.312286 0.735352 0.349304
0.318512 0.735352 0.349304
0.326172 0.736816 0.351746
0.328613 0.735352 0.352295
0.328156 0.735352 0.352295
0.315308 0.735352 0.352295
0.283539 0.732361 0.351166
0.213837 0.730438 0.344360
0.248383 0.724579 0.323944
0.381744 0.718719 0.275909
0.472046 0.711578 0.212891
0.537659 0.707947 0.135193
0.592865 0.705597 0.158325
0.635956 0.703735 0.215240
0.661194 0.693329 0.238708
0.669220 0.666718 0.240143
0.670837 0.635437 0.233856
0.674316 0.606232 0.224915
0.683044 0.580902 0.218781
0.706818 0.574982 0.215668
0.737915 0.580536 0.215668
0.768433 0.591919 0.209747
0.803009 0.606476 0.200836
0.840454 0.627014 0.188446
0.869446 0.643585 0.172516
0.906555 0.661163 0.145721
0.929047 0.670197 0.127472
0.935791 0.670197 0.127441
0.942535 0.670197 0.127441
0.301178 0.767212 0.363159
0.305267 0.765106 0.361053
0.311462 0.765106 0.361053
0.318481 0.765930 0.361877
0.323853 0.765106 0.361053
0.330872 0.765106 0.361053
0.336823 0.765106 0.364014
0.342529 0.767395 0.364014
0.339264 0.765106 0.364014
0.331024 0.762970 0.364014
0.304657 0.762115 0.364014
0.244049 0.760162 0.359924
0.207336 0.757263 0.344482
0.336975 0.748474 0.309326
0.448029 0.742584 0.256714
0.524597 0.738312 0.182098
0.586731 0.736176 0.126251
0.635040 0.733215 0.195099
0.672089 0.733124 0.239441
0.693756 0.717804 0.255219
0.698242 0.689636 0.252258
0.701782 0.662292 0.246216
0.705414 0.633057 0.237976
0.712128 0.609711 0.230957
0.737885 0.602417 0.228790
0.770905 0.609528 0.228088
0.800171 0.618927 0.222015
0.834595 0.635742 0.212738
0.871216 0.653259 0.198608
0.902893 0.670410 0.182526
0.925842 0.681488 0.165558
0.932587 0.681488 0.170105
0.939362 0.681488 0.165527
0.311340 0.794800 0.372742
0.317535 0.794800 0.372742
0.325714 0.797607 0.375488
0.329926 0.795532 0.373474
0.336151 0.794800 0.372742
0.344116 0.797302 0.375214
0.350830 0.797211 0.376404
0.354797 0.795441 0.375671
0.355225 0.797028 0.377899
0.346222 0.794220 0.376495
0.325165 0.791809 0.375671
0.275391 0.791809 0.375671
0.187286 0.787018 0.362701
0.303406 0.781860 0.335632
0.423706 0.775299 0.293396
0.507385 0.770233 0.232422
0.572144 0.765778 0.151337
0.626648 0.762817 0.138184
0.666870 0.762817 0.213470
0.706268 0.763184 0.257599
0.728180 0.749084 0.273346
0.729431 0.715332 0.268127
0.734375 0.690918 0.264221
0.733612 0.659821 0.253021
0.741791 0.635803 0.245422
0.770905 0.630676 0.245514
0.802002 0.636353 0.240234
0.834595 0.648285 0.234650
0.865875 0.660278 0.225372
0.900360 0.679657 0.213318
0.925049 0.690735 0.198883
0.931793 0.690735 0.201233
0.938568 0.690735 0.198883
0.325012 0.826874 0.387299
0.331879 0.827423 0.387299
0.337463 0.824524 0.387299
0.343689 0.824524 0.387299
0.350586 0.825562 0.387299
0.356171 0.824524 0.387299
0.362457 0.826294 0.389038
0.366425 0.825165 0.387939
0.366852 0.826874 0.390259
0.360718 0.824524 0.390259
0.342499 0.823151 0.390259
0.300781 0.821564 0.388947
0.223358 0.818542 0.381317
0.267456 0.815033 0.360291
0.390839 0.808624 0.324005
0.484283 0.802124 0.275818
0.557312 0.796906 0.206879
0.615845 0.796265 0.134796
0.660919 0.792480 0.175110
0.704102 0.794128 0.242188
0.739349 0.788513 0.277527
0.756470 0.773376 0.288330
0.758209 0.743378 0.283295
0.763702 0.715820 0.279236
0.765045 0.686676 0.268005
0.774719 0.663940 0.259583
0.799377 0.657379 0.260651
0.829010 0.661438 0.256073
0.865173 0.674622 0.249634
0.897308 0.688934 0.240234
0.921936 0.697662 0.229553
0.928711 0.697662 0.230194
0.935455 0.697662 0.229523
0.336609 0.854248 0.398926
0.345123 0.856567 0.401184
0.349609 0.854828 0.399475
0.358276 0.857208 0.401825
0.363617 0.856293 0.400909
0.368408 0.854248 0.398926
0.375244 0.854797 0.401825
0.380402 0.856018 0.401855
0.379822 0.855011 0.401855
0.376831 0.857208 0.404755
0.362518 0.854797 0.402405
0.328979 0.854248 0.403748
0.259888 0.850525 0.397614
0.222076 0.847137 0.381226
0.360535 0.841217 0.351532
0.465393 0.835846 0.311096
0.538635 0.828949 0.258789
0.602081 0.827454 0.179077
0.654053 0.823914 0.088959
0.697845 0.823273 0.203552
0.738373 0.822601 0.262665
0.770691 0.816589 0.295502
0.785767 0.798279 0.303253
0.791534 0.771667 0.300323
0.795776 0.743225 0.294769
