cube滤镜(3D LUT)/Merlinite.cube
# Created by: Lutify.me
# Copyright: (c) Copyright Lutify.me 2015
# Website: https://lutify.me
#LUT size
LUT_3D_SIZE 5
#LUT data points
0.000000 0.000000 0.000000
0.198853 0.019897 0.013153
0.499908 0.064270 0.030579
0.740448 0.110443 0.040283
0.951508 0.143585 0.049957
0.077972 0.221680 0.092560
0.143311 0.163300 0.056305
0.496918 0.209595 0.013153
0.732178 0.239746 0.030579
0.951508 0.268982 0.043518
0.225922 0.558716 0.249695
0.242462 0.558716 0.247437
0.499939 0.416992 0.134399
0.757080 0.511414 0.050720
0.951508 0.504852 0.000000
0.330627 0.803619 0.355469
0.374695 0.805756 0.360626
0.588837 0.775665 0.138214
0.753296 0.649811 0.229401
0.941620 0.703125 0.184021
0.408142 0.954712 0.433502
0.453217 0.954712 0.433502
0.453796 0.954712 0.373169
0.873566 0.951874 0.325775
0.933289 0.809174 0.315399
0.038879 0.094910 0.206573
0.141876 0.001801 0.232971
0.508881 0.027283 0.159454
0.767639 0.043518 0.097076
0.951508 0.056305 0.103271
0.012970 0.217896 0.232971
0.148315 0.225464 0.240509
0.501404 0.247986 0.182312
0.741974 0.289154 0.183075
0.951508 0.321167 0.180054
0.175171 0.549255 0.145721
0.231537 0.554321 0.167114
0.504395 0.477081 0.282410
0.741211 0.506317 0.186890
0.951508 0.493896 0.166351
0.290222 0.795074 0.292877
0.352539 0.799347 0.330048
0.492462 0.784302 0.268951
0.757812 0.690186 0.356750
0.945435 0.746277 0.273468
0.373383 0.954712 0.395111
0.435425 0.954712 0.423065
0.314087 0.954712 0.443634
0.837189 0.951874 0.361145
0.936310 0.842804 0.428192
0.104889 0.257202 0.484406
0.109680 0.102661 0.501221
0.511841 0.000000 0.542725
0.766876 0.018219 0.520142
0.948486 0.037079 0.452209
0.082886 0.378906 0.520905
0.201019 0.381104 0.506287
0.509613 0.215637 0.539062
0.767639 0.214142 0.495361
0.948486 0.218658 0.422150
0.001221 0.538330 0.539795
0.144012 0.536865 0.536865
0.504395 0.544189 0.548523
0.740448 0.536896 0.490967
0.951508 0.568878 0.494598
0.142761 0.779266 0.533264
0.190887 0.781403 0.530334
0.431519 0.789307 0.475616
0.763855 0.734039 0.573944
0.951508 0.762756 0.507751
0.243378 0.954712 0.507751
0.309814 0.954712 0.495361
0.317749 0.954712 0.386047
0.769897 0.954712 0.485107
0.939331 0.882019 0.612366
0.157135 0.394562 0.708893
0.182922 0.284149 0.704559
0.506592 0.000000 0.772797
0.766876 0.000000 0.772095
0.948486 0.000000 0.772095
0.132721 0.522522 0.739075
0.255615 0.515961 0.726135
0.478333 0.219421 0.766357
0.768402 0.212616 0.773529
0.948486 0.215637 0.771393
0.075134 0.625366 0.763489
0.226440 0.638397 0.758453
0.537964 0.653564 0.746979
0.766876 0.537628 0.772095
0.948486 0.537628 0.744812
0.000000 0.774231 0.772095
0.146149 0.774963 0.772797
0.510345 0.775665 0.772797
0.757812 0.779266 0.778564
0.951508 0.787842 0.762054
0.094208 0.954712 0.772095
0.116089 0.954712 0.770660
0.463440 0.954712 0.765656
0.720856 0.954712 0.728302
0.945435 0.920563 0.794342
0.202637 0.503784 0.883453
0.220642 0.370209 0.866364
0.447845 0.043457 0.944733
0.763855 0.000000 0.954712
0.948486 0.000000 0.954712
0.188171 0.627747 0.909149
0.305420 0.618347 0.897736
0.302277 0.327820 0.887024
0.764618 0.215637 0.954712
0.948486 0.214874 0.954712
0.147797 0.719116 0.933350
0.303223 0.730621 0.926239
0.571594 0.740662 0.911987
0.762360 0.539062 0.951141
0.948486 0.536865 0.954712
0.066711 0.816498 0.949005
0.219177 0.824371 0.946899
0.555908 0.841522 0.941162
0.782776 0.850830 0.929779
0.948486 0.774231 0.954712
0.000000 0.954712 0.954712
0.146149 0.954712 0.954712
0.511841 0.954712 0.954712
0.769165 0.954712 0.954712
0.951508 0.954712 0.954712
