cube滤镜(3D LUT)/Merlinite.cube
# Created by: Lutify.me
# Copyright: (c) Copyright Lutify.me 2015
# Website: https://lutify.me
#LUT size
LUT_3D_SIZE 33
#LUT data points
0.000000 0.000000 0.000000
0.007874 0.000000 0.000000
0.018646 0.000000 0.000000
0.029938 0.000000 0.000000
0.048798 0.000000 0.003204
0.073151 0.003082 0.003693
0.112762 0.009979 0.007202
0.155609 0.014008 0.009888
0.198853 0.019897 0.013153
0.232788 0.023071 0.014008
0.273499 0.027283 0.017365
0.312439 0.032684 0.019592
0.352448 0.035858 0.022797
0.390625 0.042206 0.024017
0.430634 0.050323 0.027283
0.464417 0.058014 0.029022
0.499908 0.064270 0.030579
0.531097 0.070465 0.032074
0.562561 0.076691 0.033783
0.593719 0.080994 0.033783
0.622467 0.085907 0.037079
0.652466 0.092072 0.037079
0.679504 0.098206 0.037079
0.709625 0.104340 0.037994
0.740448 0.110443 0.040283
0.772888 0.113434 0.040985
0.807190 0.119507 0.043518
0.842896 0.125641 0.044006
0.879120 0.131714 0.046692
0.912384 0.137756 0.046997
0.938629 0.143585 0.049957
0.945068 0.143585 0.049957
0.951508 0.143585 0.049957
0.000000 0.007599 0.000000
0.005341 0.010895 0.003540
0.016113 0.010895 0.003662
0.032410 0.014099 0.000000
0.054535 0.017517 0.003204
0.088654 0.020447 0.003693
0.131042 0.029602 0.007202
0.169312 0.035889 0.009979
0.217987 0.042755 0.013153
0.250916 0.046814 0.014008
0.287964 0.052185 0.017365
0.323975 0.058472 0.019592
0.359253 0.062744 0.020721
0.394897 0.067780 0.024017
0.430267 0.073975 0.025848
0.464600 0.080200 0.027283
0.495544 0.083344 0.029022
0.528412 0.089478 0.030579
0.559937 0.095642 0.032074
0.587921 0.098785 0.033783
0.619537 0.104797 0.033783
0.648438 0.109833 0.037079
0.676575 0.114014 0.037079
0.706696 0.119110 0.040192
0.738312 0.123077 0.040283
0.769989 0.129150 0.040985
0.804382 0.135193 0.043518
0.842896 0.141266 0.046600
0.879028 0.147217 0.046692
0.909760 0.153320 0.049835
0.938629 0.156097 0.049957
0.945068 0.156158 0.049957
0.951508 0.156158 0.049957
0.004913 0.027405 0.006989
0.007965 0.024567 0.007080
0.016113 0.021484 0.007202
0.024597 0.024261 0.007080
0.045837 0.030731 0.003693
0.078400 0.036804 0.003326
0.130829 0.043488 0.006531
0.177246 0.052765 0.009888
0.221375 0.061646 0.013153
0.254852 0.065491 0.014008
0.288330 0.071533 0.016541
0.327148 0.075684 0.019592
0.362396 0.080963 0.020721
0.397736 0.086945 0.022858
0.431946 0.093109 0.024017
0.462830 0.096283 0.027283
0.495453 0.102264 0.028931
0.526886 0.105469 0.030579
0.555298 0.111572 0.030579
0.586487 0.114563 0.033783
0.613647 0.119324 0.033783
0.643616 0.123657 0.037048
0.674408 0.129517 0.037079
0.703583 0.132690 0.038177
0.737457 0.138763 0.040283
0.767212 0.144135 0.041199
0.803619 0.150635 0.043518
0.839661 0.156677 0.046692
0.873047 0.159821 0.046692
0.911896 0.168427 0.049927
0.938629 0.171631 0.049957
0.945068 0.171631 0.049957
0.951508 0.171631 0.049957
0.014893 0.055939 0.019775
0.018158 0.053223 0.016754
0.021179 0.049744 0.013794
0.022003 0.044037 0.017090
0.029816 0.041138 0.013794
0.059448 0.049957 0.007080
0.109650 0.059387 0.004028
0.165619 0.068451 0.006775
0.215363 0.075348 0.010101
0.253784 0.081238 0.013367
0.291107 0.087402 0.014008
0.327148 0.093567 0.017395
0.363220 0.099701 0.019775
0.397736 0.102966 0.020721
0.432312 0.108826 0.024017
0.464417 0.112122 0.026062
0.493988 0.117920 0.027283
0.523743 0.121216 0.029114
0.555206 0.127014 0.030579
0.584076 0.131805 0.032196
0.613464 0.134857 0.033783
0.640717 0.139313 0.035217
0.670471 0.142273 0.037079
0.700562 0.148346 0.037994
0.733704 0.153259 0.040283
0.766571 0.159393 0.040985
0.798981 0.163330 0.043518
0.838898 0.169342 0.046692
0.875427 0.175354 0.046692
0.912079 0.181335 0.049927
0.938629 0.186798 0.049957
0.945068 0.186798 0.049957
0.951508 0.186798 0.049957
0.023071 0.084656 0.029755
0.029114 0.084930 0.030060
0.032104 0.081696 0.026459
0.032166 0.078156 0.023285
0.032196 0.067688 0.024017
0.043304 0.066040 0.020813
0.082642 0.075836 0.010406
0.141266 0.084747 0.009766
0.195587 0.090881 0.007202
0.245178 0.097046 0.010101
0.285400 0.102997 0.013367
0.328064 0.109253 0.016235
0.364227 0.115387 0.017395
0.397736 0.118774 0.020721
0.431946 0.124481 0.022980
0.465637 0.128876 0.024017
0.493988 0.133514 0.026062
0.525513 0.138306 0.027283
0.554932 0.142548 0.030579
0.585297 0.147339 0.030579
0.611969 0.151550 0.032196
0.640442 0.156525 0.033783
0.671387 0.160522 0.035217
0.700562 0.163483 0.037079
0.731049 0.169128 0.038269
0.765167 0.173492 0.040283
0.797638 0.178436 0.043518
0.834198 0.184814 0.044006
0.876099 0.190369 0.046692
0.912384 0.196350 0.049927
0.938629 0.199707 0.049957
0.945068 0.199493 0.049957
0.951508 0.199493 0.049957
0.036163 0.115723 0.045197
0.042023 0.115723 0.045197
0.047882 0.118134 0.042206
0.048615 0.112823 0.033081
0.044037 0.106628 0.026978
0.043335 0.092987 0.025024
0.064575 0.091248 0.026154
0.117035 0.100800 0.020386
0.170288 0.109467 0.012939
0.223877 0.115814 0.007080
0.273987 0.118835 0.007751
0.322083 0.124908 0.011139
0.359253 0.129059 0.014526
0.397003 0.135223 0.017395
0.432861 0.140503 0.020721
0.464417 0.146057 0.022980
0.494995 0.150024 0.024017
0.524231 0.153625 0.026062
0.556122 0.158020 0.027283
0.585297 0.162781 0.029144
0.612061 0.166962 0.030579
0.640442 0.171936 0.032196
0.670471 0.175934 0.033783
0.700562 0.179352 0.035217
0.732452 0.186676 0.037079
0.764313 0.190674 0.040283
0.798065 0.196228 0.040283
0.837311 0.202789 0.043518
0.871765 0.206177 0.044403
0.911896 0.211914 0.046692
0.938629 0.217407 0.049927
0.945068 0.217407 0.049957
0.951508 0.217407 0.049957
0.047516 0.147156 0.058319
0.053406 0.146667 0.058319
0.058960 0.146576 0.057922
0.062408 0.146851 0.049042
0.062775 0.146179 0.033417
0.057434 0.134521 0.022888
0.060120 0.113770 0.035248
0.104004 0.113190 0.036469
0.146515 0.125183 0.033386
0.200256 0.137024 0.020416
0.257599 0.140594 0.008057
0.307587 0.144073 0.007202
0.353546 0.147705 0.010620
0.394135 0.155029 0.013275
0.430267 0.158539 0.016541
0.463959 0.162964 0.019775
0.495453 0.167542 0.021332
0.526703 0.172119 0.023987
0.556580 0.175171 0.026062
0.584076 0.179443 0.027283
0.613464 0.185425 0.027893
0.640442 0.188934 0.030579
0.671387 0.194336 0.032196
0.700562 0.197266 0.033783
0.731232 0.202484 0.035217
0.763855 0.206146 0.037079
0.797577 0.212097 0.040283
0.834290 0.218048 0.040802
0.870819 0.223969 0.043518
0.912079 0.229919 0.046692
0.938629 0.233398 0.046692
0.945068 0.234985 0.046692
0.951508 0.235657 0.046692
0.061279 0.183105 0.073944
0.069397 0.184845 0.076385
0.075378 0.185516 0.076385
0.076569 0.180725 0.068207
0.081390 0.184753 0.060303
0.079437 0.179230 0.052826
0.074493 0.161499 0.039581
0.103485 0.141022 0.037079
0.138275 0.137970 0.047729
0.180359 0.149170 0.042297
0.237610 0.163971 0.029724
0.292694 0.171234 0.012634
0.347443 0.175873 0.007751
0.391205 0.175232 0.009979
0.427948 0.180054 0.011353
0.464142 0.183746 0.014740
0.494812 0.185303 0.018066
0.526276 0.190491 0.020721
0.555573 0.193817 0.022858
0.584198 0.197815 0.024017
0.613464 0.202606 0.025970
0.640442 0.205658 0.027283
0.670471 0.209625 0.029022
0.700562 0.215576 0.030579
0.732269 0.220123 0.033783
0.766846 0.224457 0.035217
0.800629 0.230347 0.037048
0.834290 0.235626 0.038269
0.872131 0.240234 0.040985
0.909363 0.245087 0.043518
0.938629 0.251495 0.044220
0.945068 0.251495 0.044220
0.951508 0.251495 0.044220
0.077972 0.221680 0.092560
0.083282 0.221008 0.091858
0.089417 0.221100 0.091980
0.095245 0.221405 0.091278
0.098724 0.221680 0.085541
0.091980 0.221405 0.078949
0.079285 0.212433 0.061676
0.124054 0.191803 0.036255
0.143311 0.163300 0.056305
0.177460 0.162323 0.057922
0.219666 0.172272 0.051727
0.277618 0.191345 0.039246
0.338440 0.202789 0.021942
0.384247 0.206848 0.010620
0.426758 0.205627 0.007202
0.462830 0.210358 0.009888
0.496918 0.209595 0.013153
0.527466 0.211121 0.016388
0.556213 0.214142 0.018219
0.584564 0.218384 0.020721
0.613464 0.222046 0.022797
0.640442 0.224976 0.024017
0.670471 0.229218 0.025848
0.700562 0.233826 0.027283
0.732178 0.239746 0.030579
0.764496 0.242645 0.032074
0.798157 0.246094 0.033783
0.836853 0.254486 0.037079
0.872345 0.258514 0.038269
0.907623 0.265503 0.040283
0.938629 0.268982 0.043518
0.945068 0.268982 0.043518
0.951508 0.268982 0.043518
0.093964 0.262787 0.110138
0.099945 0.262787 0.110138
0.105957 0.262787 0.110138
0.112000 0.262787 0.110138
0.117584 0.261841 0.106567
0.115326 0.260254 0.100830
0.106689 0.258606 0.094025
0.132477 0.250641 0.074097
0.168762 0.221161 0.058716
0.174286 0.185638 0.064087
0.218048 0.187805 0.065063
0.267273 0.201721 0.061096
0.321594 0.218536 0.049622
0.378082 0.232849 0.030334
0.425598 0.242126 0.017456
0.466003 0.241211 0.007202
0.502228 0.241943 0.006439
0.533997 0.242615 0.009766
0.561249 0.243469 0.011566
0.588287 0.242249 0.014954
0.614502 0.245422 0.017395
0.641571 0.246460 0.019470
0.670471 0.250305 0.021637
0.700562 0.254150 0.024017
0.730652 0.257904 0.025757
0.764496 0.263794 0.028198
0.799011 0.268860 0.030548
0.836395 0.274292 0.033783
0.871674 0.278870 0.035126
0.910675 0.286499 0.037994
0.938629 0.287262 0.040070
0.945068 0.289948 0.038086
0.951508 0.289185 0.037994
0.113586 0.304382 0.131470
0.117676 0.302338 0.129395
0.125671 0.304382 0.131470
0.131714 0.304382 0.130829
0.136902 0.304382 0.127869
0.138153 0.304382 0.124847
0.119690 0.301422 0.121857
0.095734 0.300842 0.109650
0.187469 0.292999 0.070801
0.216003 0.251953 0.075684
0.224762 0.218231 0.076508
0.263519 0.217316 0.074341
0.315796 0.230835 0.070190
0.370300 0.249512 0.059998
0.421722 0.267456 0.043732
0.467407 0.278015 0.026215
0.502319 0.279419 0.013580
0.536774 0.279144 0.003693
0.567627 0.278503 0.004791
0.592804 0.277252 0.007294
0.619446 0.274536 0.010620
0.646545 0.275482 0.012848
0.673492 0.276428 0.015076
0.700562 0.279419 0.018402
0.730682 0.281097 0.021759
0.763855 0.286316 0.022461
0.799103 0.289856 0.025635
0.836395 0.295258 0.028809
0.872498 0.301575 0.031555
0.912354 0.305389 0.033783
0.938629 0.310150 0.034821
0.945068 0.310150 0.034821
0.951508 0.310150 0.034821
0.132385 0.348724 0.151672
0.138428 0.348724 0.151672
0.144501 0.348724 0.151672
0.150604 0.348724 0.151672
0.156708 0.348724 0.149628
0.160339 0.348175 0.148590
0.151398 0.347656 0.146118
0.127747 0.345367 0.139282
0.176331 0.339569 0.112274
0.252197 0.326385 0.071686
0.263153 0.284698 0.086884
0.271362 0.250458 0.085724
0.310181 0.247467 0.082581
0.364655 0.261871 0.079437
0.414612 0.281219 0.069214
0.462646 0.299683 0.056427
0.503357 0.312164 0.039062
0.538208 0.318481 0.022980
0.572205 0.319702 0.008698
0.599426 0.319031 0.002197
0.626312 0.316101 0.001251
0.651428 0.314117 0.004883
0.678558 0.313202 0.007172
0.704712 0.311157 0.010498
0.733704 0.311157 0.013763
0.764862 0.312836 0.017029
0.799194 0.315674 0.019135
0.835327 0.319580 0.022369
0.871063 0.325104 0.025543
0.912384 0.328308 0.028717
0.938629 0.333954 0.030548
0.945068 0.333954 0.030548
0.951508 0.333954 0.030548
0.152100 0.392822 0.172607
0.158173 0.392822 0.172607
0.164307 0.392822 0.172607
0.170380 0.392822 0.172607
0.176514 0.392822 0.172607
0.180817 0.392822 0.170746
0.178802 0.391693 0.169556
0.154724 0.389862 0.164154
0.141846 0.386536 0.149750
0.244232 0.380463 0.104858
0.302826 0.359558 0.089264
0.311584 0.317444 0.098022
0.321136 0.283478 0.096069
0.358124 0.279327 0.091797
0.410614 0.292572 0.086884
0.460632 0.313965 0.079803
0.499908 0.330719 0.070587
0.542572 0.348206 0.052216
0.576385 0.356812 0.033173
0.604034 0.360321 0.019501
0.632233 0.360321 0.006744
0.657349 0.357391 0.001038
0.683441 0.354370 0.001373
0.710663 0.351440 0.001373
0.739716 0.349579 0.005005
0.768738 0.348480 0.008484
0.802490 0.346649 0.011902
0.834290 0.349579 0.015808
0.870026 0.351074 0.019073
0.912384 0.355042 0.022247
0.938629 0.357910 0.025238
0.945068 0.357727 0.025238
0.951508 0.358826 0.025238
0.171906 0.436707 0.193512
0.178009 0.436707 0.193512
0.184143 0.440186 0.193512
0.190247 0.436707 0.193512
0.196381 0.436707 0.193512
0.201263 0.437164 0.192200
0.203369 0.437347 0.191711
0.182617 0.433777 0.188110
0.150543 0.430847 0.181671
0.217590 0.427887 0.148315
0.311737 0.420349 0.066467
0.354218 0.394379 0.102203
0.360535 0.352936 0.110138
0.366943 0.318024 0.104065
0.404144 0.312103 0.102295
0.449585 0.323639 0.098022
0.499359 0.346344 0.093140
0.542297 0.363983 0.080200
0.578369 0.380615 0.066101
0.610504 0.394440 0.050995
0.637482 0.399017 0.029999
0.663269 0.401428 0.015137
0.689362 0.398499 0.006744
0.714417 0.396454 0.001160
0.742706 0.393585 0.000000
0.771667 0.390747 0.001495
0.804199 0.386719 0.002197
0.838074 0.386261 0.005676
0.871460 0.384949 0.010406
0.912384 0.386444 0.013702
0.938629 0.386139 0.018707
0.945068 0.386322 0.018646
0.951508 0.386139 0.018738
0.193054 0.483368 0.215637
0.196320 0.477509 0.212646
0.203522 0.479706 0.213745
0.208588 0.477509 0.212646
0.214722 0.477509 0.212646
0.222504 0.480804 0.214325
0.222321 0.477509 0.212646
0.212158 0.479156 0.211304
0.184692 0.476074 0.206787
0.174011 0.471191 0.190155
0.281250 0.466187 0.143158
0.371674 0.458191 0.101013
0.401978 0.427704 0.120117
0.406952 0.389282 0.120972
0.412842 0.350677 0.113159
0.449829 0.346344 0.111511
0.492676 0.357880 0.108704
0.533813 0.373474 0.102692
0.577148 0.396423 0.092560
0.609192 0.412903 0.078552
0.640472 0.426208 0.061676
0.668152 0.435486 0.044220
0.695312 0.442017 0.029083
0.720337 0.440277 0.014374
0.747467 0.436523 0.003174
0.777222 0.437164 0.000000
0.807983 0.431915 0.000000
0.841553 0.430542 0.000000
0.874786 0.427338 0.001617
0.909668 0.421844 0.001953
0.938629 0.422028 0.008484
0.945068 0.421844 0.008698
0.951508 0.426056 0.006714
0.207275 0.518219 0.230438
0.214691 0.520721 0.231750
0.219604 0.518219 0.230438
0.226837 0.520386 0.231567
0.231903 0.518219 0.230438
0.240082 0.520660 0.232483
0.241882 0.518219 0.230438
0.238586 0.520386 0.232697
0.208832 0.519653 0.229034
0.149231 0.515808 0.220825
0.254517 0.509460 0.185059
0.363098 0.501373 0.112000
0.431519 0.494690 0.118164
0.446075 0.460419 0.134583
0.446259 0.416626 0.129761
0.458649 0.386292 0.125336
0.491180 0.380310 0.122345
0.533691 0.388672 0.120819
0.572571 0.405884 0.114990
0.608917 0.425018 0.105896
0.642578 0.443054 0.092651
0.670502 0.459473 0.075226
0.698242 0.469269 0.056824
0.726196 0.475769 0.039642
0.753387 0.478058 0.022766
0.783569 0.480255 0.007690
0.811340 0.473877 0.001282
0.841003 0.471039 0.000000
0.878754 0.470764 0.000000
0.910980 0.462677 0.000000
0.938629 0.462677 0.000000
0.945068 0.462677 0.000000
0.951508 0.464233 0.000000
0.225922 0.558716 0.249695
0.230591 0.557251 0.248169
0.236786 0.557251 0.248169
0.245605 0.559875 0.250916
0.251709 0.559784 0.250824
0.255798 0.557709 0.248657
0.261139 0.559235 0.250244
0.258728 0.559509 0.250519
0.242462 0.558716 0.247437
0.193237 0.554321 0.243896
0.222839 0.549438 0.220703
0.338074 0.544708 0.167419
0.425293 0.537964 0.097992
0.477356 0.525330 0.134552
0.491211 0.492798 0.146454
0.490723 0.451782 0.141968
0.499939 0.416992 0.134399
0.528198 0.409729 0.132935
0.567993 0.419403 0.131287
0.603027 0.435272 0.125427
0.640076 0.455505 0.118164
0.671997 0.472809 0.107544
0.700592 0.490051 0.091583
0.728363 0.502106 0.071716
0.757080 0.511414 0.050720
0.786499 0.517151 0.032349
0.815704 0.516113 0.012695
0.845917 0.515503 0.003052
0.877991 0.511017 0.000000
0.912079 0.508667 0.000000
0.938629 0.504852 0.000000
0.945068 0.504852 0.000000
0.951508 0.504852 0.000000
0.243195 0.596375 0.267456
0.249268 0.594818 0.265991
0.255371 0.594666 0.265869
0.261749 0.596375 0.267487
0.266754 0.594025 0.266266
0.272583 0.593292 0.265900
0.277435 0.593964 0.266907
0.277496 0.594208 0.266815
0.264008 0.594849 0.265900
0.226532 0.591217 0.262146
0.185730 0.586884 0.248413
0.311615 0.581329 0.205933
0.410400 0.572723 0.133484
0.480591 0.570099 0.108673
0.518951 0.553284 0.154877
0.528625 0.517975 0.157104
0.527771 0.479431 0.151062
0.536865 0.448975 0.144836
0.566956 0.443298 0.145020
0.600281 0.450531 0.142151
0.634460 0.465912 0.137543
0.669098 0.484344 0.128784
0.700562 0.501984 0.116608
0.732300 0.520782 0.102203
0.758484 0.534149 0.081757
0.791046 0.546295 0.061676
0.818481 0.551483 0.041290
0.848297 0.551758 0.022003
0.881744 0.549744 0.005707
0.912384 0.549500 0.000000
0.938629 0.546448 0.000000
0.945068 0.545135 0.000000
0.951508 0.546814 0.000000
0.257599 0.629486 0.282227
0.262421 0.626892 0.280853
0.269989 0.629486 0.282227
0.274628 0.626709 0.280670
0.280762 0.626617 0.280579
0.288574 0.626984 0.280945
0.292450 0.626984 0.282227
0.294800 0.629486 0.282227
0.284149 0.626404 0.281311
0.256134 0.625336 0.279266
0.172150 0.624603 0.273468
0.269989 0.617645 0.243103
0.391632 0.610291 0.175262
0.476135 0.605164 0.081085
0.529816 0.598541 0.140106
0.558716 0.583008 0.169312
0.563171 0.545929 0.167694
0.564819 0.507080 0.161499
0.572479 0.479614 0.155487
0.601501 0.472504 0.155487
0.633148 0.479614 0.152405
0.664490 0.494049 0.148285
0.698120 0.511902 0.140137
0.727692 0.530640 0.128784
0.760071 0.548828 0.116058
0.788025 0.562592 0.093353
0.818787 0.575165 0.071777
0.851532 0.583954 0.048492
0.880066 0.583466 0.028503
0.911346 0.584778 0.009064
0.938629 0.581512 0.003143
0.945068 0.581512 0.003143
0.951508 0.583130 0.003143
0.269135 0.658844 0.293976
0.276520 0.660004 0.295197
0.282745 0.660004 0.295197
0.288940 0.658569 0.295197
0.295166 0.659637 0.295197
0.301361 0.658752 0.295197
0.306946 0.660004 0.296997
0.309204 0.660004 0.296997
0.301636 0.659302 0.296234
0.278290 0.658295 0.293976
0.223053 0.657135 0.291107
0.239899 0.651611 0.271698
0.361664 0.642578 0.223755
0.461060 0.636353 0.142670
0.529877 0.635254 0.115509
0.574066 0.630035 0.171478
0.594452 0.608063 0.185455
0.597626 0.574005 0.179657
0.599365 0.537842 0.173492
0.606934 0.508606 0.167480
0.631561 0.504333 0.166260
0.661499 0.509979 0.164429
0.694275 0.523193 0.157684
0.725067 0.540466 0.152618
0.757355 0.557281 0.140930
0.789795 0.578522 0.126312
0.818878 0.593872 0.104950
0.849731 0.606506 0.081604
0.880920 0.612946 0.057983
0.913055 0.614929 0.035217
0.935638 0.617798 0.020782
0.942047 0.617798 0.020752
0.948486 0.617798 0.020752
0.283630 0.688782 0.308746
0.289825 0.688782 0.308746
0.296051 0.688782 0.308746
0.302246 0.688782 0.308746
0.308472 0.688782 0.308746
0.314209 0.688354 0.308258
0.320923 0.688782 0.308746
0.321899 0.688782 0.308746
0.318268 0.687714 0.308746
0.299713 0.688782 0.308746
0.251312 0.685028 0.306671
0.186279 0.682220 0.292053
0.327087 0.675476 0.257172
0.438690 0.669800 0.192688
0.516754 0.665741 0.103119
0.576050 0.661774 0.152832
0.612823 0.658539 0.190887
0.626007 0.631561 0.197388
0.627777 0.601929 0.193329
0.631042 0.570282 0.185455
0.638611 0.539337 0.179474
0.661591 0.533508 0.176453
0.691528 0.538055 0.176422
0.721649 0.551971 0.170624
0.754425 0.568054 0.163879
0.786865 0.588104 0.151062
0.820068 0.605194 0.137238
0.849640 0.621155 0.115479
0.881744 0.634308 0.089020
0.912079 0.641815 0.064545
0.935638 0.645538 0.049530
0.942047 0.645538 0.049530
0.948486 0.645538 0.047485
0.295135 0.717590 0.320404
0.301361 0.717590 0.320404
0.307587 0.717590 0.320404
0.313812 0.717590 0.320404
0.319672 0.717224 0.320038
0.326263 0.717590 0.320404
0.332489 0.717590 0.320404
0.334503 0.717590 0.321442
0.331696 0.717590 0.321442
0.318054 0.717590 0.321442
0.274414 0.715607 0.320404
0.163940 0.712830 0.310669
0.292694 0.707153 0.281586
0.418182 0.699585 0.230988
0.504456 0.693542 0.154938
0.565033 0.691650 0.118835
0.613007 0.690216 0.176056
0.647034 0.682831 0.208588
0.652710 0.655670 0.209320
0.657562 0.626068 0.206207
0.660004 0.594757 0.197388
0.667511 0.568268 0.191437
0.693512 0.561493 0.188416
0.719482 0.567108 0.188416
0.753784 0.580536 0.182587
0.781952 0.595215 0.173950
0.817627 0.614655 0.161957
0.850464 0.631897 0.146851
0.879120 0.646515 0.126495
0.910126 0.661133 0.100342
0.935638 0.666656 0.080719
0.942078 0.666656 0.080688
0.948486 0.666656 0.080688
0.306702 0.746277 0.332092
0.314850 0.748138 0.334045
0.319153 0.746277 0.332092
0.325378 0.746277 0.332092
0.331604 0.746277 0.332092
0.337860 0.746277 0.332092
0.345551 0.747711 0.334503
0.348022 0.746277 0.335052
0.347534 0.746277 0.335052
0.334625 0.746277 0.335052
0.302551 0.743408 0.333954
0.231506 0.741547 0.327179
0.266876 0.735870 0.306854
0.401123 0.730225 0.259338
0.490662 0.723297 0.197632
0.555115 0.719788 0.122803
0.609039 0.717529 0.144958
0.650940 0.715729 0.199951
0.675446 0.705658 0.222809
0.683228 0.679810 0.224213
0.684784 0.649445 0.218079
0.688171 0.620972 0.209351
0.696594 0.596283 0.203369
0.719574 0.590485 0.200348
0.749573 0.595917 0.200348
0.778900 0.607056 0.194580
0.812134 0.621216 0.185944
0.848022 0.641266 0.173920
0.875732 0.657379 0.158539
0.911133 0.674438 0.132843
0.932587 0.683197 0.115479
0.938995 0.683197 0.115448
0.945435 0.683197 0.115448
0.320374 0.777069 0.345886
0.324524 0.775024 0.343781
0.330750 0.775024 0.343781
0.337830 0.775818 0.344635
0.343231 0.775024 0.343781
0.350281 0.775024 0.343781
0.356262 0.775024 0.346741
0.361969 0.777252 0.346741
0.358704 0.775024 0.346741
0.350403 0.772949 0.346741
0.323914 0.772125 0.346741
0.262451 0.770233 0.342651
0.224792 0.767456 0.327301
0.356354 0.758972 0.292358
0.466919 0.753296 0.240479
0.542328 0.749146 0.167816
0.603058 0.747101 0.114288
0.650085 0.744232 0.180359
0.685974 0.744141 0.223541
0.706940 0.729309 0.238983
0.711273 0.702057 0.236084
0.714722 0.675537 0.230164
0.718201 0.647125 0.222076
0.724701 0.624420 0.215271
0.749512 0.617279 0.213104
0.781311 0.624237 0.212463
0.809418 0.633362 0.206512
0.842438 0.649719 0.197510
0.877411 0.666779 0.183746
0.907654 0.683441 0.168213
0.929535 0.694183 0.151855
0.935944 0.694183 0.156250
0.942383 0.694183 0.151825
0.330627 0.803619 0.355469
0.336853 0.803619 0.355469
0.345093 0.806305 0.358215
0.349335 0.804321 0.356201
0.355591 0.803619 0.355469
0.363556 0.806030 0.357941
0.370300 0.805939 0.359131
0.374268 0.804230 0.358398
0.374695 0.805756 0.360626
0.365692 0.803070 0.359222
0.344543 0.800751 0.358398
0.294281 0.800751 0.358398
0.204163 0.796143 0.345428
0.322540 0.791168 0.318481
0.442871 0.784851 0.276611
0.525421 0.779999 0.216705
0.588837 0.775665 0.138214
0.641937 0.772797 0.125671
0.680908 0.772797 0.198212
0.719025 0.773163 0.241333
0.740204 0.759552 0.256805
0.741364 0.726959 0.251678
0.746155 0.703308 0.247833
0.745422 0.673126 0.236816
0.753296 0.649811 0.229401
0.781311 0.644806 0.229492
0.811188 0.650330 0.224304
0.842438 0.661957 0.218842
0.872284 0.673584 0.209808
0.905273 0.692383 0.198059
0.928772 0.703125 0.184021
0.935181 0.703125 0.186310
0.941620 0.703125 0.184021
0.344391 0.834442 0.370026
0.351288 0.834991 0.370026
0.356903 0.832214 0.370026
0.363159 0.832214 0.370026
0.370056 0.833191 0.370026
0.375641 0.832214 0.370026
0.381927 0.833923 0.371796
0.385864 0.832825 0.370697
0.386322 0.834442 0.373016
0.380188 0.832214 0.373016
0.361969 0.830872 0.373016
0.320007 0.829376 0.371704
0.241272 0.826477 0.364044
0.286224 0.823090 0.343018
0.410187 0.816925 0.306915
0.502716 0.810669 0.259277
0.574341 0.805664 0.191833
0.631409 0.805023 0.122406
0.675171 0.801392 0.161102
0.716949 0.802979 0.226227
0.750946 0.797577 0.260956
0.767426 0.782990 0.271606
0.769104 0.754059 0.266632
0.774384 0.727417 0.262634
0.775665 0.699188 0.251556
0.784973 0.677124 0.243286
0.808655 0.670746 0.244324
0.837036 0.674713 0.239838
0.871643 0.687500 0.233521
0.902313 0.701385 0.224304
0.925812 0.709869 0.213867
0.932251 0.709869 0.214508
0.938660 0.709869 0.213837
0.356049 0.860748 0.381683
0.364563 0.862976 0.383972
0.369080 0.861298 0.382233
0.377747 0.863586 0.384613
0.383087 0.862701 0.383698
0.387848 0.860779 0.381683
0.394684 0.861298 0.384613
0.399841 0.862457 0.384613
0.399261 0.861481 0.384644
0.396271 0.863586 0.387543
0.381989 0.861298 0.385193
0.348358 0.860748 0.386536
0.278564 0.857178 0.380371
0.239960 0.853912 0.363953
0.379944 0.848236 0.334320
0.484070 0.843079 0.294128
0.556091 0.836487 0.242523
0.618042 0.835022 0.164978
0.668518 0.831635 0.079498
0.710907 0.831024 0.188568
0.750000 0.830383 0.246338
0.781097 0.824585 0.278687
0.795593 0.806946 0.286346
0.801147 0.781342 0.283478
0.805206 0.753906 0.277924
