cube滤镜(3D LUT)/Merlinite.cube
# Created by: Lutify.me
# Copyright: (c) Copyright Lutify.me 2015
# Website: https://lutify.me
#LUT size
LUT_3D_SIZE 9
#LUT data points
0.000000 0.000000 0.000000
0.048798 0.000000 0.003204
0.198853 0.019897 0.013153
0.352448 0.035858 0.022797
0.499908 0.064270 0.030579
0.622467 0.085907 0.037079
0.740448 0.110443 0.040283
0.879120 0.131714 0.046692
0.951508 0.143585 0.049957
0.023071 0.084656 0.029755
0.032196 0.067688 0.024017
0.195587 0.090881 0.007202
0.364227 0.115387 0.017395
0.493988 0.133514 0.026062
0.611969 0.151550 0.032196
0.731049 0.169128 0.038269
0.876099 0.190369 0.046692
0.951508 0.199493 0.049957
0.077972 0.221680 0.092560
0.098724 0.221680 0.085541
0.143311 0.163300 0.056305
0.338440 0.202789 0.021942
0.496918 0.209595 0.013153
0.613464 0.222046 0.022797
0.732178 0.239746 0.030579
0.872345 0.258514 0.038269
0.951508 0.268982 0.043518
0.152100 0.392822 0.172607
0.176514 0.392822 0.172607
0.141846 0.386536 0.149750
0.321136 0.283478 0.096069
0.499908 0.330719 0.070587
0.632233 0.360321 0.006744
0.739716 0.349579 0.005005
0.870026 0.351074 0.019073
0.951508 0.358826 0.025238
0.225922 0.558716 0.249695
0.251709 0.559784 0.250824
0.242462 0.558716 0.247437
0.425293 0.537964 0.097992
0.499939 0.416992 0.134399
0.640076 0.455505 0.118164
0.757080 0.511414 0.050720
0.877991 0.511017 0.000000
0.951508 0.504852 0.000000
0.283630 0.688782 0.308746
0.308472 0.688782 0.308746
0.318268 0.687714 0.308746
0.327087 0.675476 0.257172
0.612823 0.658539 0.190887
0.638611 0.539337 0.179474
0.754425 0.568054 0.163879
0.881744 0.634308 0.089020
0.948486 0.645538 0.047485
0.330627 0.803619 0.355469
0.355591 0.803619 0.355469
0.374695 0.805756 0.360626
0.204163 0.796143 0.345428
0.588837 0.775665 0.138214
0.740204 0.759552 0.256805
0.753296 0.649811 0.229401
0.872284 0.673584 0.209808
0.941620 0.703125 0.184021
0.382629 0.920624 0.408203
0.409546 0.922394 0.410034
0.427643 0.923126 0.411133
0.343597 0.918854 0.412231
0.508118 0.899963 0.319122
0.735687 0.891418 0.150055
0.857635 0.868561 0.321686
0.872284 0.754456 0.289368
0.930237 0.748688 0.287109
0.408142 0.954712 0.433502
0.433228 0.954712 0.433502
0.453217 0.954712 0.433502
0.391571 0.954712 0.436493
0.453796 0.954712 0.373169
0.716064 0.954712 0.153015
0.873566 0.951874 0.325775
0.913239 0.858124 0.335449
0.933289 0.809174 0.315399
0.012634 0.032959 0.097137
0.038422 0.033386 0.100647
0.146149 0.003693 0.094391
0.328094 0.019470 0.051453
0.508087 0.023193 0.057800
0.638611 0.037842 0.067322
0.757080 0.070190 0.071289
0.881744 0.097626 0.076813
0.951508 0.106995 0.079926
0.010651 0.090881 0.106445
0.041199 0.093994 0.109558
0.191589 0.098328 0.082275
0.352448 0.124298 0.075623
0.500275 0.149261 0.074829
0.620941 0.167206 0.071686
0.739716 0.187744 0.068909
0.876862 0.209290 0.063385
0.951508 0.223297 0.062988
0.052368 0.215240 0.088531
0.076447 0.216400 0.088928
0.137909 0.192963 0.109161
0.352081 0.206940 0.081909
0.494720 0.217529 0.069702
0.613098 0.235229 0.068909
0.733337 0.253265 0.062592
0.872681 0.274200 0.053040
0.951508 0.283569 0.053864
0.135590 0.389862 0.152679
0.159912 0.389862 0.153442
0.151550 0.389862 0.174042
0.322968 0.315460 0.151947
0.502899 0.356995 0.108795
0.622070 0.349579 0.081116
0.731415 0.347382 0.072449
0.872681 0.360718 0.068512
0.951508 0.369202 0.065735
0.213165 0.554352 0.243225
0.237823 0.555786 0.244720
0.254517 0.556519 0.264954
0.370514 0.541992 0.164520
0.502899 0.447418 0.187347
0.643127 0.488403 0.154633
0.750671 0.515778 0.095184
0.874969 0.502655 0.080719
0.951508 0.496460 0.076019
0.271912 0.686279 0.306000
0.295258 0.684845 0.306000
0.319366 0.688782 0.326080
0.237274 0.681244 0.308624
0.594818 0.661407 0.211578
0.638611 0.565155 0.228546
0.757446 0.597412 0.200226
0.881012 0.645538 0.115784
0.951508 0.648407 0.094025
0.321014 0.801453 0.358307
0.346344 0.801117 0.358307
0.371704 0.803619 0.377136
0.259186 0.801483 0.378265
0.552155 0.777832 0.214966
0.732666 0.767090 0.288116
0.758179 0.671417 0.279907
0.877228 0.698425 0.245087
0.942383 0.723633 0.211578
0.373749 0.922394 0.413208
0.398804 0.918488 0.412842
0.425018 0.920624 0.429382
0.362762 0.919220 0.434174
0.454559 0.907104 0.371613
0.708557 0.892120 0.155731
0.856079 0.880005 0.356079
0.872681 0.771301 0.334961
0.933289 0.768402 0.332397
0.396667 0.954712 0.438202
0.421722 0.954712 0.438202
0.452454 0.954712 0.452850
0.398254 0.954712 0.458313
0.397064 0.954712 0.414337
0.681824 0.954712 0.249908
0.858398 0.951874 0.335327
0.913239 0.874573 0.377533
0.933289 0.825958 0.360504
0.038879 0.094910 0.206573
0.057526 0.076904 0.214142
0.141876 0.001801 0.232971
0.329224 0.010193 0.218658
0.508881 0.027283 0.159454
0.649475 0.037079 0.107117
0.767639 0.043518 0.097076
0.886688 0.033417 0.103271
0.951508 0.056305 0.103271
0.036774 0.154602 0.222443
0.060333 0.148865 0.218658
0.135406 0.083069 0.230713
0.326630 0.081909 0.210724
0.506989 0.078735 0.149139
0.645721 0.090881 0.109863
0.757446 0.124268 0.102081
0.884430 0.163391 0.104401
0.951508 0.175964 0.104797
0.012970 0.217896 0.232971
0.036011 0.219025 0.233704
0.148315 0.225464 0.240509
0.351349 0.222809 0.184967
0.501404 0.247986 0.182312
0.622467 0.267853 0.181549
0.741974 0.289154 0.183075
0.876495 0.309265 0.181549
0.951508 0.321167 0.180054
0.087524 0.383575 0.220551
0.109772 0.383575 0.224304
0.130035 0.380280 0.243469
0.326996 0.355499 0.255127
0.498444 0.352539 0.186493
0.611603 0.347748 0.167084
0.730652 0.360352 0.167480
0.871948 0.379913 0.166718
0.951508 0.389496 0.165588
0.175171 0.549255 0.145721
0.200745 0.550720 0.143799
0.231537 0.554321 0.167114
0.277130 0.551819 0.197510
0.504395 0.477081 0.282410
0.640442 0.513947 0.230713
0.741211 0.506317 0.186890
0.872314 0.494629 0.169006
0.951508 0.493896 0.166351
0.238281 0.680176 0.212585
0.263031 0.680878 0.213745
0.299561 0.685913 0.262634
0.169464 0.685913 0.303680
0.558136 0.664307 0.241974
0.641602 0.590881 0.318176
0.760437 0.626373 0.280579
0.880615 0.646973 0.202393
0.951508 0.640472 0.191071
0.290222 0.795074 0.292877
0.315094 0.795410 0.293243
0.352539 0.799347 0.330048
0.274902 0.800751 0.365631
0.492462 0.784302 0.268951
0.714569 0.772095 0.341919
0.757812 0.690186 0.356750
0.878357 0.721802 0.319305
0.945435 0.746277 0.273468
0.347168 0.916351 0.364868
0.372528 0.916687 0.364502
0.410583 0.920288 0.395477
0.362030 0.919220 0.426361
0.379303 0.912445 0.406158
0.673157 0.895721 0.198242
0.843597 0.884277 0.402466
0.877991 0.790649 0.408020
0.935181 0.787781 0.401001
0.373383 0.954712 0.395111
0.396240 0.954712 0.393250
0.435425 0.954712 0.423065
0.395264 0.954712 0.452057
0.314087 0.954712 0.443634
0.643494 0.954712 0.299927
0.837189 0.951874 0.361145
0.916290 0.891693 0.440308
0.936310 0.842804 0.428192
0.071625 0.175659 0.346649
0.082458 0.128632 0.349945
0.103607 0.037476 0.379150
0.326630 0.000000 0.389862
0.510345 0.010193 0.384308
0.649475 0.026459 0.341827
0.766876 0.037079 0.290161
0.885193 0.046692 0.233215
0.951508 0.047913 0.210205
0.068787 0.237213 0.361450
0.093750 0.228546 0.355499
0.118927 0.137726 0.364410
0.327362 0.083862 0.390228
0.510712 0.083466 0.378784
0.648743 0.079529 0.326965
0.768402 0.079529 0.274109
0.886322 0.078735 0.220398
0.951508 0.080322 0.198486
0.056580 0.289520 0.378448
0.077148 0.293976 0.376221
0.166290 0.292145 0.359589
0.306793 0.222809 0.382111
0.510712 0.214508 0.358856
0.648743 0.214874 0.307281
0.764618 0.217529 0.262146
0.884430 0.240112 0.240387
0.951508 0.251373 0.236237
0.006042 0.381012 0.388000
0.028778 0.381012 0.388000
0.167389 0.381378 0.395386
0.321503 0.388000 0.397919
0.499908 0.370667 0.331055
0.622467 0.389099 0.327759
0.740448 0.410095 0.330322
0.876465 0.432495 0.329590
0.951508 0.440948 0.329590
0.094238 0.541992 0.384308
0.115814 0.541595 0.387634
0.126068 0.541260 0.381378
0.367188 0.528900 0.467316
0.502167 0.524872 0.432861
0.624329 0.505219 0.336639
0.730652 0.493164 0.310638
0.872681 0.506653 0.309906
0.951508 0.515411 0.309906
0.169708 0.672607 0.365875
0.193878 0.672241 0.366608
0.227539 0.674774 0.353668
0.168030 0.681244 0.296875
0.497681 0.671509 0.321411
0.644623 0.617340 0.435059
0.758575 0.647675 0.383209
0.874207 0.636505 0.329590
0.951508 0.632172 0.317322
0.228790 0.787506 0.329559
0.253174 0.787842 0.331055
0.293701 0.790375 0.303925
0.236206 0.795074 0.216278
0.422974 0.792145 0.208344
0.684448 0.773529 0.413055
0.760071 0.711395 0.463287
0.880249 0.748077 0.417480
0.948486 0.762787 0.377319
0.290222 0.907806 0.257599
0.314697 0.906403 0.258728
0.359161 0.911743 0.219299
0.335114 0.915985 0.271484
0.340179 0.912811 0.331055
0.620575 0.901733 0.207581
0.824310 0.889221 0.470612
0.878754 0.809265 0.499817
0.937805 0.810333 0.491791
0.316986 0.954712 0.223816
0.341919 0.954712 0.225739
0.387634 0.954712 0.215546
0.366089 0.954712 0.312103
0.288391 0.954712 0.374359
0.586121 0.954712 0.297943
0.812958 0.954712 0.418915
0.916656 0.906311 0.526428
0.936310 0.862427 0.516235
0.104889 0.257202 0.484406
0.112274 0.193146 0.482605
0.109680 0.102661 0.501221
0.325531 0.002716 0.540527
0.511841 0.000000 0.542725
0.649475 0.003204 0.540894
0.766876 0.018219 0.520142
0.887817 0.032196 0.477448
0.948486 0.037079 0.452209
0.098114 0.322754 0.500488
0.130127 0.313080 0.495361
0.150116 0.245850 0.493195
0.327026 0.084259 0.540863
0.510345 0.082672 0.541290
0.648743 0.083862 0.540558
0.766876 0.082672 0.511047
0.887054 0.082672 0.462463
0.948486 0.081512 0.434967
0.082886 0.378906 0.520905
0.113678 0.380768 0.513947
0.201019 0.381104 0.506287
0.284058 0.228821 0.523773
0.509613 0.215637 0.539062
0.648346 0.214508 0.533966
0.767639 0.214142 0.495361
0.886688 0.217529 0.439728
0.948486 0.218658 0.422150
0.059357 0.436920 0.532898
0.082458 0.442413 0.533966
0.183655 0.451569 0.531067
0.326996 0.439850 0.492035
0.428162 0.396851 0.512848
0.648376 0.379883 0.515411
0.766876 0.381012 0.473816
0.887054 0.379517 0.426178
0.951508 0.382843 0.411469
0.001221 0.538330 0.539795
0.024658 0.537231 0.537598
0.144012 0.536865 0.536865
0.386047 0.539093 0.552551
0.504395 0.544189 0.548523
0.624329 0.525604 0.498657
0.740448 0.536896 0.490967
0.878357 0.559784 0.492798
0.951508 0.568878 0.494598
0.069855 0.665741 0.539795
0.095184 0.665741 0.538361
0.098297 0.665741 0.539795
0.297272 0.668640 0.537964
0.542053 0.655640 0.614899
0.644989 0.659241 0.582275
0.741211 0.639740 0.499390
0.873047 0.635406 0.482910
0.951508 0.639008 0.480042
0.142761 0.779266 0.533264
0.168549 0.777832 0.532532
0.190887 0.781403 0.530334
0.204926 0.783936 0.519806
0.431519 0.789307 0.475616
0.641968 0.779999 0.500122
0.763855 0.734039 0.573944
0.882507 0.763489 0.524872
0.951508 0.762756 0.507751
0.212463 0.898193 0.519073
0.238556 0.899628 0.517975
0.276459 0.902466 0.512878
0.229309 0.907806 0.482910
0.371185 0.913513 0.426178
0.575989 0.907806 0.395660
0.794067 0.890686 0.542725
0.881378 0.830017 0.602234
0.940460 0.832886 0.592102
0.243378 0.954712 0.507751
0.268127 0.954712 0.510315
0.309814 0.954712 0.495361
0.288086 0.954712 0.458801
0.317749 0.954712 0.386047
0.551697 0.954712 0.342804
0.769897 0.954712 0.485107
0.919708 0.928741 0.616699
0.939331 0.882019 0.612366
0.132751 0.328766 0.605042
0.142975 0.263184 0.597778
0.152985 0.216980 0.607910
0.300934 0.035431 0.658905
0.508850 0.000000 0.662872
0.649475 0.000000 0.664673
0.767639 0.000000 0.665741
0.887817 0.013153 0.654907
0.948486 0.019470 0.640106
0.123413 0.399231 0.622040
0.159912 0.385254 0.613708
0.177490 0.314941 0.603577
0.235107 0.111115 0.642639
0.508850 0.081512 0.662872
0.646851 0.081909 0.661774
0.766876 0.082275 0.665009
0.886688 0.083466 0.648773
0.948486 0.086609 0.636139
0.106659 0.453857 0.636139
0.147339 0.456451 0.632538
0.229736 0.453857 0.625275
0.253693 0.337860 0.613708
0.508484 0.213379 0.661774
0.649475 0.215637 0.662872
0.767639 0.214508 0.661774
0.887817 0.217896 0.639008
0.948486 0.217529 0.620605
0.080414 0.508942 0.651306
0.118317 0.513672 0.649139
0.219910 0.523529 0.645172
0.367188 0.525360 0.634705
0.488007 0.385803 0.656372
0.647614 0.378784 0.662872
0.768402 0.380615 0.655640
0.886688 0.382111 0.619507
0.948486 0.383209 0.598145
0.049591 0.572113 0.660339
0.072937 0.575043 0.659973
0.180023 0.580841 0.658539
0.362396 0.592102 0.655273
0.500305 0.582642 0.625305
0.581635 0.555084 0.640472
0.767639 0.537628 0.641907
0.885590 0.537628 0.599945
0.948486 0.539429 0.583679
0.000000 0.665741 0.662872
0.022308 0.665741 0.662872
0.146149 0.665741 0.662872
0.330322 0.665741 0.662872
0.551025 0.664673 0.672272
0.643097 0.666107 0.666107
0.742706 0.655640 0.638306
0.873444 0.673706 0.636841
0.951508 0.681976 0.638672
0.057617 0.774933 0.660706
0.081390 0.776764 0.662506
0.114319 0.776031 0.662872
0.307892 0.774933 0.662872
0.482788 0.778198 0.658905
0.629944 0.778198 0.659241
0.769531 0.760620 0.680176
0.876099 0.758820 0.637573
0.951508 0.758087 0.632172
0.137360 0.892120 0.657104
0.160645 0.893524 0.659973
0.181824 0.893188 0.657806
0.224915 0.896423 0.653809
0.427429 0.901398 0.635773
0.577850 0.905670 0.600677
0.756683 0.897156 0.619141
0.882904 0.850006 0.693848
0.945068 0.857880 0.683746
0.170441 0.954712 0.657104
0.194946 0.954712 0.657104
0.224243 0.954712 0.654175
0.154358 0.954712 0.646606
0.394806 0.954712 0.621704
0.556915 0.954712 0.581085
0.725739 0.954712 0.576752
0.917450 0.944733 0.697815
0.942383 0.898804 0.702148
0.157135 0.394562 0.708893
0.173248 0.333588 0.697723
0.182922 0.284149 0.704559
0.189362 0.075684 0.743378
0.506592 0.000000 0.772797
0.649475 0.000000 0.772797
0.766876 0.000000 0.772095
0.887451 0.000000 0.772461
0.948486 0.000000 0.772095
0.149567 0.465668 0.725067
0.188049 0.452515 0.718201
0.206451 0.383057 0.705292
0.187897 0.211945 0.715332
0.505493 0.082275 0.772797
0.649475 0.082275 0.772461
0.766876 0.081512 0.772095
0.887451 0.084259 0.774597
0.948486 0.081512 0.770294
0.132721 0.522522 0.739075
0.176514 0.521790 0.734741
0.255615 0.515961 0.726135
0.270508 0.426025 0.709961
0.478333 0.219421 0.766357
0.649475 0.215637 0.773163
0.768402 0.212616 0.773529
0.886322 0.214508 0.772095
0.948486 0.215637 0.771393
0.108429 0.572968 0.753082
0.154877 0.579865 0.750214
0.254517 0.585297 0.745178
0.390472 0.587463 0.735840
0.407776 0.449738 0.727600
0.648376 0.378052 0.772095
0.766876 0.378052 0.772095
0.884827 0.379517 0.769592
0.948486 0.381012 0.760254
0.075134 0.625366 0.763489
0.119049 0.631531 0.763123
0.226440 0.638397 0.758453
0.392334 0.650330 0.755585
0.537964 0.653564 0.746979
0.631439 0.541260 0.767059
0.766876 0.537628 0.772095
0.886688 0.537231 0.760986
0.948486 0.537628 0.744812
0.045074 0.685211 0.769958
0.070831 0.688080 0.771027
0.180054 0.692413 0.770660
0.356873 0.697784 0.766724
0.531982 0.707916 0.763855
0.653625 0.709717 0.754517
0.761597 0.666107 0.771393
0.885956 0.663940 0.746246
0.951508 0.665741 0.727600
0.000000 0.774231 0.772095
0.022308 0.774933 0.772797
0.146149 0.774963 0.772797
0.327728 0.776031 0.773865
0.510345 0.775665 0.772797
0.654755 0.774933 0.773163
0.757812 0.779266 0.778564
0.878357 0.776031 0.759521
0.951508 0.787842 0.762054
0.058655 0.889954 0.772461
0.084229 0.891754 0.772095
0.108246 0.890686 0.772461
0.306824 0.891754 0.772461
0.487610 0.894257 0.769592
0.619812 0.897156 0.765656
0.738953 0.899963 0.745544
0.887451 0.870026 0.783936
0.948486 0.880707 0.775665
0.094208 0.954712 0.772095
0.120453 0.954712 0.769958
0.116089 0.954712 0.770660
0.279694 0.954712 0.769958
0.463440 0.954712 0.765656
0.599579 0.954712 0.757751
0.720856 0.954712 0.728302
0.902283 0.951874 0.778564
0.945435 0.920563 0.794342
0.188538 0.472748 0.823578
0.205078 0.412598 0.809601
0.208649 0.341705 0.806763
0.188232 0.203674 0.819305
0.491730 0.016083 0.889221
0.649475 0.000000 0.886780
0.766479 0.000000 0.888885
0.885193 0.000000 0.889587
0.951508 0.000000 0.892120
0.180573 0.537903 0.835022
0.219269 0.527008 0.831451
0.240295 0.463501 0.814270
0.237610 0.352753 0.813568
0.426331 0.107239 0.875366
0.647980 0.081909 0.886780
0.766479 0.081512 0.886414
0.885193 0.081909 0.889587
0.951508 0.084656 0.892120
0.171173 0.596252 0.850372
0.213837 0.592285 0.844269
0.288910 0.585754 0.835388
0.304962 0.517426 0.820709
0.314423 0.261475 0.842163
0.645752 0.214874 0.888519
0.767639 0.214874 0.887482
0.887817 0.215637 0.892120
0.951508 0.211121 0.889954
0.149933 0.644623 0.861084
0.201477 0.647522 0.857178
0.295898 0.654022 0.854309
0.418243 0.651825 0.844299
0.424103 0.563171 0.825714
0.615326 0.384674 0.881439
0.766876 0.378784 0.887115
0.886322 0.378052 0.888184
0.951508 0.378052 0.891052
0.123077 0.688568 0.870728
0.176880 0.697205 0.872131
0.280121 0.702240 0.865021
0.428986 0.713745 0.861450
0.558899 0.713379 0.851105
0.560638 0.597870 0.841095
0.767639 0.538361 0.887817
0.886688 0.538696 0.888550
0.951508 0.538330 0.890686
0.086426 0.738098 0.881439
0.134399 0.742737 0.879639
0.243561 0.749573 0.878235
0.408630 0.759277 0.874298
0.566010 0.770050 0.870026
0.675415 0.772552 0.863251
0.739349 0.667542 0.880371
0.887817 0.664673 0.889587
0.951508 0.664673 0.891418
0.050262 0.797180 0.889221
0.078918 0.798981 0.888885
0.184723 0.800385 0.884277
0.365356 0.808289 0.886414
0.540588 0.816864 0.883575
0.667908 0.823303 0.878601
0.777100 0.824371 0.872864
0.887817 0.772797 0.889221
0.948883 0.774231 0.884308
0.000000 0.889587 0.886780
0.022308 0.891785 0.888885
0.143646 0.889587 0.886780
0.327728 0.890686 0.887817
0.509247 0.889587 0.886780
0.649475 0.892120 0.889221
0.769165 0.891418 0.888519
0.879883 0.889587 0.889221
0.948883 0.892487 0.884308
0.004425 0.954712 0.888885
0.027100 0.954712 0.889221
0.145416 0.954712 0.888885
0.326630 0.954712 0.887817
0.505859 0.954712 0.886780
0.644257 0.954712 0.886780
0.758575 0.954712 0.887115
0.873810 0.954712 0.876068
0.948486 0.943665 0.894623
0.202637 0.503784 0.883453
0.218903 0.446716 0.869568
0.220642 0.370209 0.866364
0.216187 0.274719 0.876709
0.447845 0.043457 0.944733
0.646484 0.000000 0.954712
0.763855 0.000000 0.954712
0.884827 0.000000 0.954712
0.948486 0.000000 0.954712
0.196869 0.571716 0.897369
0.233063 0.557159 0.891663
0.257080 0.502197 0.877411
0.251160 0.394836 0.870972
0.350525 0.128540 0.925537
0.646484 0.081909 0.953308
0.766113 0.082275 0.954712
0.885590 0.081512 0.954712
0.948486 0.081909 0.954712
0.188171 0.627747 0.909149
0.230164 0.624146 0.905945
0.305420 0.618347 0.897736
0.320038 0.552704 0.882385
0.302277 0.327820 0.887024
0.634460 0.216400 0.950806
0.764618 0.215637 0.954712
0.887451 0.215637 0.954712
0.948486 0.214874 0.954712
0.174774 0.674957 0.922302
0.223999 0.677826 0.919464
0.316437 0.680695 0.913788
0.432373 0.679626 0.903442
0.437805 0.603027 0.886719
0.552429 0.391724 0.930511
0.768768 0.380249 0.954712
0.887451 0.378052 0.954712
0.948486 0.378052 0.954712
0.147797 0.719116 0.933350
0.202942 0.724884 0.930511
0.303223 0.730621 0.926239
0.443817 0.739258 0.920197
0.571594 0.740662 0.911987
0.574127 0.651031 0.899139
0.762360 0.539062 0.951141
0.885193 0.536865 0.954712
0.948486 0.536865 0.954712
0.111267 0.765015 0.941528
0.163513 0.768616 0.940460
0.272430 0.774689 0.937622
0.427124 0.786163 0.934082
0.577240 0.795837 0.927307
0.683319 0.796600 0.920563
0.697876 0.681976 0.924438
0.885559 0.664673 0.954712
0.948486 0.664673 0.954712
0.066711 0.816498 0.949005
0.109741 0.818634 0.949005
0.219177 0.824371 0.946899
0.390472 0.831879 0.945099
0.555908 0.841522 0.941162
0.681030 0.850128 0.938324
0.782776 0.850830 0.929779
0.887451 0.774597 0.954712
0.948486 0.774231 0.954712
0.016968 0.897491 0.951874
0.042236 0.895325 0.951874
0.154083 0.894958 0.951874
0.339172 0.896057 0.951874
0.520081 0.899963 0.951874
0.658142 0.899963 0.951874
0.775574 0.906036 0.949371
0.885590 0.906036 0.946533
0.948486 0.892120 0.954712
0.000000 0.954712 0.954712
0.022308 0.954712 0.954712
0.146149 0.954712 0.954712
0.327728 0.954712 0.954712
0.511841 0.954712 0.954712
0.649475 0.954712 0.954712
0.769165 0.954712 0.954712
0.885193 0.954712 0.954712
0.951508 0.954712 0.954712
