cube滤镜(3D LUT)/Mica.cube
# Created by: Lutify.me
# Copyright: (c) Copyright Lutify.me 2015
# Website: https://lutify.me
#LUT size
LUT_3D_SIZE 5
#LUT data points
0.000000 0.000000 0.000000
0.323792 0.088745 0.024445
0.477844 0.141449 0.059265
0.602539 0.186279 0.086517
0.730591 0.247620 0.118073
0.000000 0.150726 0.101105
0.237183 0.193939 0.019714
0.507385 0.230103 0.026825
0.690399 0.284119 0.074677
0.810181 0.329346 0.100311
0.000000 0.324005 0.230103
0.096313 0.363892 0.218201
0.518677 0.419037 0.055573
0.759125 0.443390 0.037872
0.870392 0.458557 0.066223
0.000000 0.510498 0.367767
0.120422 0.545319 0.369507
0.511963 0.661926 0.267517
0.809448 0.667480 0.112213
0.930481 0.656525 0.091766
0.000000 0.688477 0.505005
0.178711 0.702606 0.490601
0.278381 0.778107 0.417816
0.719604 0.816620 0.292633
0.957977 0.808624 0.144806
0.000793 0.047607 0.089172
0.355469 0.102631 0.191711
0.530304 0.119415 0.163666
0.646179 0.143982 0.136871
0.720947 0.233276 0.179382
0.000000 0.239441 0.249603
0.205536 0.222961 0.218750
0.471283 0.270996 0.184174
0.673645 0.311340 0.182007
0.777771 0.337921 0.185028
0.000000 0.396667 0.341766
0.041016 0.380707 0.303680
0.499023 0.425140 0.189636
0.759277 0.424255 0.157196
0.854584 0.425720 0.161224
0.000000 0.564240 0.452026
0.078613 0.569336 0.422729
0.369019 0.670715 0.312622
0.821045 0.676392 0.191284
0.945801 0.639221 0.155426
0.000000 0.712555 0.560638
0.091766 0.714996 0.531586
0.300507 0.757843 0.491150
0.662994 0.827606 0.371613
0.961945 0.820648 0.229614
0.000000 0.131805 0.200897
0.298889 0.146454 0.305145
0.505371 0.168671 0.314514
0.643494 0.179169 0.305847
0.763397 0.219971 0.285797
0.000000 0.287628 0.344604
0.072113 0.239929 0.312408
0.488098 0.266388 0.329895
0.686432 0.284485 0.278107
0.735809 0.341980 0.279602
0.000000 0.423950 0.429016
0.000000 0.434784 0.438385
0.422241 0.455841 0.423615
0.705597 0.479980 0.347717
0.813446 0.459381 0.298157
0.000000 0.591644 0.522522
0.000000 0.612366 0.522400
0.278107 0.645660 0.520569
0.796631 0.702301 0.381653
0.928284 0.640472 0.314728
0.000000 0.731995 0.615479
0.000000 0.729523 0.586151
0.282257 0.749847 0.569855
0.619293 0.837677 0.444092
0.961182 0.834290 0.357849
0.000793 0.165833 0.251740
0.243408 0.186493 0.430511
0.457092 0.215515 0.418152
0.607941 0.233124 0.430847
0.746918 0.264801 0.447510
0.000000 0.330353 0.419525
0.039429 0.273071 0.376526
0.319244 0.277039 0.493103
0.667755 0.312164 0.462738
0.797211 0.341431 0.432678
0.000000 0.451599 0.514648
0.000000 0.453613 0.528595
0.246368 0.437286 0.525177
0.716553 0.454803 0.503998
0.809174 0.458282 0.436371
0.000000 0.620850 0.621155
0.000000 0.661255 0.654175
0.136261 0.690277 0.674194
0.722870 0.757019 0.670258
0.910980 0.689056 0.516235
0.000000 0.762177 0.695526
0.000000 0.766693 0.684082
0.038635 0.771790 0.664551
0.540649 0.835602 0.599060
0.962738 0.859100 0.505585
0.000000 0.239929 0.346252
0.212616 0.219788 0.540100
0.441864 0.253387 0.499603
0.585876 0.274597 0.519440
0.728027 0.322662 0.556976
0.000000 0.373230 0.483154
0.047607 0.288025 0.406891
0.256531 0.299896 0.556061
0.612213 0.336426 0.560944
0.768250 0.391266 0.582672
0.000000 0.486450 0.582397
0.000000 0.450165 0.557800
0.187134 0.395538 0.517609
0.616791 0.421173 0.612518
0.812958 0.481934 0.612335
0.000000 0.627289 0.683502
0.000000 0.621307 0.683380
0.000000 0.619598 0.695099
0.578033 0.644928 0.713287
0.896729 0.674561 0.708466
0.000000 0.775085 0.779907
0.000000 0.789856 0.792236
0.000000 0.805359 0.804901
0.139465 0.839355 0.832855
0.956360 0.960327 0.856628
