cube滤镜(3D LUT)/Mica.cube
# Created by: Lutify.me
# Copyright: (c) Copyright Lutify.me 2015
# Website: https://lutify.me
#LUT size
LUT_3D_SIZE 33
#LUT data points
0.000000 0.000000 0.000000
0.032349 0.002380 0.000793
0.101105 0.015778 0.002380
0.154144 0.030762 0.005524
0.198151 0.046173 0.008667
0.234924 0.058655 0.012634
0.267639 0.069489 0.016571
0.298157 0.080078 0.020508
0.323792 0.088745 0.024445
0.348022 0.096741 0.028381
0.370178 0.103790 0.033142
0.389923 0.110809 0.037872
0.408600 0.117065 0.042511
0.427155 0.123352 0.047607
0.444183 0.129364 0.051697
0.460846 0.135406 0.055573
0.477844 0.141449 0.059265
0.494843 0.147522 0.063385
0.511383 0.153351 0.066772
0.526917 0.158722 0.070526
0.541656 0.163666 0.073669
0.556641 0.169159 0.077148
0.571472 0.174469 0.080078
0.586731 0.180267 0.083344
0.602539 0.186279 0.086517
0.617188 0.191711 0.089600
0.632874 0.197968 0.092590
0.649536 0.205536 0.095917
0.666016 0.212799 0.099518
0.680725 0.219269 0.102631
0.696167 0.227417 0.106415
0.712677 0.235901 0.110809
0.730591 0.247620 0.118073
0.000000 0.008667 0.003937
0.015778 0.012634 0.000000
0.075684 0.020508 0.000793
0.124329 0.030762 0.002380
0.169373 0.044739 0.004730
0.207031 0.057434 0.007904
0.243896 0.069489 0.011841
0.276764 0.080078 0.015778
0.305725 0.090027 0.019714
0.332550 0.099121 0.024445
0.358154 0.107910 0.028381
0.380890 0.115356 0.033142
0.402191 0.122406 0.037079
0.424347 0.129974 0.041779
0.444855 0.137146 0.046906
0.463470 0.143677 0.051025
0.482605 0.150482 0.055573
0.502106 0.157196 0.060486
0.520203 0.163666 0.065094
0.537231 0.169617 0.068939
0.553223 0.174927 0.072632
0.569061 0.180695 0.076172
0.585114 0.186493 0.079590
0.601044 0.192322 0.082886
0.617157 0.198151 0.086517
0.632294 0.203796 0.089600
0.648346 0.210419 0.092590
0.665894 0.217316 0.095917
0.682678 0.223999 0.099121
0.697174 0.230621 0.101868
0.711426 0.236542 0.104553
0.727081 0.244659 0.108276
0.743561 0.255341 0.115021
0.000000 0.030762 0.014984
0.004730 0.036285 0.011841
0.046906 0.041016 0.000000
0.095917 0.043274 0.000000
0.141724 0.051025 0.001587
0.183960 0.060486 0.004730
0.222443 0.071594 0.007904
0.259186 0.082886 0.011841
0.290344 0.093018 0.015778
0.319458 0.102631 0.020508
0.347595 0.112213 0.024445
0.373138 0.120758 0.029175
0.396942 0.128754 0.033905
0.420349 0.136566 0.038635
0.442474 0.144257 0.043274
0.463165 0.151276 0.048309
0.484680 0.158722 0.053009
0.506470 0.166321 0.057434
0.527222 0.173309 0.062225
0.546265 0.180054 0.066772
0.563782 0.186066 0.071075
0.580719 0.192108 0.074677
0.597321 0.197754 0.078613
0.613800 0.203613 0.082428
0.630219 0.209656 0.085632
0.645752 0.215332 0.089172
0.661713 0.221558 0.092163
0.678680 0.228271 0.095520
0.695435 0.235077 0.098724
0.710327 0.241516 0.101471
0.724670 0.247314 0.104156
0.739624 0.255188 0.107147
0.755341 0.263824 0.112213
0.000000 0.050354 0.026031
0.006317 0.053650 0.023651
0.018158 0.062805 0.011047
0.072632 0.063965 0.000793
0.121735 0.065643 0.000000
0.166321 0.071075 0.001587
0.208923 0.079102 0.003937
0.248383 0.089600 0.007904
0.281738 0.099121 0.012634
0.312408 0.108643 0.016571
0.342194 0.118073 0.021301
0.368744 0.126862 0.026031
0.393677 0.135101 0.030762
0.418152 0.143402 0.035492
0.441498 0.151520 0.041016
0.463806 0.158966 0.045471
0.486786 0.166779 0.051025
0.510101 0.174927 0.055573
0.532135 0.182434 0.060486
0.552490 0.189423 0.065094
0.571472 0.195953 0.068939
0.589569 0.202057 0.073151
0.606995 0.208160 0.077148
0.623657 0.214081 0.081024
0.640045 0.219788 0.084717
0.655762 0.225708 0.088287
0.671753 0.231628 0.091339
0.688751 0.238312 0.094696
0.705170 0.245148 0.097931
0.721100 0.251587 0.100708
0.735382 0.257843 0.103424
0.749512 0.264099 0.106049
0.764465 0.271973 0.110077
0.000000 0.070007 0.039429
0.007904 0.071594 0.036285
0.011047 0.077667 0.034698
0.044739 0.086975 0.017365
0.099915 0.086975 0.002380
0.146973 0.088287 0.000000
0.194763 0.093018 0.001587
0.238007 0.100708 0.004730
0.273346 0.108643 0.007904
0.306213 0.117401 0.012634
0.337494 0.126556 0.017365
0.365845 0.135406 0.022095
0.392700 0.143677 0.026825
0.417877 0.151794 0.032349
0.442169 0.159729 0.037079
0.466064 0.167725 0.042511
0.490051 0.175812 0.048309
0.514465 0.184174 0.053650
0.537506 0.192108 0.059265
0.558838 0.199524 0.063965
0.578766 0.206299 0.068390
0.597321 0.212433 0.072113
0.615540 0.218567 0.076172
0.632629 0.224518 0.080078
0.649475 0.230438 0.083344
0.665344 0.236237 0.086975
0.681641 0.242310 0.090454
0.698242 0.248840 0.093842
0.714386 0.255493 0.096741
0.730103 0.262085 0.099915
0.744965 0.268219 0.102631
0.758850 0.274170 0.105316
0.773712 0.281189 0.107910
0.000000 0.089172 0.053650
0.008667 0.089600 0.049683
0.011841 0.094269 0.049683
0.019714 0.103790 0.037872
0.076172 0.111511 0.025238
0.128754 0.111511 0.007111
0.179169 0.113281 0.000793
0.227417 0.117401 0.001587
0.265533 0.123688 0.004730
0.301239 0.130585 0.007904
0.334381 0.138611 0.012634
0.363892 0.146729 0.017365
0.391541 0.154388 0.022095
0.418640 0.162201 0.027618
0.444092 0.170074 0.033142
0.467987 0.177612 0.038635
0.493622 0.186066 0.044739
0.519379 0.194763 0.051025
0.543488 0.202850 0.056213
0.565979 0.210419 0.061646
0.586853 0.217499 0.066223
0.606384 0.223999 0.071075
0.624512 0.229950 0.075165
0.641724 0.235748 0.079102
0.659088 0.242004 0.082886
0.675140 0.247467 0.086517
0.690979 0.253387 0.089600
0.707184 0.259766 0.093018
0.722778 0.266388 0.095917
0.739075 0.273071 0.099121
0.753937 0.279327 0.101868
0.767395 0.285156 0.104553
0.782013 0.292236 0.106781
0.000000 0.108643 0.068939
0.008667 0.107910 0.063965
0.014191 0.111877 0.063385
0.018158 0.118073 0.062225
0.031555 0.132416 0.038635
0.107910 0.137146 0.033142
0.163422 0.138306 0.011047
0.215515 0.140320 0.003174
0.257416 0.142853 0.001587
0.294891 0.148621 0.004730
0.330688 0.154907 0.008667
0.362518 0.161469 0.011841
0.392090 0.168671 0.016571
0.420105 0.175812 0.022095
0.446228 0.183075 0.027618
0.471558 0.190460 0.033905
0.497772 0.198364 0.040222
0.524445 0.206665 0.046906
0.549316 0.214630 0.053009
0.572632 0.222076 0.058655
0.594727 0.229431 0.063965
0.615417 0.236237 0.068390
0.634155 0.242462 0.073151
0.651794 0.248077 0.077148
0.669312 0.253845 0.081482
0.685150 0.259338 0.084717
0.701019 0.265381 0.088287
0.717010 0.271851 0.091339
0.732819 0.278381 0.094696
0.748779 0.284882 0.097534
0.763458 0.291229 0.100311
0.776855 0.297028 0.103027
0.791443 0.304047 0.105316
0.000000 0.129974 0.085175
0.007904 0.128113 0.079590
0.015778 0.130280 0.078156
0.018158 0.135406 0.078613
0.028381 0.146179 0.073669
0.061066 0.161713 0.046906
0.145630 0.165588 0.037079
0.202271 0.166779 0.014984
0.246704 0.168915 0.007904
0.288910 0.170563 0.002380
0.326263 0.175140 0.003937
0.359467 0.180695 0.008667
0.390747 0.186493 0.011841
0.421082 0.192719 0.015778
0.448578 0.199158 0.021301
0.474823 0.206085 0.026825
0.502777 0.213898 0.033905
0.530731 0.221893 0.041016
0.557343 0.229950 0.048309
0.581757 0.237518 0.054291
0.603729 0.244202 0.059875
0.624603 0.250671 0.065094
0.644257 0.256836 0.070007
0.662720 0.262665 0.074677
0.680267 0.268646 0.078613
0.695923 0.273773 0.082428
0.711670 0.279205 0.085632
0.727051 0.285034 0.089172
0.742432 0.291229 0.092163
0.757751 0.297791 0.095093
0.772888 0.304413 0.097931
0.786774 0.310150 0.100708
0.801575 0.316467 0.103424
0.000000 0.150726 0.101105
0.007111 0.147797 0.094696
0.017365 0.149139 0.092590
0.020508 0.154144 0.093445
0.027618 0.161957 0.092163
0.044739 0.176056 0.080536
0.111877 0.189850 0.062225
0.190063 0.191498 0.026825
0.237183 0.193939 0.019714
0.281342 0.196381 0.011841
0.322662 0.197968 0.005524
0.357361 0.201111 0.003937
0.389282 0.206299 0.007904
0.420593 0.211517 0.012634
0.449799 0.216949 0.016571
0.477905 0.222961 0.021301
0.507385 0.230103 0.026825
0.536804 0.238159 0.034698
0.564301 0.246216 0.041779
0.589569 0.253540 0.048981
0.612335 0.259918 0.054932
0.633942 0.266083 0.061066
0.654480 0.272400 0.066223
0.672791 0.278259 0.070526
0.690399 0.284119 0.074677
0.706146 0.288910 0.078613
0.721222 0.293396 0.082428
0.736481 0.298767 0.086090
0.751831 0.304779 0.089172
0.766388 0.310974 0.092163
0.782043 0.317535 0.095093
0.795105 0.322876 0.097534
0.810181 0.329346 0.100311
0.000000 0.172180 0.117065
0.006317 0.168457 0.110443
0.017365 0.169373 0.107910
0.022888 0.172638 0.107910
0.027618 0.179169 0.108978
0.042511 0.191498 0.104919
0.065643 0.210602 0.076660
0.167023 0.218018 0.071075
0.227753 0.219635 0.031555
0.273895 0.221375 0.023651
0.316833 0.223999 0.015778
0.354340 0.225372 0.009460
0.388763 0.227936 0.006317
0.420685 0.232269 0.007904
0.450073 0.237366 0.012634
0.479095 0.242462 0.016571
0.509979 0.248840 0.022095
0.541412 0.256073 0.027618
0.570068 0.263367 0.033905
0.596100 0.270447 0.041016
0.620056 0.276764 0.048309
0.642914 0.283173 0.054932
0.663818 0.289062 0.060486
0.682434 0.294525 0.065643
0.700256 0.299774 0.070526
0.715790 0.304169 0.074677
0.730835 0.308502 0.078613
0.746216 0.313690 0.082428
0.761047 0.319366 0.085632
0.775635 0.325256 0.088287
0.791107 0.331329 0.091766
0.804199 0.337067 0.093842
0.819061 0.343445 0.096741
0.000000 0.193939 0.133301
0.005524 0.190460 0.127197
0.016571 0.189850 0.123688
0.026825 0.192535 0.123352
0.029175 0.197571 0.124969
0.041016 0.208160 0.124023
0.061646 0.225037 0.113281
0.129059 0.242615 0.084717
0.213531 0.246368 0.071594
0.265808 0.247467 0.036285
0.310974 0.249756 0.027618
0.349884 0.251892 0.020508
0.386139 0.253540 0.014191
0.421173 0.255646 0.009460
0.451813 0.259460 0.009460
0.480255 0.264099 0.011841
0.511444 0.270020 0.016571
0.543976 0.276642 0.022888
0.574036 0.283447 0.028381
0.602386 0.290192 0.033905
0.628326 0.296021 0.040222
0.651367 0.301849 0.046906
0.672577 0.307312 0.053650
0.692017 0.312286 0.059265
0.710144 0.316833 0.065094
0.725739 0.321075 0.069489
0.741180 0.325470 0.073669
0.756165 0.330231 0.077148
0.770233 0.335358 0.080536
0.784485 0.340607 0.083801
0.799713 0.346893 0.086517
0.812988 0.352234 0.089600
0.828125 0.358459 0.092590
0.000000 0.215515 0.149414
0.004730 0.211884 0.143127
0.015778 0.209290 0.138306
0.026031 0.211884 0.138031
0.032349 0.216431 0.139740
0.041016 0.224670 0.140045
0.059265 0.240417 0.135406
0.086517 0.262939 0.100708
0.187988 0.271423 0.097137
0.259613 0.274048 0.061646
0.305725 0.275421 0.039429
0.346039 0.277039 0.031555
0.382935 0.279327 0.025238
0.418945 0.281342 0.018921
0.452118 0.283325 0.014191
0.482605 0.286591 0.011841
0.514313 0.291748 0.013428
0.547150 0.298035 0.017365
0.578217 0.304535 0.022888
0.607452 0.311340 0.029175
0.634247 0.317169 0.034698
0.658112 0.321747 0.040222
0.680847 0.326263 0.046173
0.701233 0.330780 0.051697
0.719482 0.335022 0.057434
0.735504 0.338989 0.062805
0.751129 0.343445 0.067322
0.765625 0.347595 0.071075
0.779114 0.351807 0.074677
0.792786 0.356750 0.078156
0.807343 0.362518 0.081024
0.820831 0.367096 0.084259
0.836243 0.373322 0.087402
0.000000 0.236877 0.165344
0.003937 0.232452 0.158478
0.015778 0.229614 0.153351
0.026031 0.231293 0.152588
0.035492 0.235565 0.154388
0.041779 0.242462 0.155182
0.057434 0.256226 0.153870
0.082428 0.277313 0.139465
0.152069 0.294769 0.106415
0.241211 0.300018 0.103027
0.301849 0.301361 0.049683
0.341644 0.302582 0.043274
0.379883 0.304657 0.036285
0.416901 0.307312 0.029968
0.450226 0.309082 0.024445
0.482544 0.310883 0.018921
0.517548 0.314392 0.014984
0.551605 0.319916 0.015778
0.583160 0.326355 0.018921
0.612183 0.332977 0.023651
0.639221 0.338470 0.029175
0.664093 0.342926 0.034698
0.687469 0.346985 0.041016
0.708557 0.350677 0.046173
0.727783 0.354340 0.051025
0.744476 0.357971 0.055573
0.760101 0.361725 0.059265
0.774628 0.365356 0.063965
0.787842 0.369110 0.067871
0.801117 0.373505 0.071594
0.815399 0.378754 0.074677
0.828705 0.382751 0.078156
0.843872 0.388397 0.081970
0.000000 0.258728 0.181793
0.003174 0.253693 0.174225
0.014984 0.251129 0.169373
0.026031 0.251434 0.167511
0.035492 0.255951 0.169617
0.044006 0.261932 0.171021
0.056824 0.273071 0.170776
0.078156 0.292236 0.165344
0.107544 0.315308 0.124664
0.213165 0.324677 0.121399
0.290070 0.328125 0.099915
0.338135 0.329132 0.054932
0.376068 0.330353 0.047607
0.414062 0.333191 0.041016
0.449188 0.335358 0.034698
0.481781 0.337189 0.029175
0.518127 0.339630 0.023651
0.555725 0.343323 0.018158
0.588074 0.348846 0.018921
0.617645 0.354950 0.021301
0.644653 0.360352 0.025238
0.669891 0.365051 0.030762
0.693970 0.368652 0.035492
0.715424 0.372192 0.041016
0.734955 0.375763 0.046173
0.751923 0.379242 0.050354
0.767395 0.382385 0.054291
0.782501 0.385040 0.058075
0.796204 0.388123 0.061066
0.809418 0.391357 0.064514
0.823761 0.395813 0.067322
0.836884 0.399323 0.071594
0.851837 0.404510 0.075684
0.000000 0.280121 0.197754
0.002380 0.275269 0.190277
0.014191 0.272522 0.185455
0.025238 0.272400 0.183289
0.035492 0.276093 0.184387
0.046906 0.281982 0.186707
0.057434 0.291473 0.186920
0.075684 0.308014 0.185455
0.102631 0.329681 0.167267
0.175598 0.348541 0.129364
0.269745 0.354156 0.130585
0.331879 0.356262 0.094696
0.373322 0.356750 0.059875
0.411224 0.358673 0.052368
0.447357 0.361023 0.046173
0.482056 0.362915 0.038635
0.518066 0.365265 0.033142
0.556519 0.368073 0.026825
0.591858 0.372192 0.022888
0.622925 0.377167 0.022095
0.650940 0.382111 0.024445
0.676880 0.386597 0.027618
0.700531 0.390656 0.032349
0.721802 0.394287 0.037079
0.741791 0.397736 0.041779
0.759003 0.401154 0.045471
0.774384 0.403900 0.049683
0.789581 0.406403 0.053650
0.803223 0.408447 0.056824
0.816101 0.410980 0.060486
0.829803 0.414581 0.063965
0.843475 0.417297 0.067322
0.858826 0.421417 0.071075
0.000000 0.301117 0.213348
0.000793 0.296906 0.206299
0.013428 0.293762 0.201294
0.025238 0.294037 0.199341
0.037079 0.296661 0.199524
0.050354 0.302216 0.202057
0.058075 0.309814 0.203033
0.075165 0.325348 0.203033
0.099121 0.345520 0.194153
0.130890 0.370087 0.143982
0.244354 0.378967 0.145355
0.317413 0.382568 0.133606
0.371033 0.383850 0.086090
0.409271 0.384583 0.065094
0.445404 0.386047 0.057434
0.481018 0.388489 0.050354
0.519073 0.390747 0.042511
0.557037 0.393311 0.035492
0.593567 0.396667 0.030762
0.626892 0.400360 0.026825
0.657074 0.403992 0.025238
0.684052 0.408356 0.027618
0.708160 0.412323 0.030762
0.729767 0.415894 0.034698
0.749420 0.419525 0.039429
0.765991 0.422791 0.044006
0.781647 0.425385 0.047607
0.796783 0.427795 0.051025
0.810333 0.429260 0.054932
0.822754 0.431244 0.058075
0.835999 0.433838 0.061066
0.849121 0.435974 0.064514
0.864227 0.438934 0.068390
0.000000 0.324005 0.230103
0.000793 0.320831 0.224518
0.014191 0.317535 0.219086
0.027618 0.317169 0.216431
0.039429 0.319122 0.216064
0.051025 0.324249 0.218567
0.059265 0.330688 0.220673
0.074158 0.344696 0.221893
0.096313 0.363892 0.218201
0.127197 0.387207 0.192322
0.205322 0.405548 0.153870
0.296173 0.410461 0.157959
0.361328 0.413055 0.135406
0.411133 0.414490 0.076172
0.444855 0.415253 0.071594
0.479858 0.416473 0.063385
0.518677 0.419037 0.055573
0.558777 0.421417 0.046173
0.595276 0.424255 0.040222
0.629944 0.427094 0.035492
0.661530 0.429810 0.031555
0.690918 0.433044 0.029175
0.716888 0.436829 0.030762
0.739319 0.440002 0.033905
0.759125 0.443390 0.037872
0.775848 0.446075 0.041779
0.791321 0.448730 0.046173
0.805756 0.450989 0.050354
0.818878 0.452271 0.054291
0.830719 0.453827 0.056824
0.843292 0.455627 0.059875
0.856110 0.457245 0.062805
0.870392 0.458557 0.066223
0.000000 0.349243 0.248840
0.001587 0.346252 0.243408
0.015778 0.342590 0.237854
0.029175 0.341553 0.234436
0.042511 0.343018 0.233612
0.053650 0.348114 0.236053
0.063965 0.354858 0.239441
0.073669 0.366119 0.241852
0.093018 0.383118 0.241516
0.124023 0.407166 0.226562
0.157471 0.432098 0.168457
0.268341 0.440094 0.172394
0.344482 0.443573 0.168671
0.404663 0.446228 0.137146
0.447754 0.447662 0.084259
0.479767 0.447601 0.079102
0.518311 0.448883 0.069489
0.559906 0.451813 0.060486
0.598907 0.454132 0.051697
0.633209 0.457153 0.046906
0.665710 0.459534 0.041779
0.696167 0.462646 0.038635
0.724243 0.465546 0.036285
0.748901 0.467712 0.034698
0.769501 0.470276 0.037872
0.786652 0.472473 0.041016
0.802643 0.474731 0.044739
0.817322 0.476776 0.048981
0.829956 0.477356 0.052368
0.841125 0.478119 0.055573
0.852661 0.479645 0.059265
0.864716 0.481018 0.062805
0.877899 0.480469 0.065643
0.000000 0.374542 0.267639
0.003174 0.370667 0.261505
0.018158 0.367096 0.255951
0.031555 0.366211 0.252808
0.045471 0.367859 0.251740
0.057434 0.373230 0.254303
0.068939 0.379974 0.257996
0.076172 0.389191 0.260925
0.091766 0.403564 0.261932
0.120758 0.426514 0.254303
0.155670 0.451965 0.219452
0.232452 0.468292 0.180908
0.324005 0.472900 0.187134
0.391174 0.476013 0.175140
0.444031 0.479584 0.141449
0.484009 0.480194 0.092163
0.519897 0.479980 0.085175
0.561554 0.482056 0.074677
0.601410 0.485016 0.066223
0.637970 0.487823 0.058655
0.670227 0.490936 0.054291
0.701752 0.493622 0.049683
0.729950 0.496094 0.046173
0.755249 0.497955 0.044006
0.778168 0.499298 0.042511
0.797241 0.500275 0.041779
0.813629 0.501923 0.044739
0.828827 0.503998 0.048309
0.841034 0.503815 0.051025
0.852051 0.503754 0.054291
0.863190 0.504547 0.057434
0.875244 0.505310 0.061066
0.886505 0.503235 0.063965
0.000000 0.399384 0.286072
0.004730 0.395081 0.279602
0.019714 0.392090 0.274597
0.033905 0.391907 0.271973
0.048981 0.393066 0.270172
0.061066 0.397644 0.271973
0.072632 0.404175 0.275665
0.081024 0.413330 0.279205
0.095093 0.426361 0.280396
0.119751 0.446533 0.276917
0.154663 0.472260 0.252350
0.189636 0.495758 0.186493
0.301727 0.501984 0.199921
0.376068 0.506470 0.200134
0.434570 0.510101 0.182861
0.484741 0.513123 0.142578
0.525757 0.512848 0.098724
0.563507 0.513306 0.091766
0.604218 0.516418 0.081482
0.641296 0.519379 0.074158
0.675903 0.521881 0.066772
0.706909 0.524567 0.061646
0.735474 0.526672 0.058075
0.761597 0.527954 0.054291
0.785034 0.529022 0.052368
0.804291 0.529694 0.051025
0.822418 0.530304 0.050354
0.838684 0.531158 0.050354
0.851288 0.530487 0.051025
0.862427 0.530182 0.053650
0.873566 0.530121 0.056824
0.885529 0.530609 0.059875
0.895447 0.526428 0.062225
0.000000 0.422638 0.303192
0.004730 0.419525 0.298157
0.020508 0.417297 0.293518
0.035492 0.417053 0.290710
0.051697 0.417877 0.288544
0.063965 0.421417 0.289429
0.075165 0.427155 0.292511
0.085632 0.436737 0.296661
0.098328 0.449249 0.298279
0.122406 0.469360 0.296783
0.156708 0.494904 0.278259
0.189240 0.518555 0.231445
0.277710 0.531464 0.210022
0.362701 0.537292 0.216949
0.423523 0.541229 0.212250
0.479858 0.544250 0.186920
0.530853 0.545868 0.131500
0.569336 0.545624 0.105316
0.606903 0.547089 0.097931
0.645416 0.550720 0.089172
0.679749 0.553131 0.082428
0.712585 0.555084 0.075165
0.741302 0.557037 0.070526
0.766876 0.558197 0.067322
0.790741 0.558716 0.063965
0.810486 0.559174 0.061646
0.829132 0.559326 0.059875
0.845490 0.559113 0.058655
0.859039 0.558472 0.058075
0.871246 0.557098 0.057434
0.883453 0.555939 0.057434
0.895142 0.555603 0.059265
0.904297 0.549957 0.061066
0.000000 0.444794 0.319366
0.005524 0.443878 0.316589
0.021301 0.442169 0.312408
0.037872 0.441315 0.308746
0.054291 0.442108 0.306580
0.067871 0.445557 0.307068
0.079590 0.451355 0.310028
0.090454 0.460175 0.314148
0.103027 0.473328 0.316833
0.127197 0.494110 0.316956
0.160217 0.519501 0.302948
0.192322 0.542786 0.268768
0.246704 0.561096 0.218201
0.345856 0.567719 0.230286
0.413727 0.572296 0.231781
0.472260 0.574738 0.219086
0.530548 0.578308 0.183075
0.578003 0.579315 0.118744
0.612274 0.578857 0.112579
0.649628 0.581818 0.105682
0.684662 0.584137 0.097137
0.717285 0.585938 0.090454
0.746857 0.587158 0.084259
0.773315 0.587708 0.079102
0.796265 0.587921 0.076172
0.816559 0.588409 0.073669
0.834930 0.587921 0.071075
0.851593 0.587006 0.068939
0.865936 0.586090 0.067871
0.878113 0.584961 0.066772
0.890747 0.584473 0.066223
0.903351 0.583008 0.065094
0.913422 0.575012 0.061646
0.000000 0.467926 0.336639
0.007111 0.466766 0.333527
0.022888 0.466492 0.330688
0.040222 0.466339 0.327576
0.057434 0.466217 0.324249
0.071594 0.468933 0.324005
0.083344 0.474731 0.327026
0.096313 0.484619 0.332001
0.109344 0.498505 0.335236
0.132111 0.518677 0.336761
0.163422 0.543365 0.326141
0.195953 0.566711 0.297150
0.224854 0.588287 0.235229
0.327484 0.595856 0.240417
0.403564 0.601471 0.246704
0.465057 0.604584 0.242615
0.526001 0.607147 0.218567
0.580719 0.611450 0.172638
0.620819 0.611572 0.125610
0.653168 0.610443 0.119080
0.688843 0.613159 0.111877
0.721588 0.614807 0.104156
0.751099 0.615570 0.098328
0.778473 0.615417 0.091766
0.803406 0.614624 0.086090
0.822388 0.615265 0.084259
0.839783 0.614563 0.081970
0.856934 0.613495 0.079590
0.871735 0.611755 0.077148
0.884766 0.611298 0.076172
0.897461 0.611969 0.076172
0.909698 0.611664 0.075684
0.920166 0.603027 0.070526
0.000000 0.490143 0.353027
0.007904 0.489777 0.350677
0.024445 0.489990 0.348114
0.042511 0.490479 0.345642
0.060486 0.489532 0.341431
0.075165 0.492279 0.341217
0.086975 0.497498 0.343536
0.101868 0.508423 0.349243
0.114685 0.522186 0.352722
0.137451 0.541962 0.354340
0.168671 0.566437 0.344696
0.199921 0.589081 0.319702
0.229279 0.610199 0.270294
0.309937 0.621857 0.248688
0.391632 0.628021 0.257996
0.456879 0.631989 0.258881
0.519684 0.635071 0.245758
0.579132 0.639801 0.213348
0.626495 0.641022 0.155182
0.658997 0.638550 0.130280
0.690704 0.639374 0.125275
0.724640 0.641541 0.117737
0.754517 0.642395 0.111145
0.782013 0.642029 0.104919
0.806305 0.640808 0.099121
0.827087 0.639954 0.094696
0.845032 0.639526 0.092163
0.861176 0.638550 0.090027
0.876404 0.637238 0.087860
0.889801 0.636383 0.086517
0.902618 0.636475 0.085632
0.914917 0.636658 0.085175
0.925568 0.631073 0.081482
0.000000 0.510498 0.367767
0.008667 0.511505 0.366913
0.025238 0.512421 0.364960
0.045471 0.512024 0.361542
0.063965 0.511963 0.358154
0.079102 0.515198 0.357849
0.092590 0.521698 0.361023
0.107544 0.531403 0.366028
0.120422 0.545319 0.369507
0.142578 0.564850 0.371307
0.172394 0.588501 0.363678
0.204010 0.611206 0.340820
0.233124 0.631744 0.300385
0.286987 0.647308 0.255646
0.377289 0.653442 0.267517
0.448212 0.658386 0.272125
0.511963 0.661926 0.267517
0.573853 0.665741 0.244507
0.627167 0.669952 0.203796
0.666565 0.668701 0.142303
0.693939 0.665161 0.135986
0.726685 0.667450 0.131500
0.757507 0.668121 0.123688
0.784607 0.668121 0.118073
0.809448 0.667480 0.112213
0.830322 0.665985 0.107544
0.849121 0.664093 0.103027
0.866730 0.662354 0.099518
0.881592 0.661377 0.097534
0.894257 0.660889 0.096741
0.907379 0.660797 0.095520
0.919495 0.660919 0.095093
0.930481 0.656525 0.091766
0.000000 0.530304 0.382385
0.010254 0.531464 0.381561
0.027618 0.532562 0.379791
0.047607 0.533234 0.377380
0.066772 0.533539 0.373993
0.082428 0.536133 0.373047
0.095093 0.541595 0.375488
0.112213 0.551910 0.380798
0.124969 0.565460 0.384216
0.146729 0.584686 0.386139
0.176483 0.607971 0.378754
0.206665 0.629730 0.358765
0.235901 0.650482 0.325348
0.262665 0.669891 0.261230
0.360748 0.675842 0.274719
0.436737 0.681061 0.282135
0.502502 0.684875 0.281738
0.564240 0.687897 0.267914
0.621521 0.691681 0.236725
0.666626 0.692017 0.185669
0.697784 0.688751 0.144531
0.727570 0.688995 0.140320
0.757446 0.690399 0.135986
0.786194 0.690094 0.127808
0.810974 0.689575 0.122406
0.832458 0.688293 0.117401
0.851501 0.686035 0.112915
0.869843 0.683777 0.108276
0.886017 0.682526 0.104919
0.899292 0.682922 0.104156
0.912018 0.683411 0.104156
0.923676 0.683014 0.103790
0.934509 0.679962 0.101105
0.000000 0.548737 0.395721
0.011047 0.551086 0.395905
0.029968 0.552185 0.394196
0.051025 0.552124 0.391083
0.069489 0.553009 0.388306
0.085632 0.555420 0.387024
0.099915 0.561035 0.389374
0.116058 0.570312 0.394196
0.128448 0.583344 0.397461
0.149689 0.602142 0.399475
0.177612 0.624603 0.393951
0.207611 0.645966 0.376343
0.236237 0.665802 0.346466
0.261658 0.684448 0.296906
0.333832 0.694977 0.278931
0.416901 0.700745 0.289185
0.487610 0.704559 0.292389
0.551300 0.707184 0.286072
0.611969 0.709656 0.261505
0.662811 0.712952 0.223114
0.700684 0.712372 0.166534
0.727081 0.708221 0.147247
0.757355 0.709869 0.143402
0.784821 0.709717 0.138031
0.810944 0.708282 0.129974
