cube滤镜(3D LUT)/Mica.cube
# Created by: Lutify.me
# Copyright: (c) Copyright Lutify.me 2015
# Website: https://lutify.me
#LUT size
LUT_3D_SIZE 9
#LUT data points
0.000000 0.000000 0.000000
0.198151 0.046173 0.008667
0.323792 0.088745 0.024445
0.408600 0.117065 0.042511
0.477844 0.141449 0.059265
0.541656 0.163666 0.073669
0.602539 0.186279 0.086517
0.666016 0.212799 0.099518
0.730591 0.247620 0.118073
0.000000 0.070007 0.039429
0.099915 0.086975 0.002380
0.273346 0.108643 0.007904
0.392700 0.143677 0.026825
0.490051 0.175812 0.048309
0.578766 0.206299 0.068390
0.649475 0.230438 0.083344
0.714386 0.255493 0.096741
0.773712 0.281189 0.107910
0.000000 0.150726 0.101105
0.027618 0.161957 0.092163
0.237183 0.193939 0.019714
0.389282 0.206299 0.007904
0.507385 0.230103 0.026825
0.612335 0.259918 0.054932
0.690399 0.284119 0.074677
0.751831 0.304779 0.089172
0.810181 0.329346 0.100311
0.000000 0.236877 0.165344
0.035492 0.235565 0.154388
0.152069 0.294769 0.106415
0.379883 0.304657 0.036285
0.517548 0.314392 0.014984
0.639221 0.338470 0.029175
0.727783 0.354340 0.051025
0.787842 0.369110 0.067871
0.843872 0.388397 0.081970
0.000000 0.324005 0.230103
0.039429 0.319122 0.216064
0.096313 0.363892 0.218201
0.361328 0.413055 0.135406
0.518677 0.419037 0.055573
0.661530 0.429810 0.031555
0.759125 0.443390 0.037872
0.818878 0.452271 0.054291
0.870392 0.458557 0.066223
0.000000 0.422638 0.303192
0.051697 0.417877 0.288544
0.098328 0.449249 0.298279
0.277710 0.531464 0.210022
0.530853 0.545868 0.131500
0.679749 0.553131 0.082428
0.790741 0.558716 0.063965
0.859039 0.558472 0.058075
0.904297 0.549957 0.061066
0.000000 0.510498 0.367767
0.063965 0.511963 0.358154
0.120422 0.545319 0.369507
0.233124 0.631744 0.300385
0.511963 0.661926 0.267517
0.693939 0.665161 0.135986
0.809448 0.667480 0.112213
0.881592 0.661377 0.097534
0.930481 0.656525 0.091766
0.000000 0.584686 0.422150
0.075165 0.589203 0.414642
0.133026 0.615570 0.421906
0.230103 0.689911 0.389374
0.435730 0.738525 0.305023
0.680756 0.750275 0.252045
0.806152 0.745941 0.148621
0.889801 0.742096 0.130280
0.946686 0.739563 0.121735
0.000000 0.688477 0.505005
0.079590 0.691315 0.494843
0.178711 0.702606 0.490601
0.216766 0.737000 0.477478
0.278381 0.778107 0.417816
0.473969 0.812286 0.337616
0.719604 0.816620 0.292633
0.866974 0.813599 0.164398
0.957977 0.808624 0.144806
0.000000 0.014984 0.034698
0.222443 0.053650 0.106415
0.366791 0.073669 0.083801
0.439484 0.108276 0.083801
0.496033 0.136261 0.093445
0.550262 0.159210 0.103424
0.600739 0.177826 0.113281
0.650574 0.204010 0.132416
0.709320 0.242950 0.151001
0.000000 0.105316 0.119080
0.093445 0.104553 0.109344
0.262939 0.138031 0.091766
0.390015 0.170563 0.096313
0.490143 0.195770 0.103424
0.576508 0.218201 0.111511
0.641052 0.236053 0.119080
0.703033 0.263367 0.132416
0.757904 0.289062 0.144531
0.000000 0.195557 0.170776
0.016571 0.182007 0.146973
0.252808 0.208740 0.095093
0.399384 0.223297 0.088745
0.514374 0.243103 0.090912
0.617584 0.265961 0.099121
0.692841 0.283051 0.107544
0.750824 0.304047 0.119415
0.795807 0.323669 0.131500
0.000000 0.283051 0.229950
0.010254 0.263824 0.199158
0.132111 0.296417 0.159485
0.387299 0.308624 0.086975
0.524017 0.309448 0.066772
0.646515 0.326691 0.075165
0.733124 0.339325 0.086975
0.792023 0.355560 0.100708
0.831573 0.368073 0.116730
0.000000 0.370544 0.291992
0.007904 0.351929 0.260345
0.120087 0.359344 0.247162
0.341553 0.415558 0.168671
0.519196 0.412048 0.087402
0.665741 0.412659 0.056213
0.763550 0.422974 0.070007
0.828217 0.433044 0.083344
0.867310 0.431000 0.097137
0.000000 0.461212 0.355957
0.014191 0.453247 0.333405
0.107910 0.452026 0.314514
0.210419 0.526001 0.242157
0.511200 0.543549 0.176941
0.682922 0.542480 0.108643
0.801575 0.541779 0.084717
0.873108 0.544495 0.081970
0.907959 0.530487 0.085632
0.000000 0.544220 0.413574
0.026825 0.542542 0.397308
0.118439 0.545624 0.382111
0.216064 0.613251 0.365265
0.465759 0.666443 0.288544
0.691528 0.670227 0.174225
0.823669 0.672516 0.147522
0.900391 0.668701 0.133606
0.946564 0.654175 0.119080
0.000000 0.608582 0.458191
0.041016 0.610840 0.445007
0.130280 0.616699 0.433441
0.214966 0.672791 0.430756
0.350494 0.741638 0.310028
0.660645 0.757233 0.292114
0.815277 0.754822 0.187134
0.908112 0.753693 0.169617
0.958435 0.748230 0.159973
0.000000 0.700592 0.531769
0.037079 0.700958 0.515411
0.143982 0.706085 0.506927
0.229614 0.724884 0.494843
0.283051 0.768433 0.447449
0.433685 0.811371 0.347595
0.683777 0.823547 0.341003
0.857605 0.821960 0.207611
0.960175 0.814758 0.187347
0.000793 0.047607 0.089172
0.177399 0.079102 0.182220
0.355469 0.102631 0.191711
0.456787 0.111145 0.181122
0.530304 0.119415 0.163666
0.594849 0.129059 0.144531
0.646179 0.143982 0.136871
0.691711 0.174225 0.151520
0.720947 0.233276 0.179382
0.000000 0.154144 0.193146
0.030762 0.112915 0.156952
0.290344 0.140320 0.178497
0.411804 0.155182 0.153625
0.489929 0.184174 0.155945
0.564514 0.208344 0.161469
0.620667 0.229095 0.168671
0.676758 0.255035 0.175140
0.737152 0.297394 0.193146
0.000000 0.239441 0.249603
0.000000 0.219788 0.231293
0.205536 0.222961 0.218750
0.350983 0.239777 0.183960
0.471283 0.270996 0.184174
0.590210 0.295898 0.182220
0.673645 0.311340 0.182007
0.729126 0.324249 0.184174
0.777771 0.337921 0.185028
0.000000 0.317627 0.292114
0.000000 0.303070 0.271973
0.097931 0.300018 0.256531
0.363098 0.324677 0.201477
0.494507 0.338043 0.192719
0.627136 0.352325 0.177612
0.719910 0.363190 0.173553
0.776337 0.372192 0.175354
0.815002 0.377075 0.174683
0.000000 0.396667 0.341766
0.000000 0.390289 0.325928
0.041016 0.380707 0.303680
0.248383 0.423523 0.236725
0.499023 0.425140 0.189636
0.652771 0.423279 0.165833
0.759277 0.424255 0.157196
0.824799 0.431488 0.157959
0.854584 0.425720 0.161224
0.000000 0.482880 0.398102
0.000000 0.485443 0.389832
0.050354 0.478119 0.365143
0.229767 0.502441 0.349060
0.455688 0.554169 0.264954
0.668427 0.546051 0.171722
0.798004 0.534088 0.139465
0.872803 0.537811 0.140900
0.899628 0.513306 0.144806
0.000000 0.564240 0.452026
0.000000 0.568176 0.442780
0.078613 0.569336 0.422729
0.232605 0.595886 0.417389
0.369019 0.670715 0.312622
0.673157 0.683868 0.234100
0.821045 0.676392 0.191284
0.905212 0.671875 0.175140
0.945801 0.639221 0.155426
0.000000 0.625397 0.492004
0.000000 0.630188 0.480347
0.101471 0.634155 0.463318
0.232605 0.662445 0.460846
0.316956 0.738068 0.373779
0.627380 0.766174 0.334808
0.812531 0.765350 0.232605
0.915558 0.764648 0.213165
0.960388 0.755096 0.214813
0.000000 0.712555 0.560638
0.000000 0.710419 0.541412
0.091766 0.714996 0.531586
0.229095 0.723663 0.520813
0.300507 0.757843 0.491150
0.381256 0.812469 0.364655
0.662994 0.827606 0.371613
0.849823 0.830200 0.261353
0.961945 0.820648 0.229614
0.000000 0.104919 0.164154
0.127502 0.099915 0.261505
0.324005 0.128448 0.252960
0.440094 0.137451 0.257111
0.522064 0.144806 0.250366
0.593689 0.148346 0.240723
0.650391 0.154907 0.230621
0.705536 0.168457 0.226410
0.760559 0.204193 0.203430
0.000000 0.191711 0.246857
0.015778 0.136261 0.196960
0.212433 0.147522 0.253387
0.405609 0.171936 0.249908
0.515137 0.183075 0.233948
0.604980 0.189240 0.210968
0.666748 0.201691 0.195557
0.699829 0.237854 0.206085
0.726898 0.287506 0.226746
0.000000 0.268066 0.304535
0.000000 0.243103 0.287506
0.112915 0.226227 0.274323
0.369019 0.244049 0.271423
0.478241 0.263245 0.245758
0.564117 0.288544 0.242310
0.646210 0.301239 0.235748
0.701965 0.314972 0.230621
0.757538 0.350983 0.240082
0.000000 0.339966 0.346771
0.000000 0.335999 0.344788
0.042511 0.329803 0.336121
0.314850 0.339325 0.325470
0.450623 0.347076 0.280121
0.582031 0.373596 0.266937
0.690582 0.392090 0.258728
0.751434 0.396759 0.251434
0.795654 0.393311 0.234924
0.000000 0.412140 0.385315
0.000000 0.421082 0.389130
0.000000 0.410126 0.370544
0.201111 0.422150 0.364380
0.471771 0.445770 0.309692
0.624756 0.451813 0.281342
0.742035 0.453613 0.256226
0.803864 0.455170 0.247772
0.835449 0.440704 0.230103
0.000000 0.496368 0.435333
0.000000 0.507843 0.438385
0.000000 0.502258 0.420013
0.157471 0.512665 0.414978
0.353241 0.562866 0.340271
0.648254 0.564850 0.287506
0.784760 0.551849 0.253998
0.861633 0.546814 0.241058
0.886597 0.513672 0.223297
0.000000 0.578369 0.485840
0.000000 0.587311 0.484619
0.000000 0.591248 0.470642
0.155426 0.605103 0.466766
0.339752 0.651367 0.432983
0.625641 0.700043 0.350372
0.811340 0.686249 0.277710
0.902557 0.678101 0.260040
0.939636 0.631714 0.227600
0.000000 0.640472 0.524811
0.000000 0.645844 0.518005
0.039429 0.651215 0.501190
0.189026 0.668396 0.496979
0.339111 0.723206 0.470428
0.580170 0.779083 0.394836
0.802795 0.780457 0.316010
0.916321 0.776764 0.284760
0.958435 0.761414 0.288025
0.000000 0.722870 0.588409
0.000000 0.719818 0.571625
0.025238 0.723083 0.557159
0.178497 0.729706 0.548798
0.330353 0.747559 0.533661
0.382843 0.805176 0.430450
0.645447 0.833435 0.405609
0.850006 0.844482 0.332214
0.962341 0.827301 0.288269
0.000000 0.131805 0.200897
0.089600 0.125275 0.289551
0.298889 0.146454 0.305145
0.414734 0.163177 0.312866
0.505371 0.168671 0.314514
0.581879 0.174225 0.311218
0.643494 0.179169 0.305847
0.699890 0.186493 0.308014
0.763397 0.219971 0.285797
0.000000 0.219788 0.288391
0.010254 0.162689 0.235901
0.132111 0.161713 0.312286
0.356171 0.182434 0.314392
0.497833 0.199738 0.315094
0.600372 0.208344 0.302582
0.671753 0.214447 0.285431
0.726471 0.230286 0.271973
0.763428 0.260925 0.248535
0.000000 0.287628 0.344604
0.000000 0.266785 0.332550
0.072113 0.239929 0.312408
0.283569 0.250214 0.361542
0.488098 0.266388 0.329895
0.610687 0.277863 0.302826
0.686432 0.284485 0.278107
0.721527 0.304535 0.276093
0.735809 0.341980 0.279602
0.000000 0.354462 0.389282
0.000000 0.355164 0.395172
0.000000 0.341980 0.388123
0.216431 0.338684 0.382385
0.463959 0.351929 0.370087
0.572510 0.370270 0.335907
0.661621 0.380798 0.313934
0.721588 0.387665 0.303314
0.771393 0.405884 0.294281
0.000000 0.423950 0.429016
0.000000 0.441254 0.445404
0.000000 0.434784 0.438385
0.159729 0.441315 0.437134
0.422241 0.455841 0.423615
0.577759 0.459229 0.367493
0.705597 0.479980 0.347717
0.776306 0.480621 0.332977
0.813446 0.459381 0.298157
0.000000 0.507843 0.475159
0.000000 0.527405 0.488037
0.000000 0.528839 0.481720
0.071075 0.538116 0.480194
0.313232 0.559692 0.474121
0.627136 0.587097 0.406647
0.769653 0.580231 0.366608
0.848541 0.566376 0.339417
0.872375 0.528320 0.302338
0.000000 0.591644 0.522522
0.000000 0.604889 0.527588
0.000000 0.612366 0.522400
0.051025 0.621155 0.515533
0.278107 0.645660 0.520569
0.548096 0.709778 0.439148
0.796631 0.702301 0.381653
0.896240 0.690369 0.359344
0.928284 0.640472 0.314728
0.000000 0.653900 0.557617
0.000000 0.662994 0.556519
0.000000 0.668854 0.545746
0.097137 0.679779 0.538666
0.316833 0.711151 0.538116
0.508881 0.784576 0.446533
0.782654 0.801208 0.415741
0.911346 0.790924 0.374634
0.960358 0.770355 0.350891
0.000000 0.731995 0.615479
0.000000 0.730988 0.602356
0.000000 0.729523 0.586151
0.113281 0.736755 0.578796
0.282257 0.749847 0.569855
0.407074 0.793762 0.516235
0.619293 0.837677 0.444092
0.840515 0.853088 0.401306
0.961182 0.834290 0.357849
0.000000 0.154388 0.232941
0.080536 0.150208 0.302948
0.260925 0.169617 0.364166
0.386505 0.182861 0.363892
0.480133 0.195953 0.371216
0.562195 0.201111 0.373047
0.629303 0.204193 0.374817
0.686554 0.212616 0.380615
0.761017 0.242310 0.370270
0.000000 0.248383 0.330139
0.009460 0.187775 0.273071
0.095520 0.178711 0.310394
0.281342 0.197968 0.384033
0.447144 0.214813 0.379150
0.576660 0.228424 0.382477
0.661255 0.236053 0.376068
0.725128 0.253235 0.370361
0.777252 0.273621 0.339203
0.000000 0.309204 0.383209
0.000000 0.292633 0.375488
0.048309 0.260193 0.350372
0.201691 0.261078 0.391541
0.416077 0.265228 0.413727
0.594482 0.291870 0.398712
0.692963 0.298645 0.380981
0.751282 0.306824 0.363098
0.787720 0.313446 0.312866
0.000000 0.372284 0.431305
0.000000 0.372833 0.438995
0.000000 0.355042 0.432098
0.154388 0.340393 0.421997
0.363983 0.353333 0.477142
0.603485 0.368164 0.421326
0.712006 0.371124 0.384949
0.759583 0.377563 0.364868
0.756836 0.394043 0.342926
0.000000 0.437622 0.474457
0.000000 0.451447 0.490997
0.000000 0.448944 0.493347
0.087402 0.447754 0.494751
0.315308 0.449188 0.492828
0.603943 0.462372 0.463959
0.685974 0.472198 0.426514
0.745148 0.468994 0.400177
0.778992 0.458771 0.360138
0.000000 0.520325 0.522827
0.000000 0.544678 0.543976
0.000000 0.556183 0.552826
0.000000 0.556000 0.550507
0.256226 0.581421 0.561890
0.568909 0.605438 0.544037
0.727814 0.602448 0.483582
0.809540 0.596436 0.448212
0.843109 0.556244 0.396057
0.000000 0.609070 0.571075
0.000000 0.627533 0.583130
0.000000 0.640198 0.588074
0.000000 0.646515 0.584900
0.183533 0.669952 0.595947
0.466064 0.708160 0.583435
0.774536 0.731323 0.519257
0.884857 0.715973 0.481232
0.931427 0.657501 0.397217
0.000000 0.673340 0.602753
0.000000 0.685181 0.606689
0.000000 0.694000 0.605255
0.000000 0.701233 0.596436
0.193146 0.719818 0.599640
0.471558 0.766693 0.586151
0.728729 0.822968 0.526917
0.905731 0.811157 0.488647
0.961792 0.789276 0.458862
0.000000 0.745239 0.651184
0.000000 0.745789 0.641907
0.000000 0.744080 0.626343
0.003937 0.745972 0.613495
0.204956 0.757507 0.611053
0.402344 0.782867 0.594727
0.574341 0.841919 0.488037
0.826294 0.865662 0.479584
0.961731 0.843872 0.423279
0.000793 0.165833 0.251740
0.084717 0.173553 0.332214
0.243408 0.186493 0.430511
0.365265 0.205322 0.411133
0.457092 0.215515 0.418152
0.541473 0.227234 0.427002
0.607941 0.233124 0.430847
0.667999 0.239929 0.440643
0.746918 0.264801 0.447510
0.000000 0.275543 0.369598
0.014191 0.198944 0.292511
0.085175 0.195557 0.330444
0.211151 0.207794 0.479218
0.389557 0.231293 0.435486
0.534973 0.247772 0.441803
0.632721 0.257996 0.444092
0.707916 0.272797 0.448944
0.775269 0.300751 0.441315
0.000000 0.330353 0.419525
0.000000 0.309570 0.406891
0.039429 0.273071 0.376526
0.159729 0.265961 0.395020
0.319244 0.277039 0.493103
0.537811 0.296539 0.465912
0.667755 0.312164 0.462738
0.741943 0.326263 0.456146
0.797211 0.341431 0.432678
0.000000 0.388855 0.468567
0.000000 0.388123 0.474457
0.000000 0.366211 0.462891
0.122711 0.343872 0.446533
0.287628 0.354248 0.489319
0.528839 0.356049 0.503693
0.692047 0.374451 0.479645
0.771973 0.384125 0.465698
0.813293 0.389130 0.424835
0.000000 0.451599 0.514648
0.000000 0.459808 0.527039
0.000000 0.453613 0.528595
0.054932 0.446899 0.532684
0.246368 0.437286 0.525177
0.507782 0.447754 0.555084
0.716553 0.454803 0.503998
0.797791 0.460754 0.478455
0.809174 0.458282 0.436371
0.000000 0.528595 0.566101
0.000000 0.546051 0.584045
0.000000 0.557617 0.597260
0.000000 0.557037 0.601807
0.192932 0.572296 0.612366
0.471008 0.584198 0.616089
0.732544 0.593201 0.577606
0.785400 0.589478 0.536072
0.807220 0.549927 0.471985
0.000000 0.620850 0.621155
0.000000 0.642242 0.639221
0.000000 0.661255 0.654175
0.000000 0.671631 0.661285
0.136261 0.690277 0.674194
0.393768 0.727142 0.687653
0.722870 0.757019 0.670258
0.866516 0.740753 0.600159
0.910980 0.689056 0.516235
0.000000 0.695801 0.659210
0.000000 0.711456 0.669891
0.000000 0.724304 0.676910
0.000000 0.733368 0.677460
0.065643 0.747986 0.681152
0.346375 0.782074 0.695557
0.635986 0.832764 0.665192
0.888916 0.844177 0.629883
0.964020 0.825562 0.599457
0.000000 0.762177 0.695526
0.000000 0.766754 0.692810
0.000000 0.766693 0.684082
0.000000 0.767212 0.673920
0.038635 0.771790 0.664551
0.293640 0.789825 0.661469
0.540649 0.835602 0.599060
0.800964 0.879669 0.583282
0.962738 0.859100 0.505585
0.000000 0.207428 0.305145
0.093018 0.197357 0.366333
0.240417 0.206085 0.494354
0.358551 0.227600 0.466064
0.449646 0.235077 0.467224
0.525238 0.247314 0.473053
0.594086 0.257721 0.481659
0.651337 0.264526 0.490479
0.726288 0.291351 0.508118
0.000000 0.298035 0.402344
0.021301 0.198364 0.296295
0.095093 0.217133 0.367493
0.195160 0.234253 0.490814
0.353638 0.250061 0.498962
0.505585 0.262665 0.494232
0.605133 0.278381 0.496368
0.683655 0.295410 0.505066
0.754944 0.323212 0.516724
0.000000 0.351929 0.453369
0.000000 0.324127 0.432281
0.052368 0.273346 0.384766
0.152832 0.274170 0.418152
0.262817 0.287384 0.537933
0.479370 0.306824 0.516174
0.631561 0.324249 0.519073
0.716553 0.339539 0.520752
0.780304 0.364075 0.523132
0.000000 0.406647 0.501801
0.000000 0.395813 0.496429
0.000000 0.369995 0.480682
0.113281 0.338684 0.453979
0.248840 0.350281 0.496033
0.439484 0.360748 0.562714
0.645172 0.373230 0.540344
0.743225 0.388672 0.535767
0.805481 0.410461 0.529755
0.000000 0.466431 0.550964
0.000000 0.462891 0.551727
0.000000 0.450928 0.547852
0.033142 0.435822 0.545105
0.209106 0.419525 0.529938
0.415497 0.433380 0.610840
0.655121 0.435883 0.567719
0.770813 0.449493 0.552948
0.832825 0.468658 0.541168
0.000000 0.538788 0.602753
0.000000 0.545319 0.611603
0.000000 0.547974 0.618500
0.000000 0.542297 0.621613
0.155426 0.543976 0.628021
0.394043 0.542023 0.626282
0.667664 0.542969 0.633850
0.810455 0.551544 0.591858
0.878174 0.553864 0.563538
0.000000 0.624268 0.659821
0.000000 0.635986 0.671478
0.000000 0.650848 0.686035
0.000000 0.660431 0.697083
0.074158 0.673737 0.711029
0.330017 0.701660 0.724670
0.659576 0.721527 0.735107
0.853027 0.724792 0.696869
0.891479 0.689362 0.627625
0.000000 0.706146 0.707947
0.000000 0.721832 0.721436
0.000000 0.737122 0.733673
0.000000 0.751587 0.744995
0.000000 0.766479 0.755920
0.262238 0.799316 0.777588
0.540649 0.845734 0.782349
0.851562 0.874268 0.775177
0.960480 0.861084 0.734467
0.000000 0.775940 0.744354
0.000000 0.785645 0.750671
0.000000 0.792175 0.753357
0.000000 0.797119 0.754089
0.000000 0.802765 0.752838
0.081482 0.810883 0.748657
0.394653 0.840912 0.746277
0.745148 0.894714 0.681519
0.964966 0.895691 0.640106
0.000000 0.239929 0.346252
0.083344 0.210205 0.372284
0.212616 0.219788 0.540100
0.350586 0.240875 0.509979
0.441864 0.253387 0.499603
0.523956 0.259766 0.511322
0.585876 0.274597 0.519440
0.654083 0.293518 0.537567
0.728027 0.322662 0.556976
0.000000 0.319702 0.431793
0.011047 0.247314 0.359344
0.096313 0.237366 0.385956
0.194366 0.257843 0.507202
0.354645 0.267365 0.546936
0.498230 0.282776 0.528198
0.601105 0.301727 0.539429
0.682678 0.324341 0.554169
0.748352 0.354248 0.569977
0.000000 0.373230 0.483154
0.000000 0.349762 0.464905
0.047607 0.288025 0.406891
0.153107 0.287231 0.439789
0.256531 0.299896 0.556061
0.456726 0.317291 0.554962
0.612213 0.336426 0.560944
0.703430 0.361328 0.570465
0.768250 0.391266 0.582672
0.000000 0.428375 0.532990
0.000000 0.409546 0.518372
0.000000 0.375031 0.493622
0.109711 0.334717 0.457306
0.232941 0.345642 0.507782
0.401672 0.352722 0.603912
0.615631 0.374084 0.582855
0.723663 0.402618 0.586517
0.790344 0.431396 0.596466
0.000000 0.486450 0.582397
0.000000 0.472137 0.572235
0.000000 0.450165 0.557800
0.015778 0.421570 0.541840
0.187134 0.395538 0.517609
0.362701 0.411987 0.606842
0.616791 0.421173 0.612518
0.745361 0.450226 0.604370
0.812958 0.481934 0.612335
0.000000 0.554321 0.632935
0.000000 0.544556 0.627686
0.000000 0.533173 0.622803
0.000000 0.513885 0.614868
0.053650 0.499146 0.612274
0.329346 0.489990 0.600555
0.590271 0.508362 0.657135
0.769287 0.523682 0.633209
0.847687 0.554260 0.642792
0.000000 0.627289 0.683502
0.000000 0.622162 0.681427
0.000000 0.621307 0.683380
0.000000 0.621216 0.687866
0.000000 0.619598 0.695099
0.237030 0.628998 0.708557
0.578033 0.644928 0.713287
0.798767 0.647400 0.703308
0.896729 0.674561 0.708466
0.000000 0.704498 0.735352
0.000000 0.710785 0.741669
0.000000 0.719604 0.750183
0.000000 0.729858 0.760468
0.000000 0.741241 0.772186
0.047607 0.756470 0.789642
0.412415 0.799927 0.811279
0.810242 0.825531 0.826416
0.940125 0.837463 0.806366
0.000000 0.775085 0.779907
0.000000 0.783752 0.787109
0.000000 0.789856 0.792236
0.000000 0.797150 0.798340
0.000000 0.805359 0.804901
0.064514 0.817902 0.815033
0.139465 0.839355 0.832855
0.473267 0.896545 0.860260
0.956360 0.960327 0.856628
