cube滤镜(3D LUT)/Moldavite.cube
# Created by: Lutify.me
# Copyright: (c) Copyright Lutify.me 2015
# Website: https://lutify.me
#LUT size
LUT_3D_SIZE 33
#LUT data points
0.000000 0.000000 0.000000
0.003937 0.000000 0.000000
0.010803 0.000000 0.000000
0.045929 0.000000 0.000000
0.081451 0.000000 0.000000
0.115906 0.006470 0.001465
0.145752 0.010742 0.003021
0.175476 0.014465 0.004547
0.204803 0.019928 0.006104
0.236084 0.025360 0.010925
0.264221 0.029999 0.013153
0.291412 0.034668 0.014709
0.319794 0.041046 0.017059
0.345673 0.046295 0.019867
0.370850 0.050812 0.023407
0.396271 0.055969 0.026428
0.421448 0.061035 0.029175
0.447540 0.065552 0.032654
0.474762 0.070312 0.036957
0.502106 0.075470 0.041138
0.528076 0.079987 0.044830
0.554596 0.084747 0.048309
0.582001 0.089966 0.052490
0.607635 0.094666 0.055756
0.631317 0.099915 0.057739
0.658081 0.105957 0.060120
0.682678 0.111664 0.062347
0.705109 0.116699 0.063568
0.726624 0.120331 0.066345
0.748138 0.124603 0.068481
0.772827 0.130096 0.070618
0.798859 0.134613 0.074188
0.823425 0.140320 0.076172
0.000000 0.005371 0.002319
0.003876 0.007690 0.000763
0.013031 0.004669 0.000000
0.049072 0.007538 0.000000
0.085175 0.012115 0.000000
0.115082 0.016785 0.000000
0.146271 0.020782 0.003510
0.178589 0.023926 0.005341
0.205017 0.027069 0.006897
0.233734 0.032104 0.010590
0.264618 0.036987 0.013733
0.293213 0.041595 0.015503
0.319397 0.047119 0.018341
0.344574 0.052490 0.020935
0.371429 0.058044 0.023743
0.397766 0.063599 0.026428
0.422363 0.069061 0.028778
0.448822 0.074158 0.032288
0.476807 0.079254 0.036194
0.504120 0.084747 0.039612
0.531128 0.090546 0.042358
0.559052 0.096802 0.045532
0.587463 0.102966 0.048584
0.612457 0.108826 0.050629
0.638092 0.114410 0.052917
0.663971 0.119751 0.055939
0.686523 0.124451 0.057770
0.708618 0.128693 0.060120
0.732483 0.133942 0.062439
0.754211 0.138062 0.064697
0.778717 0.143524 0.066925
0.801117 0.146332 0.070648
0.825745 0.152100 0.072693
0.000000 0.027588 0.013794
0.001556 0.034515 0.013733
0.003052 0.033752 0.006897
0.050812 0.026276 0.000000
0.092468 0.026917 0.000000
0.125305 0.029938 0.000000
0.152893 0.036682 0.000061
0.181641 0.040894 0.000153
0.208252 0.043243 0.002167
0.238220 0.047821 0.005280
0.267578 0.050934 0.008911
0.296417 0.055450 0.010986
0.323730 0.060638 0.013794
0.350616 0.066559 0.016388
0.377136 0.071747 0.019684
0.402008 0.076538 0.023071
0.428192 0.082184 0.025391
0.455597 0.087952 0.028870
0.482727 0.093170 0.032379
0.509796 0.099335 0.034760
0.537567 0.105652 0.037811
0.566040 0.112061 0.040619
0.593445 0.118286 0.043152
0.619507 0.124115 0.045990
0.645142 0.128967 0.049286
0.668030 0.134644 0.050659
0.691101 0.139923 0.052246
0.714447 0.144012 0.055298
0.736084 0.147888 0.057739
0.759735 0.152069 0.060791
0.783234 0.156403 0.063599
0.806946 0.160339 0.066406
0.828186 0.164215 0.069061
0.000000 0.053040 0.026855
0.001556 0.060333 0.027649
0.002319 0.058136 0.022461
0.039154 0.052734 0.000305
0.090912 0.048004 0.000000
0.130493 0.047943 0.000000
0.160950 0.051819 0.000000
0.191650 0.054016 0.000000
0.218781 0.059052 0.000000
0.246948 0.062317 0.000732
0.274597 0.066833 0.002960
0.301666 0.071930 0.004761
0.328888 0.077179 0.007599
0.354645 0.082336 0.010712
0.381500 0.087677 0.013794
0.408478 0.093536 0.016907
0.435150 0.099243 0.020020
0.461823 0.104584 0.023102
0.487793 0.109955 0.025848
0.515747 0.115753 0.029327
0.544678 0.122437 0.032349
0.572327 0.128784 0.034760
0.599609 0.135254 0.037537
0.624786 0.140717 0.040161
0.649597 0.144897 0.043243
0.672089 0.149414 0.045471
0.696228 0.153931 0.048676
0.720551 0.159088 0.050812
0.743530 0.163177 0.053925
0.765350 0.167145 0.056427
0.786530 0.170654 0.058960
0.810211 0.174988 0.061371
0.834137 0.180542 0.063660
0.000000 0.077972 0.044220
0.001556 0.086914 0.047577
0.002319 0.082794 0.040100
0.032104 0.079742 0.009308
0.081940 0.076843 0.000000
0.127289 0.071411 0.000000
0.160553 0.068848 0.000000
0.194977 0.070648 0.000000
0.226532 0.074097 0.000000
0.252808 0.077728 0.000000
0.278870 0.081390 0.000092
0.307770 0.087341 0.001404
0.335632 0.092743 0.004028
0.361481 0.098419 0.006653
0.387756 0.103912 0.009521
0.413452 0.110199 0.011749
0.438904 0.116333 0.013702
0.466309 0.121704 0.016907
0.494568 0.127563 0.020691
0.522919 0.134064 0.023102
0.550812 0.140472 0.026215
0.577728 0.146667 0.028534
0.604065 0.152374 0.031647
0.629181 0.157257 0.034424
0.653992 0.162781 0.037048
0.678192 0.167389 0.039368
0.703003 0.172699 0.041901
0.728271 0.176605 0.045441
0.751129 0.179016 0.049561
0.773407 0.182709 0.052704
0.796356 0.186615 0.055237
0.815887 0.190186 0.057159
0.839417 0.196167 0.058868
0.000000 0.102600 0.061951
0.001556 0.107452 0.062897
0.002319 0.107178 0.060364
0.015015 0.107574 0.016174
0.083618 0.098206 0.001373
0.121887 0.098755 0.000000
0.162384 0.093109 0.000000
0.197601 0.090485 0.000000
0.228577 0.090302 0.000000
0.257263 0.091614 0.000000
0.288116 0.097198 0.000000
0.315948 0.102692 0.000000
0.343475 0.107635 0.001892
0.368439 0.112732 0.003876
0.394012 0.118530 0.006653
0.420410 0.124664 0.008972
0.446686 0.130402 0.011566
0.473907 0.136597 0.014282
0.501617 0.143494 0.016724
0.528595 0.149963 0.018829
0.555542 0.157837 0.020386
0.583130 0.164948 0.022583
0.608917 0.169922 0.025848
0.634247 0.175842 0.028320
0.659760 0.181702 0.030060
0.685516 0.186188 0.033966
0.709534 0.190094 0.036926
0.735016 0.193512 0.041046
0.760437 0.195923 0.045868
0.784302 0.200867 0.048126
0.806488 0.202972 0.052063
0.825287 0.206879 0.053314
0.845276 0.212585 0.054047
0.000000 0.122833 0.077301
0.001556 0.123749 0.075531
0.002960 0.126617 0.075409
0.014313 0.129150 0.046539
0.084290 0.120850 0.009155
0.123535 0.120850 0.000000
0.160706 0.121674 0.000000
0.199066 0.115265 0.000000
0.231903 0.112274 0.000000
0.260956 0.110443 0.000000
0.291046 0.111847 0.000000
0.320770 0.116547 0.000000
0.348572 0.122498 0.000000
0.375824 0.127136 0.001862
0.402344 0.133179 0.004547
0.428528 0.139221 0.006653
0.456146 0.145172 0.009613
0.483490 0.151398 0.012360
0.509857 0.158142 0.014679
0.536652 0.165466 0.016235
0.563507 0.172821 0.017792
0.590973 0.181396 0.019073
0.616455 0.188812 0.020416
0.641693 0.195190 0.022095
0.667114 0.202057 0.023865
0.693604 0.206879 0.027130
0.720184 0.209900 0.031799
0.745911 0.213165 0.036560
0.769653 0.215088 0.042450
0.791687 0.218262 0.045776
0.814728 0.220917 0.049316
0.837494 0.223816 0.050598
0.854736 0.228882 0.050598
0.000000 0.142120 0.091492
0.001556 0.141602 0.089294
0.003662 0.146271 0.089020
0.015656 0.150116 0.069305
0.065369 0.145905 0.023499
0.128510 0.140167 0.000793
0.163757 0.142242 0.000000
0.199860 0.143707 0.000000
0.234741 0.135468 0.000000
0.264771 0.131927 0.000000
0.294250 0.131470 0.000000
0.324463 0.132935 0.000000
0.353271 0.136230 0.000000
0.382385 0.142944 0.000000
0.411407 0.148529 0.002472
0.438110 0.154083 0.004944
0.465149 0.160339 0.007446
0.492584 0.166626 0.010193
0.519653 0.173645 0.012360
0.546387 0.181213 0.013885
0.572937 0.188904 0.015625
0.599640 0.196960 0.016724
0.624786 0.204041 0.018005
0.650177 0.210663 0.019897
0.673828 0.217865 0.020874
0.699799 0.223724 0.022949
0.728027 0.227814 0.027435
0.752350 0.231049 0.031769
0.775391 0.235382 0.037872
0.797058 0.240448 0.041779
0.819916 0.242249 0.046539
0.843781 0.243896 0.047882
0.866486 0.246796 0.047882
0.000000 0.158569 0.103851
0.001556 0.158417 0.101959
0.004425 0.160675 0.098877
0.016602 0.167023 0.084198
0.049408 0.168732 0.033661
0.129425 0.159698 0.005981
0.171814 0.163513 0.000000
0.205750 0.166779 0.000000
0.236572 0.163727 0.000000
0.267548 0.155182 0.000000
0.298248 0.153412 0.000000
0.327026 0.152649 0.000000
0.357544 0.153534 0.000000
0.387634 0.157227 0.000000
0.415527 0.162567 0.000458
0.443542 0.168488 0.002380
0.472168 0.175629 0.005127
0.500427 0.182831 0.007080
0.528870 0.190491 0.009399
0.555450 0.198608 0.010651
0.580719 0.206635 0.011719
0.607941 0.213989 0.013275
0.633240 0.220306 0.015625
0.658478 0.227051 0.017181
0.682159 0.233551 0.018524
0.707306 0.239105 0.020630
0.735168 0.243134 0.025085
0.759338 0.247162 0.029877
0.782043 0.252899 0.035980
0.803345 0.257141 0.039856
0.826172 0.260193 0.043732
0.848053 0.263580 0.045105
0.872925 0.266510 0.045105
0.000000 0.174835 0.115753
0.001556 0.174988 0.114532
0.005371 0.177887 0.111115
0.017975 0.184387 0.098602
0.035522 0.191650 0.056030
0.124390 0.183136 0.025757
0.171326 0.182739 0.000854
0.211670 0.187256 0.000000
0.244476 0.192352 0.000000
0.271912 0.187836 0.000000
0.301971 0.178192 0.000000
0.331604 0.176025 0.000000
0.360443 0.176636 0.000000
0.390259 0.178223 0.000000
0.418762 0.180939 0.000000
0.447235 0.185242 0.000214
0.476868 0.191711 0.001617
0.506561 0.199799 0.003967
0.536133 0.208160 0.005737
0.563873 0.216553 0.007294
0.589508 0.223755 0.008911
0.616486 0.230560 0.010956
0.641235 0.237152 0.012512
0.665131 0.243896 0.013855
0.689819 0.250458 0.015259
0.715637 0.254730 0.018311
0.744507 0.258942 0.022888
0.767029 0.263184 0.028961
0.788239 0.269012 0.033081
0.808594 0.272034 0.037231
0.832001 0.275696 0.041534
0.854614 0.279785 0.042938
0.878601 0.282257 0.042175
0.000000 0.192535 0.128937
0.001556 0.192841 0.127838
0.006653 0.196899 0.124451
0.018982 0.201813 0.113739
0.037750 0.208435 0.080444
0.113708 0.207886 0.043182
0.174774 0.204529 0.004486
0.213135 0.209961 0.000183
0.249512 0.214355 0.000000
0.281281 0.220001 0.000000
0.308655 0.214661 0.000000
0.336609 0.204712 0.000000
0.365936 0.202728 0.000000
0.395325 0.202972 0.000000
0.423828 0.204041 0.000000
0.452332 0.207153 0.000000
0.481812 0.210907 0.000000
0.511475 0.217072 0.000854
0.541595 0.225922 0.002411
0.570648 0.234314 0.004303
0.597748 0.241486 0.006317
0.624451 0.248810 0.007874
0.649231 0.255646 0.009399
0.673309 0.261597 0.010956
0.698517 0.267273 0.013062
0.724731 0.271576 0.016541
0.750885 0.275726 0.021210
0.773010 0.280731 0.026215
0.795502 0.285126 0.031830
0.817627 0.287933 0.036407
0.839478 0.291931 0.039093
0.861755 0.294891 0.038086
0.887360 0.297180 0.039673
0.000000 0.210022 0.141998
0.001526 0.210297 0.140900
0.008942 0.215210 0.136719
0.020355 0.218231 0.126648
0.040527 0.225067 0.098816
0.089844 0.231689 0.054840
0.169739 0.228851 0.031769
0.212799 0.231171 0.002258
0.252502 0.236969 0.000000
0.285553 0.242584 0.000000
0.317108 0.248077 0.000000
0.343384 0.242218 0.000000
0.370483 0.233246 0.000000
0.399475 0.229828 0.000000
0.428986 0.230927 0.000000
0.457703 0.231750 0.000000
0.487305 0.234009 0.000000
0.515991 0.238190 0.000000
0.544983 0.244141 0.000610
0.574829 0.251678 0.002167
0.602661 0.259125 0.003723
0.630280 0.266876 0.005554
0.656952 0.274231 0.006836
0.681396 0.279724 0.009155
0.706207 0.284698 0.010712
0.733521 0.289795 0.013855
0.757812 0.293427 0.019775
0.779846 0.298431 0.025726
0.801880 0.300659 0.030945
0.824402 0.303406 0.034607
0.846588 0.307068 0.036774
0.868805 0.310608 0.034454
0.895020 0.313538 0.035004
0.000000 0.226410 0.154205
0.001526 0.228729 0.154907
0.009949 0.231689 0.148834
0.022888 0.236572 0.139252
0.042999 0.243469 0.117920
0.071259 0.254028 0.065735
0.157928 0.252563 0.056335
0.212616 0.252319 0.010254
0.252869 0.257996 0.001465
0.289825 0.263794 0.000000
0.320862 0.269958 0.000000
0.352753 0.276337 0.000000
0.377533 0.271271 0.000000
0.403931 0.261322 0.000000
0.434631 0.258270 0.000000
0.464478 0.258514 0.000000
0.492798 0.260071 0.000000
0.522034 0.263000 0.000000
0.549957 0.266754 0.000488
0.578278 0.272278 0.001892
0.606750 0.277740 0.003448
0.634430 0.284027 0.004517
0.661591 0.291443 0.006073
0.687134 0.297607 0.007629
0.712280 0.302734 0.009155
0.739258 0.307129 0.011688
0.765930 0.311340 0.016968
0.787140 0.315826 0.023468
0.808899 0.318451 0.028503
0.830811 0.320831 0.031982
0.853882 0.323151 0.034943
0.876526 0.325623 0.032593
0.901886 0.328705 0.031036
0.000000 0.243347 0.166656
0.002014 0.246216 0.167145
0.011169 0.249939 0.161804
0.026154 0.255737 0.152496
0.047211 0.263794 0.134796
0.066132 0.274109 0.087311
0.150482 0.275269 0.069885
0.213959 0.274872 0.036194
0.254486 0.279327 0.003021
0.292786 0.286011 0.000702
0.326935 0.292145 0.000000
0.356476 0.297455 0.000000
0.386932 0.306641 0.000000
0.411865 0.301117 0.000000
0.439484 0.289978 0.000000
0.469696 0.286713 0.000000
0.498383 0.287720 0.000397
0.527405 0.289856 0.000824
0.556213 0.292480 0.001617
0.583435 0.296478 0.002838
0.611847 0.299713 0.003906
0.639252 0.303894 0.005188
0.665192 0.309265 0.006226
0.691376 0.314911 0.007324
0.716827 0.320953 0.008881
0.741852 0.325256 0.010132
0.771637 0.329681 0.012909
0.794800 0.333069 0.018341
0.816437 0.336243 0.024139
0.839111 0.337830 0.027924
0.862335 0.340302 0.030029
0.884277 0.341797 0.029327
0.909210 0.344696 0.028229
0.000000 0.261139 0.180084
0.003998 0.262604 0.177734
0.013947 0.268280 0.174133
0.029968 0.273560 0.164429
0.051453 0.282593 0.149139
0.070709 0.293030 0.110138
0.137909 0.297211 0.079742
0.209412 0.297211 0.063293
0.258240 0.300079 0.008331
0.293579 0.306671 0.002472
0.330688 0.313873 0.000702
0.363556 0.319611 0.000000
0.391357 0.328094 0.000000
0.423370 0.337799 0.000000
0.448120 0.331055 0.000000
0.474518 0.319977 0.001221
0.504822 0.316803 0.001678
0.534668 0.317719 0.002472
0.563416 0.320435 0.003235
0.590576 0.322876 0.004395
0.617523 0.325073 0.005463
0.645081 0.327881 0.006226
0.670624 0.331207 0.007355
0.695343 0.334381 0.008331
0.719879 0.338623 0.009125
0.744659 0.344269 0.010071
0.774231 0.349487 0.011963
0.799316 0.351349 0.014893
0.823547 0.352753 0.019379
0.847351 0.354401 0.021942
0.870422 0.357361 0.023071
0.891571 0.358093 0.024261
0.913910 0.362244 0.024353
0.000427 0.278198 0.192474
0.007446 0.281158 0.189148
0.018219 0.286499 0.185425
0.035492 0.291931 0.175629
0.055939 0.301239 0.162231
0.075500 0.310608 0.126770
0.119263 0.318756 0.087341
0.201263 0.318756 0.081390
0.255432 0.320923 0.043732
0.296417 0.326538 0.004578
0.331726 0.334991 0.002106
0.367401 0.342407 0.000275
0.398987 0.349213 0.000000
0.427429 0.359100 0.000000
0.459381 0.369324 0.000000
0.483643 0.362915 0.000793
0.511963 0.350739 0.003143
0.541473 0.347595 0.004791
0.569794 0.349457 0.005493
0.597565 0.350616 0.005951
0.624023 0.351379 0.006714
0.650757 0.353668 0.007782
0.676270 0.356232 0.008545
0.700348 0.358643 0.009308
0.724091 0.360443 0.010071
0.748230 0.363617 0.011230
0.775177 0.367767 0.012238
0.801819 0.370178 0.013885
0.828827 0.371521 0.015808
0.851807 0.373444 0.017303
0.874756 0.375488 0.017761
0.895233 0.375671 0.019714
0.918396 0.379089 0.021667
0.003143 0.295349 0.203308
0.010895 0.297546 0.199280
0.022827 0.303192 0.195221
0.041168 0.310730 0.187286
0.059875 0.318939 0.175171
0.079742 0.328491 0.143402
0.108490 0.338531 0.097260
0.191895 0.340088 0.094086
0.254303 0.341858 0.070312
0.299438 0.346100 0.011230
0.333496 0.354858 0.004425
0.369659 0.363708 0.001068
0.403595 0.371582 0.000000
0.433655 0.379395 0.000000
0.462616 0.392303 0.000000
0.495148 0.403381 0.000000
0.520813 0.395508 0.001984
0.547638 0.383148 0.005829
0.575043 0.380066 0.007050
0.604004 0.380188 0.007812
0.631561 0.380432 0.008667
0.657623 0.381348 0.009338
0.682281 0.383362 0.010101
0.706818 0.385559 0.010864
0.730835 0.386597 0.011627
0.754242 0.386963 0.012238
0.777313 0.387604 0.013031
0.802521 0.388794 0.013794
0.830750 0.391083 0.015076
0.852234 0.393311 0.015381
0.874573 0.393890 0.016602
0.898895 0.394104 0.018158
0.922943 0.393921 0.020508
0.007050 0.315033 0.215363
0.014771 0.314575 0.209686
0.028229 0.320312 0.205536
0.046570 0.328247 0.198517
0.064392 0.335754 0.186554
0.084320 0.346283 0.158142
0.106628 0.357239 0.105957
0.182465 0.361176 0.104095
0.249298 0.363007 0.090881
0.299957 0.367035 0.045532
0.336029 0.373871 0.006134
0.372375 0.383606 0.003632
0.407166 0.393890 0.000793
0.439850 0.402618 0.000000
0.468964 0.412048 0.000000
0.499969 0.427460 0.000000
0.531647 0.438904 0.000031
0.555634 0.430054 0.003174
0.582275 0.416809 0.007385
0.610870 0.412903 0.009369
0.638763 0.412445 0.010620
0.664612 0.411957 0.010895
0.689209 0.412628 0.011658
0.713348 0.413879 0.012421
0.736877 0.413574 0.013184
0.760437 0.413208 0.013763
0.783234 0.412445 0.014557
0.804535 0.411316 0.014679
0.830200 0.411011 0.015869
0.852814 0.413177 0.016571
0.876312 0.411591 0.016937
0.904114 0.411804 0.018158
0.924683 0.410767 0.019348
0.010162 0.336670 0.229919
0.019440 0.336670 0.224152
0.032593 0.341522 0.219849
0.050659 0.348999 0.213013
0.070404 0.356140 0.199493
0.088867 0.365692 0.175476
0.105438 0.376343 0.119873
0.176422 0.381134 0.112183
0.240173 0.384369 0.107483
0.295532 0.388092 0.080353
0.340057 0.393768 0.015167
0.373260 0.403076 0.005951
0.408447 0.414459 0.003479
0.443207 0.425079 0.000793
0.475861 0.434814 0.000000
0.504608 0.445618 0.000000
0.535736 0.464417 0.000000
0.565704 0.475952 0.000061
0.590729 0.465027 0.003510
0.618011 0.451752 0.008942
0.644623 0.446960 0.011353
0.669922 0.444763 0.012177
0.695679 0.444519 0.013214
0.720123 0.443604 0.013977
0.743042 0.442657 0.014740
0.766266 0.441254 0.015320
0.789368 0.440063 0.016113
0.811707 0.438995 0.016235
0.833038 0.435272 0.016907
0.857025 0.433838 0.017426
0.882935 0.430786 0.018188
0.908691 0.430267 0.018921
0.924805 0.430389 0.019257
0.012146 0.359589 0.246368
0.021423 0.360199 0.241364
0.036102 0.365295 0.237183
0.054413 0.372406 0.230621
0.074646 0.380219 0.217987
0.092651 0.388702 0.198578
0.109619 0.397217 0.152832
0.162872 0.401825 0.119507
0.232758 0.404816 0.118805
0.288391 0.409515 0.104584
0.337677 0.414856 0.060577
0.375458 0.423035 0.008484
0.407990 0.433990 0.006744
0.443665 0.446075 0.003479
0.479126 0.458405 0.001099
0.511047 0.469788 0.000702
0.537415 0.481171 0.000000
0.569519 0.501953 0.000000
0.600342 0.512634 0.000061
0.624969 0.501801 0.004395
0.651245 0.487946 0.009674
0.675659 0.480652 0.013214
0.701172 0.477814 0.014771
0.726532 0.476013 0.015533
0.749756 0.473663 0.016296
0.774231 0.471039 0.016876
0.795898 0.469421 0.017670
0.819427 0.467560 0.018463
0.840668 0.463440 0.018463
0.864258 0.457764 0.018524
0.889374 0.455139 0.019257
0.914215 0.451141 0.020050
0.924805 0.449463 0.019714
0.012909 0.385162 0.265381
0.024048 0.386627 0.260986
0.039032 0.390717 0.256134
0.058136 0.395874 0.248260
0.078735 0.404053 0.236542
0.096893 0.410950 0.218079
0.113617 0.417938 0.180664
0.148163 0.422913 0.129456
0.225342 0.424866 0.128235
0.280975 0.431274 0.122467
0.331757 0.437805 0.098480
0.375885 0.444458 0.039886
0.410431 0.454163 0.009277
0.444550 0.466797 0.006744
0.480133 0.480652 0.003479
0.514709 0.494415 0.001465
0.544434 0.504974 0.000793
0.570862 0.517212 0.000000
0.604675 0.540741 0.000000
0.633270 0.551453 0.000061
0.657135 0.540466 0.004730
0.683411 0.523865 0.010651
0.707306 0.513916 0.014893
0.731903 0.510071 0.016571
0.755280 0.506927 0.017548
0.780975 0.503326 0.018311
0.802948 0.499603 0.019226
0.826202 0.496094 0.019836
0.848480 0.492004 0.020020
0.871857 0.486145 0.020294
0.895660 0.482574 0.020813
0.917694 0.475677 0.020813
0.924774 0.471863 0.020813
0.014465 0.408997 0.283112
0.026062 0.410553 0.278381
0.042725 0.413269 0.272400
0.061707 0.417480 0.264160
0.082001 0.423157 0.251129
0.101349 0.429230 0.231750
0.117615 0.435913 0.198761
0.136902 0.442474 0.139954
0.214020 0.445099 0.136749
0.275360 0.450989 0.134308
0.329224 0.458008 0.118561
0.374603 0.465759 0.083405
0.412994 0.474945 0.018097
0.446747 0.486786 0.009857
0.481262 0.501587 0.007538
0.515961 0.516083 0.003632
0.549683 0.529602 0.001587
0.578522 0.541412 0.000793
0.605194 0.556366 0.000793
0.637268 0.580566 0.000732
0.663391 0.589386 0.000336
0.687805 0.577362 0.003937
0.714233 0.559998 0.010162
0.739380 0.548553 0.015686
0.761841 0.542328 0.017731
0.785126 0.537872 0.019196
0.809601 0.533234 0.020660
0.832306 0.527435 0.020782
0.856384 0.520905 0.021545
0.880249 0.515625 0.022339
0.903839 0.509491 0.022339
0.917511 0.503265 0.022339
0.924744 0.499847 0.022339
0.016510 0.425354 0.294373
0.028900 0.426788 0.289825
0.046722 0.430328 0.284210
0.066345 0.434296 0.275177
0.084991 0.438507 0.262360
0.105621 0.445557 0.243683
0.122498 0.453461 0.213257
0.136322 0.461517 0.163452
0.197815 0.465485 0.144257
0.267334 0.470947 0.144836
0.325439 0.477234 0.134644
0.373657 0.485443 0.109436
0.413300 0.495087 0.064819
0.449188 0.506378 0.012634
0.482666 0.520874 0.011078
0.517365 0.535889 0.008331
0.551392 0.551361 0.003876
0.583344 0.566711 0.002228
0.611084 0.579254 0.001465
0.636292 0.594604 0.001038
0.666656 0.617950 0.000793
0.692688 0.624908 0.000305
0.717499 0.612610 0.003387
0.745331 0.594940 0.010681
0.768768 0.582458 0.015839
0.791412 0.573395 0.019653
0.815308 0.569122 0.020660
0.840057 0.561646 0.022217
0.864868 0.553253 0.023102
0.888184 0.546234 0.023895
0.909790 0.539307 0.023895
0.917572 0.532684 0.023865
0.924866 0.529114 0.023102
0.020935 0.440094 0.303772
0.034332 0.442444 0.299713
0.050568 0.446411 0.295197
0.069946 0.451538 0.287262
0.089508 0.455505 0.274292
0.108978 0.461914 0.257507
0.127655 0.470154 0.227722
0.142334 0.479248 0.184998
0.189117 0.484863 0.152100
0.260498 0.490234 0.154846
0.317169 0.498077 0.150543
0.368073 0.507294 0.134888
0.411194 0.516510 0.104462
0.451050 0.525696 0.039581
0.484314 0.539154 0.014191
0.519165 0.554718 0.011658
0.553131 0.571503 0.009521
0.585541 0.588989 0.005951
0.616882 0.604156 0.003021
0.641846 0.616516 0.002258
0.665955 0.632385 0.001801
0.696930 0.655334 0.001587
0.720398 0.658997 0.000824
0.744781 0.645294 0.002930
0.772858 0.629242 0.009308
0.797943 0.613403 0.017151
0.821289 0.603912 0.020569
0.845459 0.596191 0.022888
0.871796 0.586945 0.023743
0.896423 0.578156 0.024658
0.910706 0.569214 0.025238
0.917877 0.562744 0.024658
0.925140 0.560669 0.024658
0.026428 0.453796 0.312561
0.040680 0.457642 0.309601
0.057037 0.460419 0.303802
0.077362 0.465057 0.295105
0.095734 0.471405 0.284790
0.114227 0.477478 0.269379
0.132568 0.486755 0.245911
0.148529 0.495331 0.203674
0.180054 0.505188 0.162964
0.253326 0.508484 0.164185
0.309875 0.516327 0.162872
0.360962 0.527008 0.154785
0.408386 0.536835 0.132782
0.449951 0.545837 0.089935
0.488373 0.558167 0.018890
0.521454 0.574982 0.015320
0.554962 0.591522 0.013031
0.587219 0.608032 0.011078
0.618927 0.625122 0.007477
0.647430 0.639557 0.003815
0.669739 0.651215 0.003357
0.693939 0.669617 0.002563
0.722626 0.689880 0.002502
0.744232 0.690735 0.001556
0.770569 0.678070 0.001770
0.800171 0.658325 0.010101
0.825714 0.639526 0.017944
0.851532 0.628998 0.022125
0.875946 0.620239 0.023865
0.900574 0.611053 0.025238
0.910187 0.602478 0.025238
0.917358 0.596008 0.025269
0.925293 0.592834 0.025421
0.034088 0.474182 0.326355
0.048553 0.475189 0.321106
0.065063 0.479584 0.316528
0.084442 0.483215 0.307159
0.102692 0.490509 0.298065
0.121277 0.497711 0.284302
0.138611 0.506653 0.263672
0.154724 0.515137 0.225220
0.172577 0.526428 0.178009
0.241089 0.531342 0.173950
0.305847 0.538208 0.174561
0.356018 0.548248 0.170746
0.405579 0.557983 0.155731
0.449005 0.569550 0.129120
0.488068 0.582123 0.083099
0.524139 0.595337 0.019745
0.555573 0.610352 0.016846
0.588226 0.627594 0.015289
0.620300 0.645233 0.012970
0.650055 0.661743 0.010956
0.675385 0.675995 0.006561
0.695251 0.687042 0.004639
0.720917 0.705353 0.004120
0.746429 0.720673 0.003265
0.770233 0.720154 0.001709
0.796234 0.706421 0.001740
0.828400 0.684418 0.010864
0.855530 0.666046 0.018890
0.880859 0.654388 0.023682
0.898834 0.645325 0.025146
0.907501 0.636993 0.025238
0.915100 0.632660 0.025238
0.925201 0.626282 0.025848
0.036865 0.513580 0.354645
0.049500 0.512329 0.348755
0.068787 0.514465 0.341614
0.086853 0.521881 0.336914
0.105713 0.527924 0.327423
0.124115 0.536377 0.316772
0.141357 0.542938 0.299988
0.159607 0.552887 0.272339
0.174347 0.563629 0.231842
0.207184 0.572388 0.187439
0.281982 0.575745 0.190460
0.338074 0.585266 0.191437
0.389069 0.595490 0.187103
0.437225 0.604889 0.172272
0.479095 0.615356 0.147705
0.517822 0.627197 0.110626
0.555328 0.639709 0.044189
0.587891 0.653931 0.021515
0.618622 0.670380 0.019623
0.649414 0.686035 0.017303
0.678070 0.699768 0.014496
0.700989 0.711761 0.011902
0.720062 0.720581 0.007355
0.745605 0.736786 0.005463
0.771210 0.749329 0.004028
