cube滤镜(3D LUT)/Moldavite.cube
# Created by: Lutify.me
# Copyright: (c) Copyright Lutify.me 2015
# Website: https://lutify.me
#LUT size
LUT_3D_SIZE 9
#LUT data points
0.000000 0.000000 0.000000
0.081451 0.000000 0.000000
0.204803 0.019928 0.006104
0.319794 0.041046 0.017059
0.421448 0.061035 0.029175
0.528076 0.079987 0.044830
0.631317 0.099915 0.057739
0.726624 0.120331 0.066345
0.823425 0.140320 0.076172
0.000000 0.077972 0.044220
0.081940 0.076843 0.000000
0.226532 0.074097 0.000000
0.335632 0.092743 0.004028
0.438904 0.116333 0.013702
0.550812 0.140472 0.026215
0.653992 0.162781 0.037048
0.751129 0.179016 0.049561
0.839417 0.196167 0.058868
0.000000 0.158569 0.103851
0.049408 0.168732 0.033661
0.236572 0.163727 0.000000
0.357544 0.153534 0.000000
0.472168 0.175629 0.005127
0.580719 0.206635 0.011719
0.682159 0.233551 0.018524
0.782043 0.252899 0.035980
0.872925 0.266510 0.045105
0.000000 0.226410 0.154205
0.042999 0.243469 0.117920
0.252869 0.257996 0.001465
0.377533 0.271271 0.000000
0.492798 0.260071 0.000000
0.606750 0.277740 0.003448
0.712280 0.302734 0.009155
0.808899 0.318451 0.028503
0.901886 0.328705 0.031036
0.003143 0.295349 0.203308
0.059875 0.318939 0.175171
0.254303 0.341858 0.070312
0.403595 0.371582 0.000000
0.520813 0.395508 0.001984
0.631561 0.380432 0.008667
0.730835 0.386597 0.011627
0.830750 0.391083 0.015076
0.922943 0.393921 0.020508
0.012909 0.385162 0.265381
0.078735 0.404053 0.236542
0.225342 0.424866 0.128235
0.410431 0.454163 0.009277
0.544434 0.504974 0.000793
0.657135 0.540466 0.004730
0.755280 0.506927 0.017548
0.848480 0.492004 0.020020
0.924774 0.471863 0.020813
0.026428 0.453796 0.312561
0.095734 0.471405 0.284790
0.180054 0.505188 0.162964
0.408386 0.536835 0.132782
0.554962 0.591522 0.013031
0.669739 0.651215 0.003357
0.770569 0.678070 0.001770
0.875946 0.620239 0.023865
0.925293 0.592834 0.025421
0.061249 0.593445 0.407379
0.115997 0.617645 0.395630
0.183563 0.653198 0.344086
0.318573 0.683716 0.229156
0.531982 0.711243 0.195831
0.673157 0.746643 0.028290
0.766693 0.782196 0.016449
0.875244 0.780609 0.002655
0.921021 0.722473 0.019409
0.093018 0.756744 0.522705
0.134491 0.770508 0.512360
0.186798 0.798676 0.494781
0.247742 0.839630 0.444153
0.344055 0.882965 0.300446
0.594421 0.884674 0.288330
0.759552 0.883301 0.104126
0.861938 0.897858 0.027893
0.927643 0.877319 0.003174
0.000000 0.022278 0.037750
0.122955 0.016754 0.072296
0.238007 0.033203 0.076294
0.343872 0.049133 0.082123
0.446594 0.065491 0.090088
0.552704 0.083405 0.097992
0.653931 0.101746 0.106567
0.746582 0.118103 0.115417
0.831390 0.136261 0.114105
0.000000 0.075073 0.077271
0.065399 0.082336 0.088348
0.217133 0.097748 0.089569
0.338470 0.107056 0.089386
0.449188 0.117126 0.095367
0.558075 0.134918 0.103973
0.663574 0.156433 0.113647
0.757416 0.173981 0.124481
0.854614 0.187805 0.125275
0.000000 0.168304 0.129913
0.021210 0.187866 0.127655
0.239410 0.179474 0.052979
0.362488 0.173645 0.063934
0.469116 0.197357 0.077362
0.577942 0.224243 0.087189
0.684174 0.246521 0.100372
0.777832 0.259674 0.115723
0.871643 0.266052 0.116547
0.000000 0.233337 0.170135
0.021393 0.270508 0.184967
0.242004 0.273773 0.050720
0.380463 0.286499 0.028687
0.504669 0.276855 0.034912
0.615723 0.298218 0.048004
0.713898 0.321899 0.073364
0.802948 0.340973 0.097931
0.891724 0.350891 0.103729
0.000000 0.289703 0.208588
0.030762 0.347198 0.235138
0.223328 0.359253 0.109314
0.401855 0.387421 0.022095
0.522705 0.410095 0.029572
0.642639 0.396973 0.039337
0.748657 0.401886 0.052948
0.838257 0.410400 0.066833
0.924591 0.413483 0.065094
0.000000 0.343323 0.248688
0.057251 0.413757 0.278595
0.168671 0.445587 0.149200
0.402618 0.465912 0.070679
0.546143 0.520874 0.021301
0.658630 0.554016 0.030853
0.768097 0.524841 0.048035
0.866699 0.501678 0.050751
0.924774 0.489563 0.051178
0.000000 0.430817 0.313843
0.087891 0.474091 0.317810
0.169312 0.515442 0.226257
0.394928 0.545471 0.168976
0.550537 0.601501 0.075623
0.672974 0.662262 0.023560
0.770599 0.686127 0.029266
0.890656 0.635376 0.054352
0.925201 0.602936 0.058624
0.024139 0.581909 0.416290
0.098846 0.640594 0.431366
0.181061 0.673218 0.389557
0.269958 0.709534 0.244202
0.518951 0.726257 0.226288
0.672668 0.756073 0.055573
0.767548 0.785583 0.037262
0.871765 0.787903 0.030945
0.921265 0.730103 0.069550
0.073822 0.751343 0.529388
0.126801 0.782684 0.530151
0.181885 0.807953 0.511566
0.242462 0.846741 0.472565
0.305115 0.894165 0.320496
0.574860 0.900024 0.303009
0.758728 0.895844 0.146667
0.859222 0.898285 0.048279
0.925446 0.884125 0.024139
0.000000 0.066040 0.095337
0.066742 0.055298 0.158142
0.270569 0.066315 0.145172
0.376678 0.086365 0.154053
0.478241 0.098389 0.156219
0.576477 0.113342 0.161743
0.667084 0.128967 0.171661
0.752655 0.141113 0.176941
0.847656 0.153992 0.173248
0.000000 0.107635 0.128632
0.006714 0.118530 0.146271
0.254303 0.121674 0.170074
0.364014 0.134644 0.171082
0.473602 0.143616 0.168335
0.577759 0.158478 0.173615
0.671356 0.170593 0.179901
0.757874 0.181091 0.183716
0.852020 0.190826 0.176910
0.000000 0.169128 0.166962
0.000000 0.186218 0.183868
0.198517 0.202118 0.200836
0.343994 0.214905 0.202667
0.463165 0.220856 0.198364
0.576324 0.231598 0.198669
0.677246 0.240875 0.201782
0.769745 0.252258 0.204285
0.866302 0.260468 0.196533
0.000000 0.273163 0.236816
0.000000 0.273682 0.226959
0.145813 0.304657 0.187805
0.373474 0.309601 0.151825
0.491974 0.307068 0.176788
0.598389 0.330688 0.189453
0.699982 0.349182 0.200165
0.795471 0.359009 0.203522
0.887024 0.356537 0.193542
0.000000 0.331299 0.267609
0.000000 0.326019 0.254120
0.134186 0.381104 0.236206
0.369629 0.402313 0.157959
0.516083 0.427826 0.129120
0.637939 0.413177 0.149475
0.738098 0.423676 0.161133
0.826538 0.435822 0.170197
0.918518 0.436920 0.164703
0.000000 0.378174 0.298584
0.000000 0.383118 0.292877
0.145874 0.449127 0.285065
0.369385 0.479919 0.172943
0.533875 0.534851 0.141510
0.654663 0.566620 0.118896
0.764587 0.535522 0.142456
0.865234 0.514984 0.134430
0.924774 0.508057 0.130096
0.000000 0.416901 0.327545
0.000000 0.433167 0.329956
0.166107 0.512390 0.327759
0.350189 0.559875 0.221130
0.531464 0.606750 0.180939
0.671326 0.673798 0.122223
0.767059 0.695221 0.087860
0.885620 0.643066 0.087341
0.925232 0.610931 0.139191
0.000000 0.542908 0.406006
0.008575 0.593048 0.429871
0.164795 0.686310 0.440063
0.253784 0.727753 0.338867
0.493683 0.739044 0.264618
0.664429 0.766266 0.156403
0.768768 0.794617 0.086090
0.868225 0.794495 0.057343
0.918823 0.738556 0.152313
0.000000 0.744202 0.541626
0.075165 0.764313 0.542694
0.166107 0.813293 0.532776
0.231171 0.849274 0.498138
0.299377 0.911102 0.402710
0.540741 0.915070 0.319031
0.745056 0.906708 0.197632
0.860809 0.903229 0.065369
0.925385 0.893524 0.046356
0.000000 0.112091 0.152191
0.029755 0.111145 0.167114
0.262085 0.102844 0.229675
0.404449 0.124054 0.212189
0.509827 0.141083 0.217743
0.603546 0.153259 0.221405
0.687225 0.164398 0.227417
0.766113 0.173401 0.230560
0.853638 0.182220 0.226105
0.000000 0.146332 0.180695
0.000000 0.158600 0.199158
0.187469 0.144684 0.267670
0.391602 0.176514 0.239166
0.502014 0.188812 0.239197
0.601440 0.198395 0.240082
0.688263 0.205780 0.242798
0.769257 0.212708 0.243530
0.859436 0.218201 0.234039
0.000000 0.195282 0.217621
0.000000 0.210419 0.235474
0.113281 0.229095 0.272339
0.368652 0.242676 0.276520
0.484894 0.252838 0.273285
0.594849 0.259399 0.269012
0.688263 0.262268 0.266754
0.772919 0.263763 0.263489
0.865570 0.264862 0.250427
0.000000 0.261108 0.259369
0.000000 0.279968 0.276093
0.079590 0.308929 0.303223
0.324463 0.328369 0.314789
0.466980 0.343597 0.318939
0.589539 0.355560 0.317169
0.696350 0.358643 0.312622
0.788513 0.359192 0.303589
0.882202 0.350800 0.283691
0.000000 0.363312 0.328461
0.000000 0.386719 0.345123
0.002258 0.390839 0.336975
0.268311 0.425659 0.277222
0.500793 0.448029 0.265289
0.619110 0.445770 0.300049
0.719635 0.464233 0.306183
0.812927 0.477417 0.307556
0.906097 0.464630 0.287964
0.000000 0.456085 0.392944
0.000000 0.434143 0.365906
0.006714 0.443420 0.360321
0.253418 0.500305 0.275604
0.492096 0.540283 0.278137
0.645447 0.579834 0.238617
0.753204 0.550873 0.268585
0.847107 0.544952 0.260925
0.924835 0.533966 0.254089
0.000000 0.482788 0.403290
0.000000 0.468964 0.386322
0.035919 0.486481 0.385681
0.261322 0.570984 0.328674
0.494049 0.616760 0.284485
0.653992 0.679718 0.254028
0.761292 0.704956 0.213257
0.876312 0.653107 0.220581
0.925232 0.620850 0.236572
0.000000 0.596008 0.472046
0.000000 0.593018 0.459991
0.026733 0.659698 0.484222
0.246552 0.735413 0.440491
0.436646 0.764648 0.314178
0.643951 0.774994 0.262787
0.764465 0.804810 0.224243
0.863525 0.801758 0.159973
0.922546 0.746368 0.249146
0.000000 0.769012 0.577698
0.000000 0.774170 0.568298
0.105286 0.791107 0.556458
0.209412 0.888245 0.566284
0.298035 0.929962 0.497589
0.499725 0.936798 0.351929
0.725037 0.920868 0.276733
0.859894 0.910950 0.125946
0.925293 0.901459 0.085449
0.000000 0.156403 0.207581
0.007111 0.158203 0.217285
0.189911 0.145782 0.321747
0.382202 0.172394 0.292755
0.537872 0.180450 0.263519
0.633514 0.193298 0.266510
0.711090 0.204773 0.273315
0.786407 0.211975 0.273956
0.866577 0.216125 0.269592
0.000000 0.182373 0.228577
0.000000 0.199768 0.251526
0.135315 0.204651 0.297821
0.367218 0.213165 0.319733
0.529663 0.227631 0.290375
0.628723 0.240723 0.292358
0.710114 0.247925 0.295166
0.786835 0.252716 0.295319
0.868835 0.253021 0.282990
0.000000 0.230560 0.268860
0.000000 0.242249 0.283020
0.052124 0.264709 0.317383
0.313385 0.253357 0.366119
0.512115 0.287018 0.330261
0.618469 0.299438 0.332001
0.706482 0.303192 0.330261
0.786652 0.301941 0.322937
0.873840 0.297302 0.306610
0.000000 0.281036 0.305511
0.000000 0.298004 0.324036
0.015289 0.322266 0.351685
0.255981 0.346436 0.394775
0.489319 0.362823 0.380737
0.606079 0.376678 0.382965
0.705414 0.377625 0.377350
0.791931 0.370514 0.362762
0.879852 0.356354 0.337769
0.000000 0.350739 0.352905
0.000000 0.368652 0.368195
0.000000 0.397797 0.394501
0.224731 0.436462 0.428833
0.455536 0.460846 0.431183
0.594269 0.477814 0.441162
0.708313 0.487610 0.439514
0.805084 0.486176 0.427734
0.899536 0.462952 0.396210
0.000000 0.460052 0.430298
0.000000 0.487183 0.449219
0.000000 0.517120 0.471527
0.171570 0.518951 0.451416
0.403656 0.555481 0.397644
0.625305 0.594269 0.381897
0.732300 0.584686 0.419861
0.826294 0.595001 0.418274
0.922333 0.580627 0.400726
0.000000 0.586914 0.527069
0.000000 0.577332 0.512329
0.000000 0.553040 0.481140
0.189819 0.565338 0.461914
0.384979 0.640411 0.374634
0.614624 0.680939 0.396637
0.750183 0.714783 0.343597
0.860565 0.669312 0.363647
0.925537 0.644684 0.355682
0.000000 0.674133 0.574280
0.000000 0.659393 0.548126
0.000000 0.663727 0.536285
0.179230 0.719513 0.525055
0.346893 0.784698 0.394867
0.608643 0.786835 0.373657
0.746338 0.810272 0.366486
0.856598 0.809845 0.298706
0.925751 0.757904 0.364349
0.000000 0.809357 0.647552
0.000000 0.805756 0.630310
0.000000 0.810547 0.619141
0.137421 0.912140 0.650787
0.294067 0.945068 0.568207
0.504486 0.951385 0.487823
0.706512 0.932281 0.359528
0.856995 0.922455 0.281403
0.925476 0.910553 0.250000
0.000000 0.199036 0.260864
0.000000 0.202789 0.266968
0.158997 0.209717 0.335663
0.365295 0.213654 0.367950
0.521057 0.228699 0.343445
0.653870 0.229279 0.314331
0.730743 0.243561 0.338898
0.797058 0.250580 0.350128
0.869171 0.249786 0.346649
0.000000 0.223450 0.281647
0.000000 0.241669 0.305420
0.099731 0.251068 0.333160
0.323120 0.238342 0.405945
0.501678 0.269043 0.373077
0.645935 0.273468 0.353394
0.725403 0.285950 0.371094
0.796143 0.289551 0.373901
0.871552 0.287323 0.365692
0.000000 0.264954 0.318207
0.000000 0.275299 0.331696
0.004425 0.300232 0.366974
0.254456 0.300201 0.414185
0.475067 0.319519 0.417297
0.632477 0.329834 0.402466
0.716736 0.339111 0.412048
0.793610 0.339813 0.407562
0.872772 0.331146 0.390137
0.000000 0.312256 0.357056
0.000000 0.327942 0.374359
0.000000 0.347565 0.398254
0.208344 0.376190 0.462311
0.435425 0.365601 0.480469
0.615356 0.400970 0.458801
0.710266 0.411102 0.463654
0.794128 0.406281 0.451324
0.878357 0.388214 0.423737
0.000000 0.365753 0.397461
0.000000 0.384735 0.417725
0.000000 0.408600 0.442596
0.190308 0.442749 0.491577
0.389404 0.472015 0.527222
0.599609 0.486481 0.517151
0.707428 0.499451 0.519592
0.801697 0.496429 0.507355
0.887787 0.472870 0.473175
0.000000 0.442078 0.453522
0.000000 0.462128 0.470703
0.000000 0.489685 0.496521
0.143158 0.530609 0.532898
0.371002 0.572510 0.568268
0.587250 0.600983 0.556885
0.714325 0.615417 0.567780
0.816956 0.618652 0.565399
0.908569 0.596527 0.541107
0.000000 0.559906 0.540253
0.000000 0.586761 0.559357
0.000000 0.619659 0.584412
0.000000 0.654175 0.610992
0.329224 0.658813 0.572327
0.553345 0.695465 0.527985
0.736481 0.728882 0.507324
0.840240 0.706116 0.534943
0.925751 0.692413 0.528503
0.000000 0.701843 0.645996
0.000000 0.726837 0.662781
0.000000 0.732819 0.655182
0.000000 0.732758 0.632355
0.308167 0.772186 0.588135
0.532471 0.816010 0.470337
0.718475 0.820374 0.516541
0.847748 0.822906 0.454590
0.926361 0.777130 0.504486
0.000000 0.859161 0.750854
0.000000 0.855499 0.731262
0.000000 0.855042 0.711639
0.000000 0.878235 0.701782
0.282684 0.939270 0.665100
0.547607 0.954315 0.623413
0.707001 0.945160 0.573181
0.841522 0.934784 0.492889
0.923737 0.924469 0.405945
0.000000 0.243652 0.317535
0.000000 0.245880 0.319366
0.126648 0.253571 0.358337
0.321808 0.253571 0.449554
0.495605 0.271851 0.439606
0.630707 0.278870 0.436127
0.734528 0.273254 0.427002
0.801605 0.284790 0.447968
0.865997 0.285339 0.450867
0.000000 0.267059 0.337738
0.000000 0.282104 0.358398
0.069214 0.293640 0.379822
0.266357 0.293671 0.463318
0.478577 0.304077 0.473541
0.615723 0.321686 0.470276
0.725983 0.317383 0.460480
0.797058 0.328186 0.476532
0.864471 0.325623 0.474243
0.000000 0.300873 0.367981
0.000000 0.310516 0.380981
0.000000 0.337372 0.416229
0.216461 0.346527 0.470520
0.432678 0.328094 0.532104
0.601715 0.365814 0.511139
0.718323 0.373566 0.508392
0.793579 0.381287 0.518677
0.865845 0.374878 0.507202
0.000000 0.347504 0.410187
0.000000 0.361938 0.427582
0.000000 0.376526 0.445435
0.163055 0.413177 0.510345
0.361816 0.397461 0.552948
0.600769 0.404663 0.567352
0.716431 0.432587 0.557404
0.794373 0.443634 0.564728
0.869263 0.432587 0.546204
0.000000 0.397339 0.453400
0.000000 0.414734 0.473175
0.000000 0.435181 0.494873
0.148224 0.467163 0.541321
0.338257 0.495026 0.612122
0.543945 0.475922 0.633453
0.718872 0.506500 0.611816
0.798035 0.523560 0.614960
0.876068 0.510712 0.590118
0.000000 0.457153 0.503784
0.000000 0.476562 0.522278
0.000000 0.499054 0.545197
0.101593 0.532562 0.584320
0.334991 0.568604 0.638947
0.532837 0.604370 0.665680
0.716156 0.611359 0.663635
0.803528 0.624146 0.662201
0.889130 0.607788 0.636139
0.000000 0.540680 0.565247
0.000000 0.559052 0.580688
0.000000 0.583618 0.602081
0.000000 0.617584 0.633789
0.302002 0.660400 0.675842
0.523987 0.702362 0.699219
0.711365 0.731628 0.696075
0.823669 0.736908 0.697479
0.916504 0.720306 0.680115
0.000000 0.660767 0.656677
0.000000 0.684631 0.673096
0.000000 0.716370 0.695496
0.000000 0.753967 0.722321
0.169952 0.794617 0.744598
0.457489 0.813202 0.695709
0.680664 0.840424 0.658051
0.835266 0.840088 0.643433
0.926361 0.807892 0.649078
0.000000 0.809357 0.764374
0.000000 0.840240 0.783234
0.000000 0.880188 0.806488
0.000000 0.900970 0.805206
0.000000 0.922638 0.788574
0.294678 0.966217 0.716003
0.663910 0.960419 0.689972
0.823151 0.945312 0.628784
0.923218 0.937988 0.593048
0.000000 0.290833 0.378479
0.000000 0.294098 0.379486
0.095093 0.302277 0.406006
0.271210 0.307922 0.511078
0.472839 0.300629 0.550018
0.606873 0.324860 0.549500
0.713348 0.329559 0.557373
0.799683 0.321381 0.554230
0.870026 0.330475 0.581055
0.000000 0.310669 0.396210
0.000000 0.329010 0.419617
0.015472 0.337189 0.434143
0.230408 0.342316 0.498199
0.417145 0.323181 0.597260
0.606201 0.347076 0.578094
0.714996 0.362030 0.585022
0.801544 0.359192 0.583954
0.875244 0.366028 0.605927
0.000000 0.339905 0.422089
0.000000 0.353241 0.439819
0.000000 0.377777 0.470367
0.181488 0.393494 0.518860
0.348022 0.370209 0.628876
0.595428 0.368500 0.641296
0.721222 0.391846 0.626709
0.810150 0.397980 0.623383
0.882202 0.407806 0.636566
0.000000 0.387177 0.467377
0.000000 0.398376 0.481567
0.000000 0.409149 0.495117
0.118134 0.448853 0.562439
0.321930 0.441437 0.623993
0.526398 0.415466 0.693573
0.725311 0.430023 0.684662
0.822205 0.446655 0.670990
0.890930 0.457611 0.672516
0.000000 0.434662 0.510803
0.000000 0.450409 0.528870
0.000000 0.466003 0.546814
0.092194 0.493530 0.589478
0.292053 0.525085 0.662750
0.469727 0.498291 0.715240
0.699036 0.501068 0.744049
0.831055 0.514160 0.722565
0.897644 0.526978 0.710327
0.000000 0.489166 0.558441
0.000000 0.505280 0.576935
0.000000 0.523254 0.595978
0.016083 0.552673 0.633209
0.288391 0.586304 0.692047
0.484009 0.616364 0.746185
0.665039 0.603302 0.779694
0.832977 0.607330 0.766083
0.899811 0.617401 0.742645
0.000000 0.554565 0.615173
0.000000 0.573151 0.633698
0.000000 0.591370 0.651398
0.000000 0.616119 0.676483
0.263275 0.650787 0.723724
0.481201 0.691681 0.767426
0.668640 0.729553 0.795441
0.828186 0.723419 0.795319
0.901154 0.722931 0.776245
0.000000 0.640991 0.679321
0.000000 0.655792 0.691559
0.000000 0.677704 0.709717
0.000000 0.703766 0.731415
0.195465 0.740631 0.766388
0.442841 0.779663 0.796051
0.655304 0.821411 0.812866
0.817108 0.847412 0.804352
0.926331 0.836578 0.789368
0.000000 0.758362 0.770020
0.000000 0.783722 0.786133
0.000000 0.811462 0.804352
0.000000 0.848663 0.829010
0.000000 0.890930 0.855499
0.312561 0.938049 0.863495
0.448151 0.977173 0.830688
0.797943 0.964874 0.776794
0.923676 0.955322 0.746582
0.000000 0.345642 0.447968
0.000000 0.342682 0.443298
0.047913 0.352051 0.463135
0.236786 0.360779 0.533081
0.377594 0.347961 0.687622
0.605560 0.341339 0.682220
0.724365 0.352844 0.682495
0.813812 0.355438 0.691986
0.892426 0.347198 0.696655
0.000000 0.362000 0.462891
0.000000 0.377625 0.482635
0.000000 0.381073 0.487610
0.195312 0.394989 0.541199
0.340729 0.385406 0.668182
0.566498 0.364868 0.723114
0.730652 0.372070 0.724121
0.826782 0.379120 0.726562
0.901825 0.380127 0.727905
0.000000 0.385742 0.482727
0.000000 0.400513 0.503113
0.000000 0.421021 0.528900
0.142975 0.438538 0.571350
0.320221 0.426239 0.644470
0.509491 0.394318 0.766449
0.712891 0.405609 0.773651
0.831268 0.409332 0.766937
0.911224 0.412537 0.762268
0.000000 0.431274 0.528076
0.000000 0.439056 0.538269
0.000000 0.448853 0.551941
0.035492 0.484802 0.609711
0.281677 0.486938 0.663391
0.442719 0.446442 0.804504
0.670380 0.451752 0.810211
0.827057 0.455170 0.814392
0.919281 0.456879 0.799652
0.000000 0.477753 0.572113
0.000000 0.491119 0.587830
0.000000 0.499512 0.598785
0.002869 0.521027 0.634613
0.241364 0.554474 0.699097
0.436188 0.535370 0.768951
0.627380 0.517792 0.846802
0.809937 0.525421 0.855408
0.924011 0.517273 0.834229
0.000000 0.527100 0.616791
0.000000 0.542389 0.633881
0.000000 0.554504 0.647583
0.000000 0.575165 0.672668
0.235718 0.604614 0.726501
0.438629 0.630615 0.811432
0.606537 0.610260 0.858490
0.790405 0.614655 0.877563
0.925964 0.599030 0.861542
0.000000 0.581421 0.664520
0.000000 0.597382 0.681396
0.000000 0.613464 0.697632
0.000000 0.631165 0.716553
0.200073 0.664520 0.764282
0.432831 0.697052 0.828339
0.610138 0.730164 0.882141
0.782074 0.722168 0.890930
0.926544 0.701263 0.886047
0.000000 0.650543 0.723724
0.000000 0.668213 0.742157
0.000000 0.684784 0.757874
0.000000 0.702484 0.772003
0.147980 0.729797 0.804749
0.403259 0.761292 0.853088
0.593994 0.809021 0.891266
0.791443 0.839966 0.893463
0.923492 0.820770 0.893890
0.000000 0.734222 0.785187
0.000000 0.752533 0.799164
0.000000 0.772339 0.814240
0.000000 0.795654 0.833466
0.000000 0.825806 0.859619
0.350555 0.859375 0.890076
0.552673 0.898834 0.908417
0.756531 0.934448 0.911621
0.907471 0.959900 0.891693
