cube滤镜(3D LUT)/Moldavite.cube
# Created by: Lutify.me
# Copyright: (c) Copyright Lutify.me 2015
# Website: https://lutify.me
#LUT size
LUT_3D_SIZE 5
#LUT data points
0.000000 0.000000 0.000000
0.204803 0.019928 0.006104
0.421448 0.061035 0.029175
0.631317 0.099915 0.057739
0.823425 0.140320 0.076172
0.000000 0.158569 0.103851
0.236572 0.163727 0.000000
0.472168 0.175629 0.005127
0.682159 0.233551 0.018524
0.872925 0.266510 0.045105
0.003143 0.295349 0.203308
0.254303 0.341858 0.070312
0.520813 0.395508 0.001984
0.730835 0.386597 0.011627
0.922943 0.393921 0.020508
0.026428 0.453796 0.312561
0.180054 0.505188 0.162964
0.554962 0.591522 0.013031
0.770569 0.678070 0.001770
0.925293 0.592834 0.025421
0.093018 0.756744 0.522705
0.186798 0.798676 0.494781
0.344055 0.882965 0.300446
0.759552 0.883301 0.104126
0.927643 0.877319 0.003174
0.000000 0.066040 0.095337
0.270569 0.066315 0.145172
0.478241 0.098389 0.156219
0.667084 0.128967 0.171661
0.847656 0.153992 0.173248
0.000000 0.169128 0.166962
0.198517 0.202118 0.200836
0.463165 0.220856 0.198364
0.677246 0.240875 0.201782
0.866302 0.260468 0.196533
0.000000 0.331299 0.267609
0.134186 0.381104 0.236206
0.516083 0.427826 0.129120
0.738098 0.423676 0.161133
0.918518 0.436920 0.164703
0.000000 0.416901 0.327545
0.166107 0.512390 0.327759
0.531464 0.606750 0.180939
0.767059 0.695221 0.087860
0.925232 0.610931 0.139191
0.000000 0.744202 0.541626
0.166107 0.813293 0.532776
0.299377 0.911102 0.402710
0.745056 0.906708 0.197632
0.925385 0.893524 0.046356
0.000000 0.156403 0.207581
0.189911 0.145782 0.321747
0.537872 0.180450 0.263519
0.711090 0.204773 0.273315
0.866577 0.216125 0.269592
0.000000 0.230560 0.268860
0.052124 0.264709 0.317383
0.512115 0.287018 0.330261
0.706482 0.303192 0.330261
0.873840 0.297302 0.306610
0.000000 0.350739 0.352905
0.000000 0.397797 0.394501
0.455536 0.460846 0.431183
0.708313 0.487610 0.439514
0.899536 0.462952 0.396210
0.000000 0.586914 0.527069
0.000000 0.553040 0.481140
0.384979 0.640411 0.374634
0.750183 0.714783 0.343597
0.925537 0.644684 0.355682
0.000000 0.809357 0.647552
0.000000 0.810547 0.619141
0.294067 0.945068 0.568207
0.706512 0.932281 0.359528
0.925476 0.910553 0.250000
0.000000 0.243652 0.317535
0.126648 0.253571 0.358337
0.495605 0.271851 0.439606
0.734528 0.273254 0.427002
0.865997 0.285339 0.450867
0.000000 0.300873 0.367981
0.000000 0.337372 0.416229
0.432678 0.328094 0.532104
0.718323 0.373566 0.508392
0.865845 0.374878 0.507202
0.000000 0.397339 0.453400
0.000000 0.435181 0.494873
0.338257 0.495026 0.612122
0.718872 0.506500 0.611816
0.876068 0.510712 0.590118
0.000000 0.540680 0.565247
0.000000 0.583618 0.602081
0.302002 0.660400 0.675842
0.711365 0.731628 0.696075
0.916504 0.720306 0.680115
0.000000 0.809357 0.764374
0.000000 0.880188 0.806488
0.000000 0.922638 0.788574
0.663910 0.960419 0.689972
0.923218 0.937988 0.593048
0.000000 0.345642 0.447968
0.047913 0.352051 0.463135
0.377594 0.347961 0.687622
0.724365 0.352844 0.682495
0.892426 0.347198 0.696655
0.000000 0.385742 0.482727
0.000000 0.421021 0.528900
0.320221 0.426239 0.644470
0.712891 0.405609 0.773651
0.911224 0.412537 0.762268
0.000000 0.477753 0.572113
0.000000 0.499512 0.598785
0.241364 0.554474 0.699097
0.627380 0.517792 0.846802
0.924011 0.517273 0.834229
0.000000 0.581421 0.664520
0.000000 0.613464 0.697632
0.200073 0.664520 0.764282
0.610138 0.730164 0.882141
0.926544 0.701263 0.886047
0.000000 0.734222 0.785187
0.000000 0.772339 0.814240
0.000000 0.825806 0.859619
0.552673 0.898834 0.908417
0.907471 0.959900 0.891693
