cube滤镜(3D LUT)/Molybdenite.cube
# Created by: Lutify.me
# Copyright: (c) Copyright Lutify.me 2015
# Website: https://lutify.me
#LUT size
LUT_3D_SIZE 33
#LUT data points
0.000000 0.000000 0.000000
0.003937 0.000000 0.000000
0.010803 0.000000 0.000000
0.045929 0.000000 0.000000
0.081848 0.000000 0.000000
0.116241 0.005798 0.000793
0.146027 0.009949 0.003021
0.175873 0.014465 0.004547
0.205170 0.019714 0.006104
0.236694 0.024567 0.010925
0.264801 0.029236 0.012634
0.292023 0.033356 0.014435
0.320435 0.039520 0.016266
0.346405 0.044861 0.019073
0.371582 0.049133 0.022614
0.397095 0.054352 0.025665
0.422302 0.059265 0.028381
0.448395 0.063599 0.031860
0.475708 0.068481 0.036194
0.503113 0.073456 0.039612
0.529083 0.077576 0.043823
0.555664 0.082275 0.047607
0.583130 0.087219 0.051636
0.608795 0.092041 0.054474
0.632538 0.097107 0.055878
0.659332 0.103210 0.058319
0.683960 0.108429 0.060577
0.706451 0.113525 0.061829
0.727997 0.117279 0.064667
0.749542 0.121033 0.066803
0.774261 0.126709 0.068512
0.800323 0.130981 0.072144
0.824982 0.136871 0.073669
0.000000 0.005371 0.003082
0.002350 0.007690 0.001526
0.013031 0.004669 0.000000
0.049683 0.007538 0.000000
0.085175 0.012115 0.000000
0.115387 0.016785 0.000000
0.146515 0.020050 0.002899
0.179016 0.023895 0.005341
0.205383 0.026428 0.006897
0.234222 0.031311 0.010406
0.265167 0.036194 0.013153
0.293854 0.040802 0.015472
0.320099 0.045685 0.017548
0.345276 0.051147 0.020172
0.372162 0.056580 0.022949
0.398590 0.061890 0.025665
0.423218 0.067444 0.027985
0.449707 0.072113 0.031494
0.477753 0.077301 0.035400
0.505096 0.082916 0.038513
0.532196 0.088348 0.041321
0.560150 0.094360 0.044098
0.588593 0.100647 0.047180
0.613647 0.106262 0.049255
0.639313 0.111877 0.051453
0.665222 0.117004 0.054504
0.687836 0.121613 0.056396
0.709961 0.125824 0.058319
0.733856 0.130890 0.060699
0.755646 0.134827 0.062927
0.780182 0.140442 0.064697
0.802612 0.143005 0.068481
0.827301 0.148651 0.070587
0.000000 0.026855 0.017639
0.000763 0.034454 0.019135
0.002319 0.033020 0.014587
0.051453 0.026276 0.000031
0.092499 0.026215 0.000000
0.125336 0.029938 0.000000
0.153137 0.035980 0.000061
0.182037 0.040710 0.000153
0.208618 0.043091 0.002167
0.238708 0.047119 0.005219
0.268127 0.050293 0.008362
0.297058 0.054230 0.010925
0.324371 0.059448 0.013000
0.351318 0.065460 0.016113
0.377838 0.070648 0.019165
0.402832 0.075012 0.022278
0.429016 0.080750 0.024597
0.456512 0.086151 0.027679
0.483704 0.091461 0.031250
0.510803 0.097534 0.033600
0.538605 0.103760 0.036285
0.567139 0.109924 0.039062
0.594574 0.116241 0.041412
0.620697 0.121857 0.044067
0.646332 0.126465 0.047211
0.669312 0.132202 0.048615
0.692413 0.137299 0.050262
0.715820 0.141235 0.053345
0.737457 0.145172 0.055328
0.761139 0.149139 0.058380
0.784698 0.153320 0.061279
0.808472 0.157318 0.064148
0.829742 0.161041 0.066864
0.000000 0.052399 0.033875
0.000000 0.059753 0.036926
0.001465 0.057587 0.032501
0.031921 0.053528 0.007904
0.090912 0.048004 0.000000
0.130737 0.047943 0.000000
0.161194 0.051178 0.000000
0.191864 0.054016 0.000000
0.218964 0.058502 0.000000
0.247375 0.061737 0.000732
0.275208 0.066284 0.002350
0.302277 0.071075 0.004547
0.329498 0.076233 0.007019
0.355347 0.081604 0.009918
0.382263 0.086792 0.013000
0.409241 0.092468 0.016113
0.436005 0.098053 0.019226
0.462677 0.103394 0.021545
0.488739 0.108521 0.024628
0.516724 0.114197 0.027740
0.545685 0.120819 0.030853
0.573395 0.127106 0.033173
0.600800 0.133209 0.035950
0.625946 0.138916 0.038025
0.650787 0.142883 0.041473
0.673340 0.147278 0.043793
0.697540 0.151581 0.046448
0.721893 0.156769 0.048706
0.744904 0.160706 0.051392
0.766754 0.164520 0.053955
0.787994 0.167877 0.056519
0.811707 0.172241 0.058960
0.835663 0.177643 0.060791
0.000000 0.077484 0.054871
0.000000 0.086456 0.060089
0.000061 0.081940 0.053833
0.015076 0.082184 0.019440
0.082336 0.076447 0.000000
0.127625 0.070984 0.000000
0.160828 0.068329 0.000000
0.195312 0.070190 0.000000
0.226868 0.073730 0.000000
0.253235 0.077606 0.000000
0.279266 0.080841 0.000000
0.308350 0.086639 0.000732
0.336304 0.092072 0.003540
0.362152 0.097687 0.006195
0.388519 0.102875 0.008972
0.414185 0.109131 0.010986
0.439728 0.115143 0.012909
0.467194 0.120453 0.016022
0.495544 0.126190 0.019135
0.523895 0.132690 0.021912
0.551849 0.139069 0.024628
0.578796 0.145050 0.026947
0.605164 0.150757 0.029358
0.630371 0.155487 0.032379
0.655212 0.160980 0.034698
0.679443 0.165497 0.037109
0.704315 0.170624 0.039429
0.729614 0.174530 0.043213
0.752533 0.176788 0.047333
0.774841 0.180511 0.050049
0.797852 0.184082 0.052673
0.817413 0.187500 0.054535
0.840973 0.193542 0.055878
0.000000 0.101532 0.074615
0.000000 0.106720 0.076874
0.000000 0.106445 0.075226
0.014832 0.105682 0.051270
0.075745 0.099457 0.015991
0.122223 0.098755 0.000000
0.162628 0.093109 0.000000
0.198151 0.090057 0.000000
0.229034 0.090179 0.000000
0.257599 0.091492 0.000000
0.288513 0.096802 0.000000
0.316406 0.102295 0.000000
0.344177 0.106964 0.001099
0.369080 0.111816 0.003540
0.394714 0.117676 0.005859
0.421204 0.123901 0.008179
0.447571 0.129486 0.010376
0.474792 0.135742 0.013123
0.502563 0.142365 0.015564
0.529572 0.148895 0.017609
0.556610 0.156586 0.018799
0.584198 0.163635 0.020752
0.610046 0.168457 0.023865
0.635406 0.174255 0.025940
0.660980 0.179993 0.028015
0.686798 0.184326 0.031586
0.710815 0.188232 0.034576
0.736328 0.191498 0.037933
0.761841 0.193909 0.042938
0.785736 0.198547 0.045288
0.807953 0.200653 0.049347
0.826813 0.204437 0.050659
0.846802 0.210022 0.050781
0.000000 0.121857 0.091522
0.000000 0.122803 0.090515
0.000000 0.125977 0.091553
0.012604 0.127655 0.077484
0.064423 0.123718 0.030853
0.123627 0.120850 0.001617
0.161133 0.121399 0.000000
0.199493 0.115173 0.000000
0.232361 0.112183 0.000000
0.261383 0.110077 0.000000
0.291504 0.111542 0.000000
0.321198 0.116150 0.000000
0.349091 0.122040 0.000000
0.376556 0.126526 0.001221
0.403107 0.132355 0.003754
0.429291 0.138367 0.005707
0.457001 0.144165 0.008820
0.484375 0.150330 0.011292
0.510803 0.157135 0.013123
0.537628 0.164246 0.014801
0.564514 0.171692 0.016205
0.592041 0.180084 0.017487
0.617584 0.187378 0.018433
0.642853 0.193909 0.020172
0.668335 0.200531 0.021484
0.694855 0.205322 0.024750
0.721497 0.208069 0.029114
0.747284 0.211365 0.033905
0.771057 0.213226 0.039368
0.793121 0.216278 0.042267
0.816223 0.218781 0.046478
0.839020 0.221527 0.047852
0.856293 0.226685 0.047150
0.000000 0.141052 0.107269
0.000000 0.140778 0.105804
0.000000 0.145233 0.107239
0.011108 0.148834 0.097748
0.037445 0.148376 0.055267
0.122742 0.140930 0.020569
0.164185 0.142212 0.000000
0.200226 0.143494 0.000000
0.235229 0.135193 0.000000
0.265289 0.131653 0.000000
0.294769 0.131165 0.000000
0.324982 0.132599 0.000000
0.353790 0.135712 0.000000
0.382904 0.142517 0.000000
0.412201 0.147766 0.001678
0.438904 0.153351 0.003754
0.466003 0.159393 0.006653
0.493500 0.165710 0.009216
0.520599 0.172668 0.010956
0.547333 0.180115 0.012329
0.574005 0.187836 0.013763
0.600708 0.195892 0.014801
0.625916 0.202789 0.016205
0.651367 0.209351 0.017517
0.675049 0.216522 0.018494
0.701050 0.222321 0.020416
0.729340 0.226135 0.024475
0.753723 0.229401 0.028625
0.776764 0.233612 0.034729
0.798492 0.238525 0.038605
0.821381 0.240356 0.042938
0.845306 0.241852 0.044495
0.868011 0.244598 0.043732
0.000000 0.157288 0.120819
0.000000 0.157410 0.119751
0.000000 0.159882 0.118469
0.011017 0.165833 0.112732
0.036652 0.167877 0.085632
0.110901 0.162476 0.044403
0.172150 0.163513 0.001038
0.206268 0.166626 0.000000
0.237061 0.163544 0.000000
0.268158 0.154938 0.000000
0.298828 0.153168 0.000000
0.327545 0.152130 0.000000
0.358063 0.153076 0.000000
0.388153 0.156708 0.000000
0.416229 0.162048 0.000000
0.444366 0.167755 0.001587
0.473053 0.174896 0.003754
0.501312 0.182037 0.006073
0.529816 0.189606 0.007843
0.556427 0.197662 0.009064
0.581787 0.205627 0.009552
0.609039 0.212891 0.011719
0.634369 0.219147 0.013275
0.659668 0.225800 0.014801
0.683380 0.232269 0.015564
0.708588 0.237640 0.017883
0.736511 0.241699 0.021942
0.760712 0.245636 0.026703
0.783417 0.251282 0.032043
0.804779 0.255493 0.036407
0.827637 0.258423 0.040466
0.849548 0.261688 0.041382
0.874512 0.264526 0.040619
0.000000 0.173553 0.134308
0.000000 0.173828 0.133453
0.000000 0.176819 0.132111
0.010376 0.183167 0.127747
0.035400 0.189056 0.111877
0.092194 0.187561 0.061523
0.166077 0.183411 0.028137
0.212189 0.187042 0.000000
0.245087 0.192139 0.000000
0.272461 0.187561 0.000000
0.302673 0.177979 0.000000
0.332245 0.175781 0.000000
0.361084 0.176208 0.000000
0.390869 0.177765 0.000000
0.419373 0.180511 0.000000
0.447876 0.184601 0.000000
0.477722 0.191010 0.000824
0.507477 0.198914 0.002380
0.537079 0.207275 0.004150
0.564850 0.215668 0.005707
0.590546 0.222778 0.006836
0.617615 0.229553 0.008881
0.642365 0.235992 0.010162
0.666321 0.242737 0.011475
0.691040 0.249237 0.012665
0.716888 0.253418 0.015564
0.745880 0.257507 0.019958
0.768402 0.261719 0.025696
0.789642 0.267517 0.029816
0.810059 0.270416 0.033783
0.833496 0.274017 0.038116
0.856140 0.277924 0.039062
0.880157 0.280396 0.037506
0.000000 0.190948 0.148804
0.000000 0.191437 0.148102
0.000000 0.195892 0.147308
0.009674 0.200684 0.142944
0.035095 0.206085 0.129883
0.069580 0.212585 0.079926
0.156647 0.207275 0.061798
0.213226 0.209839 0.003235
0.250092 0.214172 0.000000
0.281891 0.219849 0.000000
0.309326 0.214355 0.000000
0.337280 0.204346 0.000000
0.366608 0.202209 0.000000
0.396088 0.202515 0.000000
0.424530 0.203552 0.000000
0.453003 0.206573 0.000000
0.482483 0.210388 0.000000
0.512299 0.216400 0.000000
0.542542 0.225098 0.000824
0.571655 0.233459 0.002380
0.598846 0.240570 0.004486
0.625549 0.247833 0.005737
0.650360 0.254669 0.007050
0.674500 0.260529 0.008606
0.699738 0.266113 0.010101
0.726013 0.270294 0.013397
0.752197 0.274414 0.018036
0.774384 0.279297 0.023071
0.796875 0.283661 0.028229
0.819061 0.286499 0.032959
0.840942 0.290314 0.035126
0.863281 0.293274 0.034149
0.888916 0.295410 0.035187
0.000000 0.208527 0.163300
0.000000 0.208893 0.162659
0.000000 0.214111 0.161621
0.008728 0.217041 0.156738
0.035004 0.222931 0.145905
0.066498 0.231750 0.118530
0.135986 0.233826 0.081787
0.203827 0.232361 0.053314
0.252991 0.236816 0.000732
0.286194 0.242432 0.000000
0.317810 0.247833 0.000000
0.344208 0.241913 0.000000
0.371216 0.232819 0.000000
0.400208 0.229401 0.000000
0.429749 0.230469 0.000000
0.458527 0.231232 0.000000
0.488037 0.233398 0.000000
0.516785 0.237549 0.000000
0.545837 0.243530 0.000000
0.575867 0.250916 0.000610
0.603729 0.258270 0.002136
0.631409 0.265869 0.003418
0.658112 0.273224 0.004456
0.682587 0.278717 0.006012
0.707458 0.283600 0.008026
0.734833 0.288635 0.011047
0.759155 0.292267 0.016632
0.781250 0.297150 0.022186
0.803253 0.299316 0.027283
0.825836 0.301941 0.030670
0.848083 0.305634 0.032562
0.870361 0.309021 0.030487
0.896606 0.311798 0.030273
0.000000 0.224762 0.176697
0.000000 0.227203 0.178009
0.000000 0.230530 0.175110
0.009949 0.235352 0.171326
0.034607 0.241486 0.163513
0.066772 0.251343 0.144562
0.106171 0.259003 0.096008
0.187958 0.256165 0.086670
0.250793 0.258209 0.023651
0.290436 0.263641 0.000732
0.321533 0.269745 0.000000
0.353516 0.276031 0.000000
0.378357 0.270935 0.000000
0.404755 0.260956 0.000000
0.435486 0.257812 0.000000
0.465332 0.257935 0.000000
0.493683 0.259552 0.000000
0.522919 0.262421 0.000000
0.550903 0.266052 0.000000
0.579346 0.271454 0.000000
0.607880 0.276825 0.001099
0.635590 0.283203 0.002136
0.662781 0.290497 0.003693
0.688324 0.296661 0.004730
0.713531 0.301697 0.006012
0.740570 0.306030 0.008514
0.767242 0.310150 0.013306
0.788544 0.314545 0.019531
0.810303 0.317169 0.024536
0.832245 0.319458 0.028046
0.855408 0.321686 0.030518
0.878052 0.324097 0.028625
0.903473 0.327087 0.026306
0.000000 0.241608 0.190704
0.000000 0.244659 0.191956
0.000000 0.248627 0.189819
0.010620 0.254425 0.186554
0.036224 0.261841 0.180756
0.067871 0.270569 0.165192
0.096558 0.280457 0.119476
0.178619 0.280151 0.103088
0.241608 0.281097 0.078278
0.293243 0.285889 0.002167
0.327606 0.291901 0.000000
0.357239 0.297119 0.000000
0.387817 0.306305 0.000000
0.412720 0.300751 0.000000
0.440369 0.289490 0.000000
0.470612 0.286255 0.000000
0.499359 0.287109 0.000000
0.528473 0.289276 0.000000
0.557343 0.291779 0.000000
0.584686 0.295685 0.000458
0.613068 0.298859 0.001556
0.640503 0.303009 0.002625
0.666443 0.308350 0.003387
0.692627 0.313965 0.004395
0.718109 0.319977 0.005707
0.743164 0.324158 0.006805
0.772980 0.328552 0.009613
0.796173 0.331909 0.014404
0.817841 0.334991 0.020172
0.840576 0.336456 0.023895
0.863831 0.338867 0.025726
0.885803 0.340332 0.024597
0.910797 0.343170 0.023041
0.000000 0.259399 0.205383
0.000000 0.260925 0.204376
0.000000 0.267029 0.203918
0.012115 0.272186 0.200378
0.038361 0.280579 0.196320
0.069611 0.289612 0.183380
0.098572 0.299042 0.151093
0.159119 0.304230 0.115021
0.232300 0.303955 0.106476
0.288300 0.307281 0.055756
0.331299 0.313751 0.001465
0.364349 0.319366 0.000000
0.392212 0.327759 0.000000
0.424255 0.337402 0.000000
0.449005 0.330658 0.000000
0.475525 0.319458 0.000000
0.505890 0.316223 0.000397
0.535858 0.317078 0.000458
0.564667 0.319763 0.001221
0.591858 0.322083 0.002014
0.618835 0.324249 0.002655
0.646393 0.327057 0.003601
0.671936 0.330292 0.004395
0.696686 0.333466 0.005188
0.721222 0.337677 0.005707
0.746002 0.343201 0.006744
0.775604 0.348419 0.008179
0.800720 0.350220 0.011292
0.824982 0.351532 0.015411
0.848816 0.353180 0.017944
0.871918 0.355957 0.018341
0.893097 0.356689 0.019531
0.915497 0.360779 0.019165
0.000000 0.276306 0.219269
0.000000 0.279480 0.218079
0.000000 0.285248 0.217529
0.015564 0.290466 0.214020
0.041565 0.299103 0.211029
0.072540 0.307251 0.198792
0.099213 0.317230 0.177887
0.136505 0.326599 0.128326
0.217377 0.326660 0.124542
0.280579 0.328766 0.100342
0.330383 0.335083 0.027008
0.368134 0.342133 0.001465
0.399841 0.348907 0.000000
0.428345 0.358795 0.000000
0.460327 0.368927 0.000000
0.484650 0.362457 0.000000
0.513092 0.350189 0.001587
0.542664 0.346954 0.002777
0.571045 0.348755 0.003113
0.598877 0.349945 0.003571
0.625366 0.350555 0.003876
0.652161 0.352814 0.004639
0.677704 0.355347 0.005157
0.701782 0.357758 0.005951
0.725525 0.359528 0.006714
0.749664 0.362518 0.007507
0.776611 0.366730 0.008301
0.803253 0.369049 0.009949
0.830261 0.370422 0.011871
0.853271 0.372253 0.012939
0.876282 0.374237 0.013397
0.896790 0.374329 0.014954
0.919983 0.377686 0.016937
0.000000 0.293457 0.232086
0.000000 0.295929 0.230286
0.000000 0.301880 0.229553
0.018677 0.309143 0.228180
0.043732 0.316833 0.225372
0.075226 0.325165 0.214600
0.101105 0.335144 0.197815
0.126495 0.346375 0.153320
0.204559 0.349182 0.136810
0.270569 0.350403 0.126831
0.323944 0.356018 0.089600
0.370117 0.363495 0.005035
0.404419 0.371338 0.001465
0.434570 0.379089 0.000000
0.463654 0.391968 0.000000
0.496185 0.402924 0.000000
0.521942 0.395020 0.000397
0.548859 0.382599 0.003510
0.576324 0.379456 0.004730
0.605347 0.379517 0.005432
0.632935 0.379700 0.005920
0.659058 0.380554 0.006195
0.683746 0.382507 0.006714
0.708282 0.384674 0.007507
0.732361 0.385590 0.007690
0.755768 0.385956 0.008270
0.778839 0.386536 0.008820
0.804047 0.387695 0.009583
0.832275 0.389923 0.010345
0.853760 0.392151 0.011047
0.876099 0.392731 0.011871
0.900452 0.392883 0.013428
0.924530 0.392548 0.015381
0.000000 0.313141 0.246613
0.000000 0.312927 0.242859
0.001831 0.318970 0.242279
0.021423 0.326538 0.241486
0.046906 0.333527 0.238495
0.078064 0.342957 0.229523
0.105743 0.352936 0.212921
0.129395 0.364410 0.183258
0.183411 0.371887 0.146118
0.260071 0.373108 0.145081
0.315094 0.376862 0.126099
0.368134 0.383972 0.063232
0.407837 0.393707 0.003387
0.440735 0.402313 0.001099
0.469971 0.411682 0.000000
0.500977 0.427063 0.000000
0.532776 0.438477 0.000000
0.556824 0.429535 0.001587
0.583557 0.416290 0.005035
0.612213 0.412262 0.006989
0.640167 0.411774 0.007477
0.666046 0.411163 0.007843
0.690704 0.411835 0.008240
0.714844 0.413025 0.009033
0.738434 0.412659 0.009033
0.762024 0.412201 0.009827
0.784851 0.411407 0.009827
0.806152 0.410217 0.010376
0.831818 0.409882 0.011047
0.854431 0.412018 0.011414
0.877899 0.410400 0.011871
0.905701 0.410583 0.013000
0.926270 0.409515 0.013824
0.000000 0.334747 0.263489
0.000000 0.334991 0.259857
0.002960 0.340118 0.258728
0.022980 0.347198 0.257965
0.051758 0.353790 0.253937
0.080322 0.362457 0.246552
0.109344 0.371399 0.229523
0.132996 0.382355 0.205231
0.158752 0.393860 0.159515
0.242950 0.395905 0.158875
0.306335 0.398926 0.150055
0.358826 0.405029 0.119873
0.406464 0.414581 0.047333
0.443939 0.424774 0.003693
0.476807 0.434479 0.001129
0.505676 0.445221 0.000000
0.536835 0.464020 0.000000
0.566925 0.475494 0.000000
0.591980 0.464508 0.002716
0.619354 0.451172 0.007019
0.646027 0.446320 0.008972
0.671356 0.444092 0.009735
0.697174 0.443756 0.009796
0.721680 0.442841 0.010468
0.744629 0.441772 0.010590
0.767914 0.440308 0.010956
0.791016 0.439026 0.011383
0.813385 0.437988 0.011383
0.834717 0.434174 0.011383
0.858704 0.432648 0.012177
0.884583 0.429565 0.012665
0.910309 0.429047 0.013428
0.926453 0.429169 0.013428
0.000000 0.357574 0.281952
0.000000 0.358429 0.278931
0.001587 0.363770 0.277954
0.022858 0.370605 0.277283
0.053467 0.377869 0.273895
0.080902 0.385590 0.267944
0.109680 0.392578 0.252136
0.134857 0.400391 0.228302
0.156464 0.412079 0.188232
0.219025 0.419067 0.169159
0.292297 0.421783 0.168457
0.347290 0.427246 0.154449
0.396393 0.435425 0.118896
0.442657 0.446014 0.037048
0.479950 0.458130 0.003693
0.512054 0.469421 0.001465
0.538513 0.480774 0.000732
0.570709 0.501556 0.000000
0.601624 0.512177 0.000061
0.626343 0.501251 0.003174
0.652649 0.487366 0.007629
0.677124 0.479980 0.010529
0.702698 0.477112 0.011353
0.728119 0.475250 0.012146
0.751404 0.472870 0.012146
0.775879 0.470154 0.012146
0.797607 0.468445 0.012939
0.821136 0.466553 0.012939
0.842407 0.462341 0.012939
0.866028 0.456604 0.012939
0.891113 0.454010 0.013733
0.915985 0.449951 0.014191
0.926514 0.448273 0.014191
0.000000 0.382935 0.303009
0.000000 0.384674 0.300720
0.000000 0.389191 0.299011
0.021820 0.394073 0.296570
0.054352 0.401672 0.293732
0.082001 0.407867 0.287476
0.109863 0.413605 0.273560
0.136078 0.419189 0.250427
0.159546 0.429535 0.215515
0.192963 0.442200 0.179138
0.271667 0.446655 0.183044
0.333527 0.450928 0.178223
0.386566 0.457581 0.158386
0.435272 0.467834 0.116638
0.479706 0.480530 0.031647
0.515594 0.494141 0.004791
0.545502 0.504639 0.002258
0.572021 0.516815 0.001099
0.605927 0.540314 0.000732
0.634583 0.550995 0.000336
0.658539 0.539917 0.003174
0.684845 0.523254 0.008301
0.708832 0.513245 0.011719
0.733490 0.509369 0.012909
0.756927 0.506134 0.013611
0.782654 0.502472 0.013885
0.804657 0.498688 0.014496
0.827972 0.495148 0.014496
0.850281 0.490967 0.014496
0.873688 0.485046 0.014496
0.897522 0.481354 0.014496
0.919525 0.474487 0.014496
0.926605 0.470673 0.014496
0.000000 0.406647 0.322601
0.000000 0.408508 0.320129
0.000000 0.411591 0.317291
0.021637 0.415619 0.314148
0.055176 0.420807 0.309509
0.084656 0.426117 0.302429
0.111755 0.431671 0.290009
0.137909 0.437103 0.269287
0.161591 0.446930 0.241516
0.181854 0.461212 0.198151
0.255829 0.468292 0.192810
0.321625 0.473877 0.194153
0.373749 0.480896 0.186554
0.426392 0.489624 0.161285
0.473206 0.502472 0.118042
0.515656 0.515930 0.032654
0.550598 0.529297 0.005554
0.579620 0.541046 0.003326
0.606354 0.555939 0.002289
0.638489 0.580139 0.001801
0.664795 0.588898 0.000824
0.689240 0.576843 0.003174
0.715729 0.559418 0.008575
0.740936 0.547882 0.012512
0.763458 0.541626 0.013885
0.786804 0.537140 0.015259
0.811340 0.532379 0.015778
0.834076 0.526520 0.016052
0.858215 0.519897 0.016052
0.882111 0.514526 0.016052
0.905731 0.508331 0.016052
0.919403 0.502075 0.016022
0.926636 0.498596 0.015259
0.000000 0.422913 0.335510
0.000000 0.424744 0.333130
0.000000 0.428589 0.330719
0.024628 0.432373 0.327148
0.056488 0.436096 0.321960
0.087677 0.442413 0.315552
0.115051 0.449249 0.304749
0.139679 0.455811 0.288788
0.162720 0.464264 0.266388
0.184967 0.478180 0.229797
0.236786 0.488922 0.200684
0.310242 0.494904 0.205994
0.363892 0.502655 0.204407
0.414825 0.511505 0.192566
0.464203 0.523376 0.167114
0.510284 0.536621 0.118530
0.551208 0.551208 0.034149
0.584290 0.566406 0.007477
0.612213 0.578888 0.005127
0.637482 0.594208 0.003723
0.667938 0.617523 0.003357
0.694092 0.624451 0.001587
0.718994 0.612061 0.003174
0.746857 0.594360 0.008331
0.770386 0.581787 0.013275
0.793091 0.572662 0.015717
0.817047 0.568329 0.016174
0.841858 0.560822 0.016815
0.866730 0.552307 0.017609
0.890076 0.545227 0.017609
0.911713 0.538269 0.017609
0.919495 0.531586 0.016815
0.926788 0.528015 0.016815
0.000000 0.437683 0.346649
0.000000 0.440277 0.344940
0.000000 0.444641 0.343323
0.025513 0.449524 0.340912
0.059082 0.453033 0.335480
0.089203 0.458771 0.329742
0.118683 0.465942 0.319183
0.143372 0.473663 0.305878
0.166504 0.481720 0.285675
0.188690 0.494995 0.256195
0.214569 0.510132 0.215729
0.288879 0.518494 0.217072
0.350647 0.525726 0.219452
0.404022 0.532867 0.214020
0.453339 0.543671 0.199646
0.502808 0.556793 0.169495
0.546265 0.572205 0.125366
0.584442 0.588928 0.058533
0.617828 0.603851 0.009796
0.642914 0.616150 0.007446
0.667114 0.631989 0.006683
0.698212 0.654907 0.005646
0.721832 0.658478 0.002563
0.746338 0.644745 0.002380
0.774475 0.628601 0.007751
0.799591 0.612732 0.014008
0.823029 0.603180 0.016632
0.847260 0.595367 0.018158
0.873688 0.585999 0.018372
0.898315 0.577209 0.018921
0.912628 0.568207 0.018921
0.919830 0.561646 0.018341
0.927094 0.559631 0.018158
0.000000 0.451416 0.356964
0.000000 0.455597 0.356415
0.003204 0.458649 0.353729
0.033844 0.462952 0.350769
0.064941 0.468842 0.347870
0.093231 0.474335 0.342621
0.120819 0.482666 0.335449
0.147461 0.489868 0.321381
0.170624 0.500214 0.305939
0.192413 0.510986 0.279053
0.211426 0.526337 0.243378
0.263794 0.539795 0.225861
0.335449 0.547607 0.232025
0.393066 0.554596 0.230621
0.443817 0.564911 0.223602
0.492523 0.579132 0.208435
0.538361 0.593628 0.180939
0.579285 0.608887 0.140839
0.617065 0.625122 0.077972
0.648376 0.639191 0.012573
0.670837 0.650848 0.010040
0.695099 0.669189 0.009857
0.723877 0.689453 0.008423
0.745667 0.690247 0.004822
0.772125 0.677521 0.002380
0.801849 0.657684 0.008545
0.827423 0.638824 0.014832
0.853333 0.628204 0.017487
0.877808 0.619415 0.019012
0.902466 0.610138 0.019135
0.912140 0.601532 0.019135
0.919312 0.595062 0.019135
0.927246 0.591858 0.019135
0.000000 0.471863 0.372925
0.000000 0.473145 0.369904
0.008362 0.477722 0.368683
0.041412 0.481079 0.364929
0.071289 0.487854 0.363098
0.098785 0.494537 0.359222
0.124542 0.502594 0.353149
0.151184 0.509796 0.340027
0.174194 0.520111 0.326660
0.195862 0.530884 0.305786
0.216827 0.545685 0.272766
0.243652 0.561859 0.238800
0.318390 0.570282 0.243286
0.379913 0.579987 0.246979
0.431030 0.590912 0.245636
0.479614 0.602051 0.237457
0.526398 0.614502 0.220367
0.570190 0.629913 0.195770
0.610443 0.646301 0.161133
0.646240 0.661957 0.112030
0.675232 0.675751 0.047913
0.696228 0.686676 0.014618
0.722015 0.704956 0.013672
0.747650 0.720245 0.011810
0.771637 0.719635 0.005798
0.797852 0.705872 0.002533
0.830078 0.683777 0.009308
0.857330 0.665344 0.015747
0.882751 0.653595 0.018951
0.900757 0.644470 0.020325
0.909454 0.636139 0.019714
0.917023 0.631775 0.019714
0.927155 0.625336 0.019531
0.000000 0.510986 0.404724
0.000000 0.509949 0.400513
0.003693 0.512512 0.396759
0.033203 0.519623 0.397095
0.067505 0.525299 0.394470
0.095673 0.533203 0.392426
0.121216 0.539124 0.386963
0.149170 0.548004 0.378479
0.173920 0.557343 0.366486
0.197815 0.566772 0.348907
0.219543 0.577484 0.323425
0.238983 0.593994 0.294678
0.268555 0.610107 0.261139
0.341370 0.618317 0.265076
0.401550 0.626953 0.268951
0.453094 0.637146 0.269226
0.501984 0.647797 0.263855
0.550323 0.659393 0.249847
0.592834 0.673889 0.231781
0.633545 0.687958 0.202789
0.670013 0.700531 0.160706
0.697571 0.711914 0.115936
0.719971 0.720337 0.053192
0.746674 0.736359 0.016937
0.772430 0.748901 0.013550
