cube滤镜(3D LUT)/Molybdenite.cube
# Created by: Lutify.me
# Copyright: (c) Copyright Lutify.me 2015
# Website: https://lutify.me
#LUT size
LUT_3D_SIZE 9
#LUT data points
0.000000 0.000000 0.000000
0.081848 0.000000 0.000000
0.205170 0.019714 0.006104
0.320435 0.039520 0.016266
0.422302 0.059265 0.028381
0.529083 0.077576 0.043823
0.632538 0.097107 0.055878
0.727997 0.117279 0.064667
0.824982 0.136871 0.073669
0.000000 0.077484 0.054871
0.082336 0.076447 0.000000
0.226868 0.073730 0.000000
0.336304 0.092072 0.003540
0.439728 0.115143 0.012909
0.551849 0.139069 0.024628
0.655212 0.160980 0.034698
0.752533 0.176788 0.047333
0.840973 0.193542 0.055878
0.000000 0.157288 0.120819
0.036652 0.167877 0.085632
0.237061 0.163544 0.000000
0.358063 0.153076 0.000000
0.473053 0.174896 0.003754
0.581787 0.205627 0.009552
0.683380 0.232269 0.015564
0.783417 0.251282 0.032043
0.874512 0.264526 0.040619
0.000000 0.224762 0.176697
0.034607 0.241486 0.163513
0.250793 0.258209 0.023651
0.378357 0.270935 0.000000
0.493683 0.259552 0.000000
0.607880 0.276825 0.001099
0.713531 0.301697 0.006012
0.810303 0.317169 0.024536
0.903473 0.327087 0.026306
0.000000 0.293457 0.232086
0.043732 0.316833 0.225372
0.204559 0.349182 0.136810
0.404419 0.371338 0.001465
0.521942 0.395020 0.000397
0.632935 0.379700 0.005920
0.732361 0.385590 0.007690
0.832275 0.389923 0.010345
0.924530 0.392548 0.015381
0.000000 0.382935 0.303009
0.054352 0.401672 0.293732
0.159546 0.429535 0.215515
0.386566 0.457581 0.158386
0.545502 0.504639 0.002258
0.658539 0.539917 0.003174
0.756927 0.506134 0.013611
0.850281 0.490967 0.014496
0.926605 0.470673 0.014496
0.000000 0.451416 0.356964
0.064941 0.468842 0.347870
0.170624 0.500214 0.305939
0.335449 0.547607 0.232025
0.538361 0.593628 0.180939
0.670837 0.650848 0.010040
0.772125 0.677521 0.002380
0.877808 0.619415 0.019012
0.927246 0.591858 0.019135
0.000000 0.590698 0.466278
0.060181 0.614868 0.468536
0.166321 0.648041 0.457855
0.258514 0.683533 0.395874
0.430542 0.725922 0.315674
0.631775 0.752686 0.288086
0.761505 0.782562 0.149780
0.876984 0.779968 0.003448
0.922943 0.721710 0.015594
0.000000 0.753357 0.596802
0.036957 0.767456 0.595428
0.136719 0.794525 0.597534
0.227356 0.832947 0.590393
0.321533 0.875366 0.542511
0.420776 0.906311 0.393524
0.681732 0.895233 0.381561
0.847626 0.899414 0.245636
0.929291 0.876740 0.011841
0.000000 0.022278 0.033112
0.122955 0.016754 0.072296
0.238159 0.032623 0.076294
0.344086 0.048615 0.082489
0.446838 0.064728 0.090729
0.553009 0.082458 0.098785
0.654297 0.100586 0.107666
0.747864 0.114929 0.114624
0.833008 0.132416 0.112671
0.000000 0.075500 0.076721
0.060883 0.083679 0.086639
0.217651 0.097748 0.089569
0.339294 0.106293 0.089386
0.450134 0.115784 0.094971
0.559204 0.133118 0.103241
0.664886 0.154327 0.112732
0.758911 0.171478 0.123474
0.856232 0.184631 0.123718
0.000000 0.167358 0.140747
0.008789 0.187469 0.146973
0.240021 0.179260 0.052979
0.363251 0.173187 0.063507
0.470062 0.196747 0.076874
0.579010 0.223297 0.086304
0.685486 0.245178 0.099182
0.779266 0.258057 0.114380
0.873260 0.264038 0.114838
0.000000 0.231903 0.188934
0.000000 0.269714 0.211792
0.227020 0.276031 0.100677
0.381317 0.286163 0.028076
0.505737 0.276215 0.033325
0.616943 0.297333 0.045898
0.715149 0.320892 0.071625
0.804382 0.339783 0.096161
0.893311 0.349365 0.101471
0.000000 0.287903 0.233246
0.000000 0.345978 0.270477
0.149872 0.367798 0.157959
0.402405 0.387238 0.025818
0.523804 0.409668 0.028381
0.644043 0.396271 0.036469
0.750214 0.400909 0.049591
0.839844 0.409271 0.063751
0.926208 0.412231 0.061127
0.000000 0.341187 0.277496
0.011139 0.412323 0.321625
0.155579 0.441833 0.270325
0.364380 0.471832 0.192627
0.546997 0.520569 0.026031
0.660004 0.553528 0.029968
0.769714 0.524017 0.044556
0.868500 0.500641 0.045898
0.926666 0.488342 0.045624
0.000000 0.428192 0.349701
0.040527 0.472412 0.368347
0.165741 0.510040 0.342102
0.306610 0.557983 0.246063
0.526367 0.604919 0.218109
0.673859 0.661926 0.033905
0.772095 0.685608 0.032440
0.892517 0.634552 0.049927
0.927155 0.601959 0.053741
0.000000 0.578674 0.468109
0.008484 0.638245 0.497986
0.152985 0.668945 0.489594
0.257782 0.702728 0.439148
0.398560 0.742798 0.327240
0.623260 0.763428 0.305481
0.761597 0.786041 0.164124
0.873383 0.787323 0.035004
0.923157 0.729370 0.067322
0.000000 0.747711 0.599274
0.005524 0.779846 0.610504
0.124573 0.804016 0.610535
0.214417 0.840759 0.607513
0.312439 0.883362 0.566956
0.395477 0.920166 0.418335
0.674927 0.908752 0.393219
0.843506 0.900085 0.256836
0.926971 0.883606 0.035889
0.000000 0.066986 0.087585
0.048615 0.064850 0.139160
0.270721 0.066315 0.145355
0.376801 0.085907 0.154114
0.478455 0.097992 0.156464
0.576782 0.112640 0.162231
0.667450 0.128174 0.172363
0.753082 0.140106 0.177643
0.848145 0.152771 0.174530
0.000000 0.108063 0.123444
0.000488 0.120270 0.138885
0.254425 0.121368 0.170288
0.364197 0.134644 0.171448
0.473877 0.143127 0.168793
0.578094 0.157959 0.174316
0.671783 0.169800 0.180786
0.758423 0.180115 0.184662
0.853729 0.187714 0.175995
0.000000 0.169067 0.167419
0.000000 0.186188 0.184296
0.198212 0.202179 0.201355
0.344452 0.214569 0.202820
0.464172 0.220154 0.198425
0.577606 0.230377 0.198456
0.678680 0.239288 0.201416
0.771332 0.250427 0.203827
0.868011 0.258270 0.195740
0.000000 0.272369 0.246399
0.000000 0.272491 0.240082
0.131775 0.303192 0.236542
0.374146 0.309357 0.152100
0.492889 0.306610 0.176666
0.599487 0.330048 0.189270
0.701324 0.348236 0.199707
0.796967 0.357819 0.202911
0.888733 0.355042 0.192535
0.000000 0.329895 0.285187
0.000000 0.324341 0.275085
0.115723 0.379272 0.289429
0.361298 0.403687 0.180176
0.516998 0.427490 0.129181
0.639252 0.412537 0.148804
0.739532 0.422821 0.160248
0.828125 0.434753 0.169067
0.920166 0.435669 0.163239
0.000000 0.376404 0.321198
0.000000 0.381073 0.319580
0.122375 0.447083 0.343353
0.298615 0.490845 0.237000
0.533295 0.534851 0.149872
0.655853 0.566162 0.119141
0.766174 0.534821 0.141449
0.867004 0.514008 0.132660
0.926636 0.506897 0.127808
0.000000 0.414917 0.353027
0.000000 0.430817 0.360626
0.138977 0.510101 0.392883
0.259583 0.569183 0.304810
0.494171 0.612610 0.278137
0.671265 0.673645 0.133850
0.768219 0.694794 0.093750
0.887482 0.642242 0.084686
0.927155 0.609985 0.137177
0.000000 0.539825 0.447266
0.000000 0.589539 0.480713
0.119171 0.683136 0.522217
0.247375 0.720551 0.493469
0.349518 0.756958 0.348450
0.603424 0.775757 0.339447
0.760071 0.795502 0.203308
0.869720 0.793945 0.063293
0.920563 0.737885 0.151489
0.000000 0.739624 0.604675
0.000000 0.760620 0.612366
0.091736 0.809814 0.624420
0.194580 0.843994 0.621399
0.296906 0.901611 0.606812
0.390808 0.928223 0.475525
0.650116 0.921295 0.406219
0.843628 0.905243 0.268677
0.926788 0.893005 0.059418
0.000000 0.113373 0.141724
0.018219 0.114899 0.150604
0.261963 0.102936 0.229584
0.404541 0.123718 0.212372
0.510040 0.140808 0.217896
0.603821 0.152832 0.221832
0.687561 0.163666 0.227936
0.766510 0.172485 0.231262
0.854095 0.181213 0.227051
0.000000 0.147339 0.172180
0.000000 0.160004 0.187927
0.163513 0.153351 0.265717
0.391846 0.176300 0.239471
0.502289 0.188568 0.239594
0.601776 0.197937 0.240601
0.688660 0.205231 0.243408
0.769684 0.211945 0.244293
0.859955 0.217316 0.235107
0.000000 0.195892 0.212158
0.000000 0.211273 0.228729
0.082428 0.234741 0.256531
0.368774 0.242676 0.276642
0.485168 0.252563 0.273651
0.595276 0.258972 0.269714
0.688751 0.261749 0.267700
0.773743 0.262817 0.264313
0.867401 0.262482 0.249969
0.000000 0.261047 0.259796
0.000000 0.279877 0.276886
0.033173 0.311218 0.306702
0.323151 0.328613 0.315887
0.467560 0.343414 0.319153
0.590546 0.354950 0.317322
0.697815 0.357605 0.312653
0.790253 0.357819 0.303406
0.884033 0.349030 0.283295
0.000000 0.362488 0.337555
0.000000 0.385712 0.356201
0.000000 0.389557 0.352448
0.261475 0.423706 0.324280
0.501587 0.447723 0.265717
0.620117 0.445312 0.300232
0.720856 0.463593 0.306152
0.814331 0.476562 0.307343
0.907806 0.463440 0.287506
0.000000 0.454620 0.409729
0.000000 0.432556 0.384613
0.000000 0.441589 0.385132
0.240051 0.496155 0.372925
0.481750 0.542175 0.295868
0.646271 0.579529 0.239410
0.754608 0.550232 0.268463
0.848694 0.544098 0.260468
0.926575 0.532928 0.253357
0.000000 0.480957 0.424866
0.000000 0.467072 0.409271
0.000000 0.484955 0.416443
0.243866 0.566986 0.426666
0.431976 0.627045 0.338959
0.649567 0.680359 0.273804
0.761719 0.704681 0.218964
0.878052 0.652344 0.220032
0.927032 0.619934 0.235748
0.000000 0.593231 0.507477
0.000000 0.589996 0.498993
0.000000 0.656189 0.538727
0.218018 0.731018 0.546570
0.347809 0.769897 0.457092
0.566010 0.787506 0.385345
0.751923 0.806427 0.297729
0.864288 0.801361 0.168427
0.924133 0.745758 0.249084
0.000000 0.764679 0.635590
0.000000 0.769531 0.632111
0.000000 0.787903 0.630402
0.148468 0.884033 0.673798
0.276031 0.922638 0.658600
0.404572 0.940002 0.550964
0.632294 0.932526 0.482880
0.839508 0.913544 0.299316
0.926453 0.901031 0.097748
0.000000 0.158051 0.194305
0.000000 0.160919 0.201263
0.153839 0.160431 0.309296
0.382294 0.172363 0.292786
0.538086 0.180115 0.263733
0.633789 0.192902 0.266907
0.711426 0.204224 0.273895
0.786804 0.211243 0.274597
0.867035 0.215240 0.270416
0.000000 0.183868 0.217133
0.000000 0.201538 0.237579
0.106415 0.214294 0.263000
0.367249 0.213165 0.319763
0.529938 0.227356 0.290771
0.629059 0.240265 0.292877
0.710510 0.247406 0.295807
0.787262 0.252045 0.296021
0.869354 0.252197 0.283997
0.000000 0.231689 0.259521
0.000000 0.243469 0.272552
0.013611 0.268585 0.303253
0.295746 0.260040 0.363647
0.512360 0.286896 0.330566
0.618835 0.299072 0.332581
0.706970 0.302673 0.331024
0.787170 0.301300 0.323792
0.874420 0.296570 0.307709
0.000000 0.281677 0.299805
0.000000 0.298706 0.317566
0.000000 0.323730 0.344055
0.227356 0.353912 0.377136
0.489441 0.362762 0.380890
0.606323 0.376495 0.383392
0.706085 0.377075 0.377838
0.793640 0.369141 0.362885
0.881836 0.354492 0.337616
0.000000 0.350800 0.352448
0.000000 0.368683 0.368225
0.000000 0.397766 0.395111
0.190033 0.440277 0.433655
0.453552 0.461243 0.433319
0.594879 0.477539 0.441437
0.709229 0.487122 0.439758
0.806458 0.485382 0.427917
0.901398 0.461639 0.396240
0.000000 0.459351 0.437592
0.000000 0.486267 0.458984
0.000000 0.515991 0.483582
0.114197 0.520660 0.475494
0.394135 0.554352 0.440247
0.624542 0.594299 0.385406
0.733429 0.584198 0.420227
0.827606 0.594360 0.418457
0.923859 0.579803 0.400726
0.000000 0.585480 0.542694
0.000000 0.575836 0.529449
0.000000 0.551361 0.500488
0.135345 0.566132 0.497955
0.367432 0.637146 0.473785
0.601105 0.683502 0.413696
0.748779 0.714935 0.350616
0.862122 0.668671 0.363770
0.927216 0.643860 0.355530
0.000000 0.671844 0.601135
0.000000 0.656891 0.578796
0.000000 0.660828 0.572449
0.109009 0.718079 0.587830
0.336121 0.777222 0.555908
0.505951 0.803253 0.440033
0.730682 0.812866 0.405151
0.856506 0.809662 0.305573
0.927216 0.757324 0.364502
0.000000 0.805695 0.693604
0.000000 0.801788 0.681519
0.000000 0.806213 0.676483
0.000000 0.908844 0.733002
0.256470 0.939453 0.701141
0.471283 0.946716 0.656494
0.651184 0.933044 0.595612
0.833252 0.925842 0.385590
0.924988 0.910431 0.262665
0.000000 0.201080 0.244720
0.000000 0.205170 0.249329
0.129333 0.222412 0.291138
0.358887 0.217834 0.364075
0.521179 0.228607 0.343567
0.654144 0.228943 0.314667
0.731049 0.243103 0.339233
0.797394 0.250122 0.350555
0.869568 0.249176 0.347168
0.000000 0.225342 0.266968
0.000000 0.243774 0.288605
0.068512 0.257568 0.306549
0.298370 0.248596 0.402893
0.501892 0.268890 0.373230
0.646271 0.273193 0.353790
0.725769 0.285553 0.371552
0.796509 0.289032 0.374420
0.871979 0.286682 0.366302
0.000000 0.266541 0.305054
0.000000 0.277008 0.317108
0.000000 0.302826 0.347717
0.220093 0.313507 0.372375
0.475128 0.319458 0.417389
0.632782 0.329529 0.402832
0.717163 0.338715 0.412598
0.794067 0.339325 0.408203
0.873260 0.330505 0.390869
0.000000 0.313538 0.346130
0.000000 0.329315 0.362610
0.000000 0.349182 0.384644
0.161316 0.386292 0.429504
0.417358 0.372467 0.476654
0.615540 0.400818 0.459045
0.710541 0.410828 0.464081
0.794586 0.405914 0.451965
0.878967 0.387604 0.424683
0.000000 0.366547 0.389893
0.000000 0.385590 0.409698
0.000000 0.409546 0.434204
0.136139 0.449432 0.476624
0.359009 0.480927 0.507416
0.599701 0.486450 0.517273
0.707611 0.499329 0.519928
0.802002 0.496185 0.507935
0.888611 0.472229 0.473846
0.000000 0.442383 0.450928
0.000000 0.462311 0.468719
0.000000 0.489838 0.494904
0.052307 0.534454 0.535095
0.339752 0.577240 0.571777
0.582855 0.601898 0.560608
0.714966 0.615112 0.568085
0.817993 0.618195 0.565704
0.908966 0.596222 0.542023
0.000000 0.559479 0.544800
0.000000 0.586151 0.565826
0.000000 0.618866 0.592957
0.000000 0.653137 0.622162
0.271606 0.662079 0.608826
0.530273 0.697998 0.560699
0.733337 0.729492 0.512878
0.841492 0.705627 0.535431
0.926147 0.692108 0.530182
0.000000 0.700500 0.660370
0.000000 0.725311 0.679565
0.000000 0.730988 0.675629
0.000000 0.730377 0.660004
0.252808 0.771820 0.654175
0.476898 0.818817 0.577271
0.695038 0.824951 0.537018
0.845520 0.823181 0.462219
0.926849 0.776703 0.508148
0.000000 0.856659 0.779572
0.000000 0.852661 0.764771
0.000000 0.851746 0.751221
0.000000 0.874237 0.752533
0.213165 0.936768 0.756531
0.490814 0.955139 0.730011
0.679504 0.942535 0.706299
0.829681 0.930359 0.634735
0.920685 0.924896 0.420044
0.000000 0.246216 0.298126
0.000000 0.248413 0.299591
0.097961 0.261780 0.325531
0.283081 0.267242 0.449249
0.495667 0.271820 0.439606
0.630859 0.278717 0.436218
0.734711 0.272980 0.427155
0.801788 0.284637 0.448181
0.866211 0.284973 0.451111
0.000000 0.269440 0.319733
0.000000 0.284668 0.338318
0.026917 0.299255 0.354919
0.226868 0.312286 0.403412
0.472504 0.307831 0.469971
0.615936 0.321564 0.470459
0.726196 0.317139 0.460693
0.797302 0.327972 0.476776
0.864777 0.325317 0.474548
0.000000 0.302979 0.351257
0.000000 0.312805 0.362885
0.000000 0.340027 0.394989
0.173035 0.359283 0.424103
0.402832 0.340424 0.527924
0.601807 0.365692 0.511261
0.718628 0.373291 0.508667
0.793884 0.381012 0.519012
0.866211 0.374512 0.507568
0.000000 0.349365 0.394745
0.000000 0.363922 0.411072
0.000000 0.378662 0.427704
0.112549 0.421265 0.479919
0.320557 0.414886 0.499176
0.599365 0.405457 0.566498
0.716644 0.432434 0.557587
0.794739 0.443359 0.565094
0.869720 0.432190 0.546753
0.000000 0.398926 0.439728
0.000000 0.416443 0.458618
0.000000 0.436951 0.479736
0.082825 0.473602 0.520752
0.280121 0.510437 0.564453
0.512787 0.486511 0.631714
0.718994 0.506439 0.611938
0.798248 0.523376 0.615234
0.876465 0.510437 0.590637
0.000000 0.458496 0.492188
0.000000 0.477844 0.510925
0.000000 0.500366 0.533691
0.002167 0.536957 0.572174
0.277679 0.579254 0.614166
0.502594 0.614075 0.643982
0.716217 0.611298 0.663696
0.803650 0.624054 0.662415
0.889343 0.607635 0.636627
0.000000 0.541290 0.559570
0.000000 0.559570 0.575653
0.000000 0.584076 0.597809
0.000000 0.617981 0.629700
0.237000 0.666962 0.673767
0.500427 0.706726 0.702026
0.705383 0.733063 0.699097
0.824005 0.736755 0.697937
0.916840 0.720093 0.680664
0.000000 0.660675 0.657593
0.000000 0.684326 0.675751
0.000000 0.715912 0.700317
0.000000 0.753265 0.729736
0.014679 0.797241 0.761383
0.402374 0.816162 0.745209
0.660919 0.841797 0.697266
0.830170 0.840393 0.660095
0.926788 0.807587 0.650848
0.000000 0.808289 0.775177
0.000000 0.838898 0.797516
0.000000 0.878418 0.825745
0.000000 0.898712 0.830444
0.000000 0.919464 0.826111
0.211060 0.964844 0.798248
0.636230 0.959320 0.775238
0.807190 0.941681 0.742462
0.918762 0.937164 0.629761
0.000000 0.293884 0.355377
0.000000 0.297119 0.356689
0.057709 0.309052 0.376038
0.226166 0.329987 0.437927
0.449463 0.313690 0.541351
0.606873 0.324860 0.549469
0.713440 0.329437 0.557434
0.799805 0.321289 0.554291
0.870148 0.330353 0.581116
0.000000 0.313507 0.374115
0.000000 0.332092 0.395721
0.000000 0.341400 0.406342
0.189911 0.356781 0.444794
0.361969 0.342773 0.597992
0.602783 0.349518 0.575928
0.715088 0.361938 0.585083
0.801727 0.359070 0.584045
0.875366 0.365845 0.606049
0.000000 0.342529 0.401428
0.000000 0.356110 0.417511
0.000000 0.380890 0.446106
0.137115 0.403534 0.478271
0.294800 0.398407 0.538391
0.577789 0.379456 0.632172
0.721222 0.391815 0.626740
0.810303 0.397827 0.623505
0.882416 0.407562 0.636749
0.000000 0.389618 0.447510
0.000000 0.401001 0.460510
0.000000 0.411896 0.472961
0.050507 0.456299 0.529907
0.264954 0.461395 0.553925
0.476471 0.433838 0.692963
0.721954 0.432312 0.682556
0.822388 0.446503 0.671112
0.891174 0.457367 0.672760
0.000000 0.436920 0.492126
0.000000 0.452759 0.509369
0.000000 0.468445 0.526520
0.002655 0.499481 0.563904
0.229736 0.539398 0.611511
0.417175 0.522064 0.641754
0.677917 0.511932 0.734467
0.831177 0.514038 0.722626
0.897797 0.526825 0.710541
0.000000 0.491150 0.541595
0.000000 0.507385 0.559296
0.000000 0.525360 0.577820
0.000000 0.555634 0.610596
0.220367 0.597839 0.655853
0.426025 0.634155 0.694611
0.624298 0.616425 0.779114
0.833008 0.607330 0.766113
0.899963 0.617279 0.742828
0.000000 0.556274 0.599854
0.000000 0.574860 0.618347
0.000000 0.593079 0.636169
0.000000 0.617859 0.660614
0.183594 0.659546 0.702881
0.425873 0.704132 0.740936
0.637543 0.739960 0.773010
0.828217 0.723419 0.795319
0.901245 0.722870 0.776398
0.000000 0.641937 0.670471
0.000000 0.656677 0.683228
0.000000 0.678497 0.702209
0.000000 0.704437 0.724976
0.042114 0.746368 0.763519
0.381744 0.787903 0.793701
0.627899 0.826752 0.818665
0.808899 0.849365 0.808380
0.926605 0.836395 0.789825
0.000000 0.758606 0.767426
0.000000 0.783783 0.785492
0.000000 0.811340 0.805969
0.000000 0.848206 0.833496
0.000000 0.890137 0.863831
0.195770 0.942322 0.890778
0.193634 0.991486 0.876312
0.785370 0.963135 0.834686
0.919647 0.954407 0.774261
0.000000 0.349243 0.420929
0.000000 0.346252 0.416809
0.000000 0.357910 0.433258
0.196991 0.375427 0.477692
0.310669 0.383820 0.602814
0.583252 0.356750 0.671204
0.720367 0.356384 0.679779
0.813812 0.355438 0.691986
0.892426 0.347198 0.696655
0.000000 0.365448 0.436584
0.000000 0.381226 0.454926
0.000000 0.384949 0.458344
0.153137 0.406189 0.495605
0.287598 0.413971 0.572998
0.525543 0.386353 0.714081
0.721619 0.379578 0.718201
0.826782 0.379120 0.726562
0.901825 0.380127 0.727905
0.000000 0.388916 0.458008
0.000000 0.403870 0.476532
0.000000 0.424713 0.500580
0.087402 0.447418 0.532440
0.268524 0.447327 0.568939
0.432007 0.421509 0.767578
0.692078 0.420319 0.762177
0.829285 0.411011 0.765594
0.911224 0.412537 0.762268
0.000000 0.434326 0.503845
0.000000 0.442200 0.513062
0.000000 0.452209 0.525391
0.000000 0.490387 0.573914
0.229309 0.502045 0.604889
0.373444 0.486023 0.684235
0.629608 0.472748 0.798950
0.818848 0.461426 0.809174
0.919281 0.456879 0.799652
0.000000 0.480591 0.548767
0.000000 0.494110 0.563599
0.000000 0.502594 0.573578
0.000000 0.525208 0.601685
0.177277 0.566284 0.652344
0.368958 0.561707 0.680298
0.560425 0.540192 0.850433
0.788422 0.538361 0.843994
0.924011 0.517273 0.834229
0.000000 0.529724 0.594879
0.000000 0.545074 0.611328
0.000000 0.557281 0.624451
0.000000 0.578247 0.646942
0.162354 0.614807 0.689697
0.357544 0.653717 0.734344
0.544891 0.636383 0.792847
0.761261 0.627655 0.868378
0.925781 0.599152 0.861420
0.000000 0.583832 0.644379
0.000000 0.599792 0.660797
0.000000 0.615875 0.676758
0.000000 0.633667 0.694977
0.098450 0.672760 0.737885
0.351318 0.714661 0.777008
0.510529 0.755920 0.840118
0.750519 0.732727 0.887024
0.925812 0.701660 0.885590
0.000000 0.652618 0.705383
0.000000 0.670349 0.723419
0.000000 0.686920 0.739197
0.000000 0.704437 0.754395
0.000000 0.735657 0.786713
0.316681 0.774719 0.821472
0.488251 0.829224 0.875488
0.752136 0.851379 0.883667
0.923523 0.820770 0.893890
0.000000 0.735504 0.773529
0.000000 0.753693 0.788422
0.000000 0.773346 0.804474
0.000000 0.796600 0.824615
0.000000 0.826721 0.851166
0.247528 0.868073 0.883911
0.436737 0.913849 0.916046
0.708649 0.943359 0.925262
0.899078 0.961243 0.901886
