cube滤镜(3D LUT)/Molybdenite.cube
# Created by: Lutify.me
# Copyright: (c) Copyright Lutify.me 2015
# Website: https://lutify.me
#LUT size
LUT_3D_SIZE 5
#LUT data points
0.000000 0.000000 0.000000
0.205170 0.019714 0.006104
0.422302 0.059265 0.028381
0.632538 0.097107 0.055878
0.824982 0.136871 0.073669
0.000000 0.157288 0.120819
0.237061 0.163544 0.000000
0.473053 0.174896 0.003754
0.683380 0.232269 0.015564
0.874512 0.264526 0.040619
0.000000 0.293457 0.232086
0.204559 0.349182 0.136810
0.521942 0.395020 0.000397
0.732361 0.385590 0.007690
0.924530 0.392548 0.015381
0.000000 0.451416 0.356964
0.170624 0.500214 0.305939
0.538361 0.593628 0.180939
0.772125 0.677521 0.002380
0.927246 0.591858 0.019135
0.000000 0.753357 0.596802
0.136719 0.794525 0.597534
0.321533 0.875366 0.542511
0.681732 0.895233 0.381561
0.929291 0.876740 0.011841
0.000000 0.066986 0.087585
0.270721 0.066315 0.145355
0.478455 0.097992 0.156464
0.667450 0.128174 0.172363
0.848145 0.152771 0.174530
0.000000 0.169067 0.167419
0.198212 0.202179 0.201355
0.464172 0.220154 0.198425
0.678680 0.239288 0.201416
0.868011 0.258270 0.195740
0.000000 0.329895 0.285187
0.115723 0.379272 0.289429
0.516998 0.427490 0.129181
0.739532 0.422821 0.160248
0.920166 0.435669 0.163239
0.000000 0.414917 0.353027
0.138977 0.510101 0.392883
0.494171 0.612610 0.278137
0.768219 0.694794 0.093750
0.927155 0.609985 0.137177
0.000000 0.739624 0.604675
0.091736 0.809814 0.624420
0.296906 0.901611 0.606812
0.650116 0.921295 0.406219
0.926788 0.893005 0.059418
0.000000 0.158051 0.194305
0.153839 0.160431 0.309296
0.538086 0.180115 0.263733
0.711426 0.204224 0.273895
0.867035 0.215240 0.270416
0.000000 0.231689 0.259521
0.013611 0.268585 0.303253
0.512360 0.286896 0.330566
0.706970 0.302673 0.331024
0.874420 0.296570 0.307709
0.000000 0.350800 0.352448
0.000000 0.397766 0.395111
0.453552 0.461243 0.433319
0.709229 0.487122 0.439758
0.901398 0.461639 0.396240
0.000000 0.585480 0.542694
0.000000 0.551361 0.500488
0.367432 0.637146 0.473785
0.748779 0.714935 0.350616
0.927216 0.643860 0.355530
0.000000 0.805695 0.693604
0.000000 0.806213 0.676483
0.256470 0.939453 0.701141
0.651184 0.933044 0.595612
0.924988 0.910431 0.262665
0.000000 0.246216 0.298126
0.097961 0.261780 0.325531
0.495667 0.271820 0.439606
0.734711 0.272980 0.427155
0.866211 0.284973 0.451111
0.000000 0.302979 0.351257
0.000000 0.340027 0.394989
0.402832 0.340424 0.527924
0.718628 0.373291 0.508667
0.866211 0.374512 0.507568
0.000000 0.398926 0.439728
0.000000 0.436951 0.479736
0.280121 0.510437 0.564453
0.718994 0.506439 0.611938
0.876465 0.510437 0.590637
0.000000 0.541290 0.559570
0.000000 0.584076 0.597809
0.237000 0.666962 0.673767
0.705383 0.733063 0.699097
0.916840 0.720093 0.680664
0.000000 0.808289 0.775177
0.000000 0.878418 0.825745
0.000000 0.919464 0.826111
0.636230 0.959320 0.775238
0.918762 0.937164 0.629761
0.000000 0.349243 0.420929
0.000000 0.357910 0.433258
0.310669 0.383820 0.602814
0.720367 0.356384 0.679779
0.892426 0.347198 0.696655
0.000000 0.388916 0.458008
0.000000 0.424713 0.500580
0.268524 0.447327 0.568939
0.692078 0.420319 0.762177
0.911224 0.412537 0.762268
0.000000 0.480591 0.548767
0.000000 0.502594 0.573578
0.177277 0.566284 0.652344
0.560425 0.540192 0.850433
0.924011 0.517273 0.834229
0.000000 0.583832 0.644379
0.000000 0.615875 0.676758
0.098450 0.672760 0.737885
0.510529 0.755920 0.840118
0.925812 0.701660 0.885590
0.000000 0.735504 0.773529
0.000000 0.773346 0.804474
0.000000 0.826721 0.851166
0.436737 0.913849 0.916046
0.899078 0.961243 0.901886
